;START_OF_HEADER
;HEADER_VERSION:0.1
;FLAVOR:Griffin
;GENERATOR.NAME:Cura_SteamEngine
;GENERATOR.VERSION:4.7.1
;GENERATOR.BUILD_DATE:2020-09-02
;TARGET_MACHINE.NAME:Ultimaker 3
;EXTRUDER_TRAIN.0.INITIAL_TEMPERATURE:205
;EXTRUDER_TRAIN.0.MATERIAL.VOLUME_USED:81
;EXTRUDER_TRAIN.0.MATERIAL.GUID:506c9f0d-e3aa-4bd4-b2d2-23e2425b1aa9
;EXTRUDER_TRAIN.0.NOZZLE.DIAMETER:0.4
;EXTRUDER_TRAIN.0.NOZZLE.NAME:AA 0.4
;BUILD_PLATE.TYPE:glass
;BUILD_PLATE.INITIAL_TEMPERATURE:60
;PRINT.TIME:95
;PRINT.GROUPS:1
;PRINT.SIZE.MIN.X:9
;PRINT.SIZE.MIN.Y:6
;PRINT.SIZE.MIN.Z:0.27
;PRINT.SIZE.MAX.X:125.628
;PRINT.SIZE.MAX.Y:116.295
;PRINT.SIZE.MAX.Z:3.87
;END_OF_HEADER
;Generated with Cura_SteamEngine 4.7.1
T0
M82 ;absolute extrusion mode

G92 E0
M109 S200
G0 F15000 X9 Y6 Z2
G280
G1 F1500 E-6.5
;LAYER_COUNT:39
;LAYER:0
M107
M204 S625
M205 X6 Y6
G1 F600 Z2.27
G0 F4285.7 X109.682 Y101.958 Z2.27
M204 S500
M205 X5 Y5
;- END OF START GCODE ----------------------------------------------------
 G28 ; home all axes
M82 ; use absolute distances for extrusion
G90 ; use absolute coordinates
G21 ; set units to millimeters
G92 E0 ; reset extrusion distance
M104 S185 ; set temperature
M109 S185 ; wait for temperature to be reached
G1 Z0.0 F360 E1
G92 E0
G1  F6000 X123.75 Y125.33 Z0.5
G1 F1200 X100 Y181.96 Z0.5 E5.01
G1 F1200 X76.25 Y125.33 Z0.5 E10.02
G1 F1200 X100 Y68.71 Z0.5 E15.04
G1 F1200 X123.75 Y125.33 Z0.5 E20.05
G92 E0
G1  F6000 X123.2 Y125.33 Z0.5
G1 F1200 X100 Y180.66 Z0.5 E4.9
G1 F1200 X76.8 Y125.33 Z0.5 E9.8
G1 F1200 X100 Y70 Z0.5 E14.69
G1 F1200 X123.2 Y125.33 Z0.5 E19.59
G92 E0
G1  F6000 X122.66 Y125.33 Z0.5
G1 F1200 X100 Y179.37 Z0.5 E4.78
G1 F1200 X77.34 Y125.33 Z0.5 E9.57
G1 F1200 X100 Y71.29 Z0.5 E14.35
G1 F1200 X122.66 Y125.33 Z0.5 E19.13
G92 E0
G1  F6000 X123.75 Y95.33 Z0.5
G1 F1200 X100 Y151.96 Z0.5 E5.01
G1 F1200 X76.25 Y95.33 Z0.5 E10.02
G1 F1200 X100 Y38.71 Z0.5 E15.04
G1 F1200 X123.75 Y95.33 Z0.5 E20.05
G92 E0
G1  F6000 X123.2 Y95.33 Z0.5
G1 F1200 X100 Y150.66 Z0.5 E4.9
G1 F1200 X76.8 Y95.33 Z0.5 E9.8
G1 F1200 X100 Y40 Z0.5 E14.69
G1 F1200 X123.2 Y95.33 Z0.5 E19.59
G92 E0
G1  F6000 X122.66 Y95.33 Z0.5
G1 F1200 X100 Y149.37 Z0.5 E4.78
G1 F1200 X77.34 Y95.33 Z0.5 E9.57
G1 F1200 X100 Y41.29 Z0.5 E14.35
G1 F1200 X122.66 Y95.33 Z0.5 E19.13
G92 E0
G1  F6000 X123.75 Y125.33 Z1
G1 F1200 X100 Y181.96 Z1 E5.01
G1 F1200 X76.25 Y125.33 Z1 E10.02
G1 F1200 X100 Y68.71 Z1 E15.04
G1 F1200 X123.75 Y125.33 Z1 E20.05
G92 E0
G1  F6000 X123.2 Y125.33 Z1
G1 F1200 X100 Y180.66 Z1 E4.9
G1 F1200 X76.8 Y125.33 Z1 E9.8
G1 F1200 X100 Y70 Z1 E14.69
G1 F1200 X123.2 Y125.33 Z1 E19.59
G92 E0
G1  F6000 X122.66 Y125.33 Z1
G1 F1200 X100 Y179.37 Z1 E4.78
G1 F1200 X77.34 Y125.33 Z1 E9.57
G1 F1200 X100 Y71.29 Z1 E14.35
G1 F1200 X122.66 Y125.33 Z1 E19.13
G92 E0
G1  F3000 X99.61 Y151.58 Z1
G1  F3000 X100 Y150.66 Z1
G1 F59 E0.344724
G92 E0
G92 E0
G1 F59 E0
G1  F3000 X99.61 Y151.58 Z1
G92 E0
G92 E0
G1  F3000 X76.41 Y94.41 Z1
G1  F3000 X76.8 Y95.33 Z1
G1 F59 E0.344724
G92 E0
G92 E0
G1 F59 E0
G1  F3000 X76.41 Y94.41 Z1
G92 E0
G92 E0
G1  F3000 X100.39 Y39.08 Z1
G1  F3000 X100 Y40 Z1
G1 F59 E0.344724
G92 E0
G92 E0
G1 F59 E0
G1  F3000 X100.39 Y39.08 Z1
G92 E0
G92 E0
G1  F3000 X123.59 Y96.25 Z1
G1  F3000 X123.2 Y95.33 Z1
G1 F59 E0.344724
G92 E0
G92 E0
G1 F59 E0
G1  F3000 X123.59 Y96.25 Z1
G92 E0
G92 E0
G1  F3000 X99.61 Y181.58 Z1.5
G1  F3000 X100 Y180.66 Z1.5
G1 F59 E0.344724
G92 E0
G92 E0
G1 F59 E0
G1  F3000 X99.61 Y181.58 Z1.5
G92 E0
G92 E0
G1  F3000 X76.41 Y124.41 Z1.5
G1  F3000 X76.8 Y125.33 Z1.5
G1 F59 E0.344724
G92 E0
G92 E0
G1 F59 E0
G1  F3000 X76.41 Y124.41 Z1.5
G92 E0
G92 E0
G1  F3000 X100.39 Y69.08 Z1.5
G1  F3000 X100 Y70 Z1.5
G1 F59 E0.344724
G92 E0
G92 E0
G1 F59 E0
G1  F3000 X100.39 Y69.08 Z1.5
G92 E0
G92 E0
G1  F3000 X123.59 Y126.25 Z1.5
G1  F3000 X123.2 Y125.33 Z1.5
G1 F59 E0.344724
G92 E0
G92 E0
G1 F59 E0
G1  F3000 X123.59 Y126.25 Z1.5
G92 E0
G92 E0
G1  F3000 X99.61 Y151.58 Z1.5
G1  F3000 X100 Y150.66 Z1.5
G1 F59 E0.344724
G92 E0
G92 E0
G1 F59 E0
G1  F3000 X99.61 Y151.58 Z1.5
G92 E0
G92 E0
G1  F3000 X76.41 Y94.41 Z1.5
G1  F3000 X76.8 Y95.33 Z1.5
G1 F59 E0.344724
G92 E0
G92 E0
G1 F59 E0
G1  F3000 X76.41 Y94.41 Z1.5
G92 E0
G92 E0
G1  F3000 X100.39 Y39.08 Z1.5
G1  F3000 X100 Y40 Z1.5
G1 F59 E0.344724
G92 E0
G92 E0
G1 F59 E0
G1  F3000 X100.39 Y39.08 Z1.5
G92 E0
G92 E0
G1  F3000 X123.59 Y96.25 Z1.5
G1  F3000 X123.2 Y95.33 Z1.5
G1 F59 E0.344724
G92 E0
G92 E0
G1 F59 E0
G1  F3000 X123.59 Y96.25 Z1.5
G92 E0
G92 E0
G1  F3000 X99.61 Y181.58 Z2
G1  F3000 X100 Y180.66 Z2
G1 F59 E0.344724
G92 E0
G92 E0
G1 F59 E0
G1  F3000 X99.61 Y181.58 Z2
G92 E0
G92 E0
G1  F3000 X76.41 Y124.41 Z2
G1  F3000 X76.8 Y125.33 Z2
G1 F59 E0.344724
G92 E0
G92 E0
G1 F59 E0
G1  F3000 X76.41 Y124.41 Z2
G92 E0
G92 E0
G1  F3000 X100.39 Y69.08 Z2
G1  F3000 X100 Y70 Z2
G1 F59 E0.344724
G92 E0
G92 E0
G1 F59 E0
G1  F3000 X100.39 Y69.08 Z2
G92 E0
G92 E0
G1  F3000 X123.59 Y126.25 Z2
G1  F3000 X123.2 Y125.33 Z2
G1 F59 E0.344724
G92 E0
G92 E0
G1 F59 E0
G1  F3000 X123.59 Y126.25 Z2
G92 E0
G92 E0
G1  F3000 X99.61 Y151.58 Z2
G1  F3000 X100 Y150.66 Z2
G1 F59 E0.344724
G92 E0
G92 E0
G1 F59 E0
G1  F3000 X99.61 Y151.58 Z2
G92 E0
G92 E0
G1  F3000 X76.41 Y94.41 Z2
G1  F3000 X76.8 Y95.33 Z2
G1 F59 E0.344724
G92 E0
G92 E0
G1 F59 E0
G1  F3000 X76.41 Y94.41 Z2
G92 E0
G92 E0
G1  F3000 X100.39 Y39.08 Z2
G1  F3000 X100 Y40 Z2
G1 F59 E0.344724
G92 E0
G92 E0
G1 F59 E0
G1  F3000 X100.39 Y39.08 Z2
G92 E0
G92 E0
G1  F3000 X123.59 Y96.25 Z2
G1  F3000 X123.2 Y95.33 Z2
G1 F59 E0.344724
G92 E0
G92 E0
G1 F59 E0
G1  F3000 X123.59 Y96.25 Z2
G92 E0
G92 E0
G1  F3000 X99.61 Y181.58 Z2.5
G1  F3000 X100 Y180.66 Z2.5
G1 F59 E0.344724
G92 E0
G92 E0
G1 F59 E0
G1  F3000 X99.61 Y181.58 Z2.5
G92 E0
G92 E0
G1  F3000 X76.41 Y124.41 Z2.5
G1  F3000 X76.8 Y125.33 Z2.5
G1 F59 E0.344724
G92 E0
G92 E0
G1 F59 E0
G1  F3000 X76.41 Y124.41 Z2.5
G92 E0
G92 E0
G1  F3000 X100.39 Y69.08 Z2.5
G1  F3000 X100 Y70 Z2.5
G1 F59 E0.344724
G92 E0
G92 E0
G1 F59 E0
G1  F3000 X100.39 Y69.08 Z2.5
G92 E0
G92 E0
G1  F3000 X123.59 Y126.25 Z2.5
G1  F3000 X123.2 Y125.33 Z2.5
G1 F59 E0.344724
G92 E0
G92 E0
G1 F59 E0
G1  F3000 X123.59 Y126.25 Z2.5
G92 E0
G92 E0
G1  F3000 X99.61 Y151.58 Z2.5
G1  F3000 X100 Y150.66 Z2.5
G1 F59 E0.344724
G92 E0
G92 E0
G1 F59 E0
G1  F3000 X99.61 Y151.58 Z2.5
G92 E0
G92 E0
G1  F3000 X76.41 Y94.41 Z2.5
G1  F3000 X76.8 Y95.33 Z2.5
G1 F59 E0.344724
G92 E0
G92 E0
G1 F59 E0
G1  F3000 X76.41 Y94.41 Z2.5
G92 E0
G92 E0
G1  F3000 X100.39 Y39.08 Z2.5
G1  F3000 X100 Y40 Z2.5
G1 F59 E0.344724
G92 E0
G92 E0
G1 F59 E0
G1  F3000 X100.39 Y39.08 Z2.5
G92 E0
G92 E0
G1  F3000 X123.59 Y96.25 Z2.5
G1  F3000 X123.2 Y95.33 Z2.5
G1 F59 E0.344724
G92 E0
G92 E0
G1 F59 E0
G1  F3000 X123.59 Y96.25 Z2.5
G92 E0
G92 E0
G1  F3000 X99.61 Y181.58 Z3
G1  F3000 X100 Y180.66 Z3
G1 F59 E0.344724
G92 E0
G92 E0
G1 F59 E0
G1  F3000 X99.61 Y181.58 Z3
G92 E0
G92 E0
G1  F3000 X76.41 Y124.41 Z3
G1  F3000 X76.8 Y125.33 Z3
G1 F59 E0.344724
G92 E0
G92 E0
G1 F59 E0
G1  F3000 X76.41 Y124.41 Z3
G92 E0
G92 E0
G1  F3000 X100.39 Y69.08 Z3
G1  F3000 X100 Y70 Z3
G1 F59 E0.344724
G92 E0
G92 E0
G1 F59 E0
G1  F3000 X100.39 Y69.08 Z3
G92 E0
G92 E0
G1  F3000 X123.59 Y126.25 Z3
G1  F3000 X123.2 Y125.33 Z3
G1 F59 E0.344724
G92 E0
G92 E0
G1 F59 E0
G1  F3000 X123.59 Y126.25 Z3
G92 E0
G92 E0
G1  F3000 X99.61 Y151.58 Z3
G1  F3000 X100 Y150.66 Z3
G1 F59 E0.344724
G92 E0
G92 E0
G1 F59 E0
G1  F3000 X99.61 Y151.58 Z3
G92 E0
G92 E0
G1  F3000 X76.41 Y94.41 Z3
G1  F3000 X76.8 Y95.33 Z3
G1 F59 E0.344724
G92 E0
G92 E0
G1 F59 E0
G1  F3000 X76.41 Y94.41 Z3
G92 E0
G92 E0
G1  F3000 X100.39 Y39.08 Z3
G1  F3000 X100 Y40 Z3
G1 F59 E0.344724
G92 E0
G92 E0
G1 F59 E0
G1  F3000 X100.39 Y39.08 Z3
G92 E0
G92 E0
G1  F3000 X123.59 Y96.25 Z3
G1  F3000 X123.2 Y95.33 Z3
G1 F59 E0.344724
G92 E0
G92 E0
G1 F59 E0
G1  F3000 X123.59 Y96.25 Z3
G92 E0
G92 E0
G1  F3000 X99.61 Y181.58 Z3.5
G1  F3000 X100 Y180.66 Z3.5
G1 F59 E0.344724
G92 E0
G92 E0
G1 F59 E0
G1  F3000 X99.61 Y181.58 Z3.5
G92 E0
G92 E0
G1  F3000 X76.41 Y124.41 Z3.5
G1  F3000 X76.8 Y125.33 Z3.5
G1 F59 E0.344724
G92 E0
G92 E0
G1 F59 E0
G1  F3000 X76.41 Y124.41 Z3.5
G92 E0
G92 E0
G1  F3000 X100.39 Y69.08 Z3.5
G1  F3000 X100 Y70 Z3.5
G1 F59 E0.344724
G92 E0
G92 E0
G1 F59 E0
G1  F3000 X100.39 Y69.08 Z3.5
G92 E0
G92 E0
G1  F3000 X123.59 Y126.25 Z3.5
G1  F3000 X123.2 Y125.33 Z3.5
G1 F59 E0.344724
G92 E0
G92 E0
G1 F59 E0
G1  F3000 X123.59 Y126.25 Z3.5
G92 E0
G92 E0
G1  F3000 X99.61 Y151.58 Z3.5
G1  F3000 X100 Y150.66 Z3.5
G1 F59 E0.344724
G92 E0
G92 E0
G1 F59 E0
G1  F3000 X99.61 Y151.58 Z3.5
G92 E0
G92 E0
G1  F3000 X76.41 Y94.41 Z3.5
G1  F3000 X76.8 Y95.33 Z3.5
G1 F59 E0.344724
G92 E0
G92 E0
G1 F59 E0
G1  F3000 X76.41 Y94.41 Z3.5
G92 E0
G92 E0
G1  F3000 X100.39 Y39.08 Z3.5
G1  F3000 X100 Y40 Z3.5
G1 F59 E0.344724
G92 E0
G92 E0
G1 F59 E0
G1  F3000 X100.39 Y39.08 Z3.5
G92 E0
G92 E0
G1  F3000 X123.59 Y96.25 Z3.5
G1  F3000 X123.2 Y95.33 Z3.5
G1 F59 E0.344724
G92 E0
G92 E0
G1 F59 E0
G1  F3000 X123.59 Y96.25 Z3.5
G92 E0
G92 E0
G1  F3000 X99.61 Y181.58 Z4
G1  F3000 X100 Y180.66 Z4
G1 F59 E0.344724
G92 E0
G92 E0
G1 F59 E0
G1  F3000 X99.61 Y181.58 Z4
G92 E0
G92 E0
G1  F3000 X76.41 Y124.41 Z4
G1  F3000 X76.8 Y125.33 Z4
G1 F59 E0.344724
G92 E0
G92 E0
G1 F59 E0
G1  F3000 X76.41 Y124.41 Z4
G92 E0
G92 E0
G1  F3000 X100.39 Y69.08 Z4
G1  F3000 X100 Y70 Z4
G1 F59 E0.344724
G92 E0
G92 E0
G1 F59 E0
G1  F3000 X100.39 Y69.08 Z4
G92 E0
G92 E0
G1  F3000 X123.59 Y126.25 Z4
G1  F3000 X123.2 Y125.33 Z4
G1 F59 E0.344724
G92 E0
G92 E0
G1 F59 E0
G1  F3000 X123.59 Y126.25 Z4
G92 E0
G92 E0
G1  F3000 X99.61 Y151.58 Z4
G1  F3000 X100 Y150.66 Z4
G1 F59 E0.344724
G92 E0
G92 E0
G1 F59 E0
G1  F3000 X99.61 Y151.58 Z4
G92 E0
G92 E0
G1  F3000 X76.41 Y94.41 Z4
G1  F3000 X76.8 Y95.33 Z4
G1 F59 E0.344724
G92 E0
G92 E0
G1 F59 E0
G1  F3000 X76.41 Y94.41 Z4
G92 E0
G92 E0
G1  F3000 X100.39 Y39.08 Z4
G1  F3000 X100 Y40 Z4
G1 F59 E0.344724
G92 E0
G92 E0
G1 F59 E0
G1  F3000 X100.39 Y39.08 Z4
G92 E0
G92 E0
G1  F3000 X123.59 Y96.25 Z4
G1  F3000 X123.2 Y95.33 Z4
G1 F59 E0.344724
G92 E0
G92 E0
G1 F59 E0
G1  F3000 X123.59 Y96.25 Z4
G92 E0
G92 E0
G1  F3000 X99.61 Y181.58 Z4.5
G1  F3000 X100 Y180.66 Z4.5
G1 F59 E0.344724
G92 E0
G92 E0
G1 F59 E0
G1  F3000 X99.61 Y181.58 Z4.5
G92 E0
G92 E0
G1  F3000 X76.41 Y124.41 Z4.5
G1  F3000 X76.8 Y125.33 Z4.5
G1 F59 E0.344724
G92 E0
G92 E0
G1 F59 E0
G1  F3000 X76.41 Y124.41 Z4.5
G92 E0
G92 E0
G1  F3000 X100.39 Y69.08 Z4.5
G1  F3000 X100 Y70 Z4.5
G1 F59 E0.344724
G92 E0
G92 E0
G1 F59 E0
G1  F3000 X100.39 Y69.08 Z4.5
G92 E0
G92 E0
G1  F3000 X123.59 Y126.25 Z4.5
G1  F3000 X123.2 Y125.33 Z4.5
G1 F59 E0.344724
G92 E0
G92 E0
G1 F59 E0
G1  F3000 X123.59 Y126.25 Z4.5
G92 E0
G92 E0
G1  F3000 X99.61 Y151.58 Z4.5
G1  F3000 X100 Y150.66 Z4.5
G1 F59 E0.344724
G92 E0
G92 E0
G1 F59 E0
G1  F3000 X99.61 Y151.58 Z4.5
G92 E0
G92 E0
G1  F3000 X76.41 Y94.41 Z4.5
G1  F3000 X76.8 Y95.33 Z4.5
G1 F59 E0.344724
G92 E0
G92 E0
G1 F59 E0
G1  F3000 X76.41 Y94.41 Z4.5
G92 E0
G92 E0
G1  F3000 X100.39 Y39.08 Z4.5
G1  F3000 X100 Y40 Z4.5
G1 F59 E0.344724
G92 E0
G92 E0
G1 F59 E0
G1  F3000 X100.39 Y39.08 Z4.5
G92 E0
G92 E0
G1  F3000 X123.59 Y96.25 Z4.5
G1  F3000 X123.2 Y95.33 Z4.5
G1 F59 E0.344724
G92 E0
G92 E0
G1 F59 E0
G1  F3000 X123.59 Y96.25 Z4.5
G92 E0
G92 E0
G1  F3000 X99.61 Y181.58 Z5
G1  F3000 X100 Y180.66 Z5
G1 F59 E0.344724
G92 E0
G92 E0
G1 F59 E0
G1  F3000 X99.61 Y181.58 Z5
G92 E0
G92 E0
G1  F3000 X76.41 Y124.41 Z5
G1  F3000 X76.8 Y125.33 Z5
G1 F59 E0.344724
G92 E0
G92 E0
G1 F59 E0
G1  F3000 X76.41 Y124.41 Z5
G92 E0
G92 E0
G1  F3000 X100.39 Y69.08 Z5
G1  F3000 X100 Y70 Z5
G1 F59 E0.344724
G92 E0
G92 E0
G1 F59 E0
G1  F3000 X100.39 Y69.08 Z5
G92 E0
G92 E0
G1  F3000 X123.59 Y126.25 Z5
G1  F3000 X123.2 Y125.33 Z5
G1 F59 E0.344724
G92 E0
G92 E0
G1 F59 E0
G1  F3000 X123.59 Y126.25 Z5
G92 E0
G92 E0
G1  F3000 X99.61 Y151.58 Z5
G1  F3000 X100 Y150.66 Z5
G1 F59 E0.344724
G92 E0
G92 E0
G1 F59 E0
G1  F3000 X99.61 Y151.58 Z5
G92 E0
G92 E0
G1  F3000 X76.41 Y94.41 Z5
G1  F3000 X76.8 Y95.33 Z5
G1 F59 E0.344724
G92 E0
G92 E0
G1 F59 E0
G1  F3000 X76.41 Y94.41 Z5
G92 E0
G92 E0
G1  F3000 X100.39 Y39.08 Z5
G1  F3000 X100 Y40 Z5
G1 F59 E0.344724
G92 E0
G92 E0
G1 F59 E0
G1  F3000 X100.39 Y39.08 Z5
G92 E0
G92 E0
G1  F3000 X123.59 Y96.25 Z5
G1  F3000 X123.2 Y95.33 Z5
G1 F59 E0.344724
G92 E0
G92 E0
G1 F59 E0
G1  F3000 X123.59 Y96.25 Z5
G92 E0
G92 E0
G1  F3000 X99.61 Y181.58 Z5.5
G1  F3000 X100 Y180.66 Z5.5
G1 F59 E0.344724
G92 E0
G92 E0
G1 F59 E0
G1  F3000 X99.61 Y181.58 Z5.5
G92 E0
G92 E0
G1  F3000 X76.41 Y124.41 Z5.5
G1  F3000 X76.8 Y125.33 Z5.5
G1 F59 E0.344724
G92 E0
G92 E0
G1 F59 E0
G1  F3000 X76.41 Y124.41 Z5.5
G92 E0
G92 E0
G1  F3000 X100.39 Y69.08 Z5.5
G1  F3000 X100 Y70 Z5.5
G1 F59 E0.344724
G92 E0
G92 E0
G1 F59 E0
G1  F3000 X100.39 Y69.08 Z5.5
G92 E0
G92 E0
G1  F3000 X123.59 Y126.25 Z5.5
G1  F3000 X123.2 Y125.33 Z5.5
G1 F59 E0.344724
G92 E0
G92 E0
G1 F59 E0
G1  F3000 X123.59 Y126.25 Z5.5
G92 E0
G92 E0
G1  F3000 X99.61 Y151.58 Z5.5
G1  F3000 X100 Y150.66 Z5.5
G1 F59 E0.344724
G92 E0
G92 E0
G1 F59 E0
G1  F3000 X99.61 Y151.58 Z5.5
G92 E0
G92 E0
G1  F3000 X76.41 Y94.41 Z5.5
G1  F3000 X76.8 Y95.33 Z5.5
G1 F59 E0.344724
G92 E0
G92 E0
G1 F59 E0
G1  F3000 X76.41 Y94.41 Z5.5
G92 E0
G92 E0
G1  F3000 X100.39 Y39.08 Z5.5
G1  F3000 X100 Y40 Z5.5
G1 F59 E0.344724
G92 E0
G92 E0
G1 F59 E0
G1  F3000 X100.39 Y39.08 Z5.5
G92 E0
G92 E0
G1  F3000 X123.59 Y96.25 Z5.5
G1  F3000 X123.2 Y95.33 Z5.5
G1 F59 E0.344724
G92 E0
G92 E0
G1 F59 E0
G1  F3000 X123.59 Y96.25 Z5.5
G92 E0
G92 E0
G1  F3000 X99.61 Y181.58 Z6
G1  F3000 X100 Y180.66 Z6
G1 F59 E0.344724
G92 E0
G92 E0
G1 F59 E0
G1  F3000 X99.61 Y181.58 Z6
G92 E0
G92 E0
G1  F3000 X76.41 Y124.41 Z6
G1  F3000 X76.8 Y125.33 Z6
G1 F59 E0.344724
G92 E0
G92 E0
G1 F59 E0
G1  F3000 X76.41 Y124.41 Z6
G92 E0
G92 E0
G1  F3000 X100.39 Y69.08 Z6
G1  F3000 X100 Y70 Z6
G1 F59 E0.344724
G92 E0
G92 E0
G1 F59 E0
G1  F3000 X100.39 Y69.08 Z6
G92 E0
G92 E0
G1  F3000 X123.59 Y126.25 Z6
G1  F3000 X123.2 Y125.33 Z6
G1 F59 E0.344724
G92 E0
G92 E0
G1 F59 E0
G1  F3000 X123.59 Y126.25 Z6
G92 E0
G92 E0
G1  F3000 X99.61 Y151.58 Z6
G1  F3000 X100 Y150.66 Z6
G1 F59 E0.344724
G92 E0
G92 E0
G1 F59 E0
G1  F3000 X99.61 Y151.58 Z6
G92 E0
G92 E0
G1  F3000 X76.41 Y94.41 Z6
G1  F3000 X76.8 Y95.33 Z6
G1 F59 E0.344724
G92 E0
G92 E0
G1 F59 E0
G1  F3000 X76.41 Y94.41 Z6
G92 E0
G92 E0
G1  F3000 X100.39 Y39.08 Z6
G1  F3000 X100 Y40 Z6
G1 F59 E0.344724
G92 E0
G92 E0
G1 F59 E0
G1  F3000 X100.39 Y39.08 Z6
G92 E0
G92 E0
G1  F3000 X123.59 Y96.25 Z6
G1  F3000 X123.2 Y95.33 Z6
G1 F59 E0.344724
G92 E0
G92 E0
G1 F59 E0
G1  F3000 X123.59 Y96.25 Z6
G92 E0
G92 E0
G1  F3000 X99.61 Y181.58 Z6.5
G1  F3000 X100 Y180.66 Z6.5
G1 F59 E0.344724
G92 E0
G92 E0
G1 F59 E0
G1  F3000 X99.61 Y181.58 Z6.5
G92 E0
G92 E0
G1  F3000 X76.41 Y124.41 Z6.5
G1  F3000 X76.8 Y125.33 Z6.5
G1 F59 E0.344724
G92 E0
G92 E0
G1 F59 E0
G1  F3000 X76.41 Y124.41 Z6.5
G92 E0
G92 E0
G1  F3000 X100.39 Y69.08 Z6.5
G1  F3000 X100 Y70 Z6.5
G1 F59 E0.344724
G92 E0
G92 E0
G1 F59 E0
G1  F3000 X100.39 Y69.08 Z6.5
G92 E0
G92 E0
G1  F3000 X123.59 Y126.25 Z6.5
G1  F3000 X123.2 Y125.33 Z6.5
G1 F59 E0.344724
G92 E0
G92 E0
G1 F59 E0
G1  F3000 X123.59 Y126.25 Z6.5
G92 E0
G92 E0
G1  F3000 X99.61 Y151.58 Z6.5
G1  F3000 X100 Y150.66 Z6.5
G1 F59 E0.344724
G92 E0
G92 E0
G1 F59 E0
G1  F3000 X99.61 Y151.58 Z6.5
G92 E0
G92 E0
G1  F3000 X76.41 Y94.41 Z6.5
G1  F3000 X76.8 Y95.33 Z6.5
G1 F59 E0.344724
G92 E0
G92 E0
G1 F59 E0
G1  F3000 X76.41 Y94.41 Z6.5
G92 E0
G92 E0
G1  F3000 X100.39 Y39.08 Z6.5
G1  F3000 X100 Y40 Z6.5
G1 F59 E0.344724
G92 E0
G92 E0
G1 F59 E0
G1  F3000 X100.39 Y39.08 Z6.5
G92 E0
G92 E0
G1  F3000 X123.59 Y96.25 Z6.5
G1  F3000 X123.2 Y95.33 Z6.5
G1 F59 E0.344724
G92 E0
G92 E0
G1 F59 E0
G1  F3000 X123.59 Y96.25 Z6.5
G92 E0
G92 E0
G1  F3000 X99.61 Y181.58 Z7
G1  F3000 X100 Y180.66 Z7
G1 F59 E0.344724
G92 E0
G92 E0
G1 F59 E0
G1  F3000 X99.61 Y181.58 Z7
G92 E0
G92 E0
G1  F3000 X76.41 Y124.41 Z7
G1  F3000 X76.8 Y125.33 Z7
G1 F59 E0.344724
G92 E0
G92 E0
G1 F59 E0
G1  F3000 X76.41 Y124.41 Z7
G92 E0
G92 E0
G1  F3000 X100.39 Y69.08 Z7
G1  F3000 X100 Y70 Z7
G1 F59 E0.344724
G92 E0
G92 E0
G1 F59 E0
G1  F3000 X100.39 Y69.08 Z7
G92 E0
