;START_OF_HEADER
;HEADER_VERSION:0.1
;FLAVOR:Griffin
;GENERATOR.NAME:Cura_SteamEngine
;GENERATOR.VERSION:4.7.1
;GENERATOR.BUILD_DATE:2020-09-02
;TARGET_MACHINE.NAME:Ultimaker 3
;EXTRUDER_TRAIN.0.INITIAL_TEMPERATURE:205
;EXTRUDER_TRAIN.0.MATERIAL.VOLUME_USED:81
;EXTRUDER_TRAIN.0.MATERIAL.GUID:506c9f0d-e3aa-4bd4-b2d2-23e2425b1aa9
;EXTRUDER_TRAIN.0.NOZZLE.DIAMETER:0.4
;EXTRUDER_TRAIN.0.NOZZLE.NAME:AA 0.4
;BUILD_PLATE.TYPE:glass
;BUILD_PLATE.INITIAL_TEMPERATURE:60
;PRINT.TIME:95
;PRINT.GROUPS:1
;PRINT.SIZE.MIN.X:9
;PRINT.SIZE.MIN.Y:6
;PRINT.SIZE.MIN.Z:0.27
;PRINT.SIZE.MAX.X:125.628
;PRINT.SIZE.MAX.Y:116.295
;PRINT.SIZE.MAX.Z:3.87
;END_OF_HEADER
;Generated with Cura_SteamEngine 4.7.1
T0
M82 ;absolute extrusion mode

G92 E0
M109 S200
G0 F15000 X9 Y6 Z2
G280
G1 F1500 E-6.5
;LAYER_COUNT:39
;LAYER:0
M107
M204 S625
M205 X6 Y6
G1 F600 Z2.27
G0 F4285.7 X109.682 Y101.958 Z2.27
M204 S500
M205 X5 Y5
;- END OF START GCODE - 
 G28 ; home all axes
M82 ; use absolute distances for extrusion
G90 ; use absolute coordinates
G21 ; set units to millimeters
G92 E0 ; reset extrusion distance
M104 S185 ; set temperature
M109 S185 ; wait for temperature to be reached
G1 Z0.0 F360 E1
G92 E0
G1  F6000 X100.09 Y129.47 Z0.5
G1 F1200 X125.57 Y114.66 Z0.5 E2.41
G1 F1200 X125.48 Y85.18 Z0.5 E4.81
G1 F1200 X99.91 Y70.53 Z0.5 E7.22
G1 F1200 X74.43 Y85.34 Z0.5 E9.62
G1 F1200 X74.52 Y114.82 Z0.5 E12.03
G1 F1200 X100.09 Y129.47 Z0.5 E14.44
G92 E0
G1  F6000 X100.09 Y130.05 Z0.5
G1 F1200 X126.07 Y114.94 Z0.5 E2.45
G1 F1200 X125.98 Y84.89 Z0.5 E4.91
G1 F1200 X99.91 Y69.95 Z0.5 E7.36
G1 F1200 X73.93 Y85.06 Z0.5 E9.81
G1 F1200 X74.02 Y115.11 Z0.5 E12.27
G1 F1200 X100.09 Y130.05 Z0.5 E14.72
G92 E0
G1  F6000 X100.1 Y130.63 Z0.5
G1 F1200 X126.57 Y115.23 Z0.5 E2.5
G1 F1200 X126.48 Y84.6 Z0.5 E5
G1 F1200 X99.9 Y69.37 Z0.5 E7.5
G1 F1200 X73.43 Y84.77 Z0.5 E10
G1 F1200 X73.52 Y115.4 Z0.5 E12.5
G1 F1200 X100.1 Y130.63 Z0.5 E15
G92 E0
G1  F6000 X100.25 Y129.56 Z1
G1 F1200 X125.72 Y114.57 Z1 E2.41
G1 F1200 X125.47 Y85.01 Z1 E4.83
G1 F1200 X99.75 Y70.44 Z1 E7.24
G1 F1200 X74.28 Y85.43 Z1 E9.65
G1 F1200 X74.53 Y114.99 Z1 E12.06
G1 F1200 X100.25 Y129.56 Z1 E14.48
G92 E0
G1  F6000 X100.25 Y130.13 Z1
G1 F1200 X126.22 Y114.85 Z1 E2.46
G1 F1200 X125.97 Y84.72 Z1 E4.92
G1 F1200 X99.75 Y69.87 Z1 E7.38
G1 F1200 X73.78 Y85.15 Z1 E9.84
G1 F1200 X74.03 Y115.28 Z1 E12.3
G1 F1200 X100.25 Y130.13 Z1 E14.76
G92 E0
G1  F6000 X100.25 Y130.71 Z1
G1 F1200 X126.72 Y115.13 Z1 E2.51
G1 F1200 X126.47 Y84.42 Z1 E5.01
G1 F1200 X99.75 Y69.29 Z1 E7.52
G1 F1200 X73.28 Y84.87 Z1 E10.03
G1 F1200 X73.53 Y115.58 Z1 E12.54
G1 F1200 X100.25 Y130.71 Z1 E15.04
G92 E0
G1  F6000 X100.4 Y129.64 Z1.5
G1 F1200 X125.87 Y114.47 Z1.5 E2.42
G1 F1200 X125.47 Y84.84 Z1.5 E4.84
G1 F1200 X99.6 Y70.36 Z1.5 E7.26
G1 F1200 X74.13 Y85.53 Z1.5 E9.68
G1 F1200 X74.53 Y115.16 Z1.5 E12.1
G1 F1200 X100.4 Y129.64 Z1.5 E14.52
G92 E0
G1  F6000 X100.41 Y130.22 Z1.5
G1 F1200 X126.37 Y114.76 Z1.5 E2.47
G1 F1200 X125.97 Y84.54 Z1.5 E4.93
G1 F1200 X99.59 Y69.78 Z1.5 E7.4
G1 F1200 X73.63 Y85.24 Z1.5 E9.87
G1 F1200 X74.03 Y115.46 Z1.5 E12.33
G1 F1200 X100.41 Y130.22 Z1.5 E14.8
G92 E0
G1  F6000 X100.41 Y130.79 Z1.5
G1 F1200 X126.88 Y115.04 Z1.5 E2.51
G1 F1200 X126.46 Y84.24 Z1.5 E5.03
G1 F1200 X99.59 Y69.21 Z1.5 E7.54
G1 F1200 X73.12 Y84.96 Z1.5 E10.06
G1 F1200 X73.54 Y115.76 Z1.5 E12.57
G1 F1200 X100.41 Y130.79 Z1.5 E15.08
G92 E0
G1  F5600 X127.38 Y114.14 Z2
G1  F5600 X126.52 Y114.66 Z2
G1 F59 E1.008777332
G92 E0
G92 E0
G1 F59 E0
G1  F5600 X127.38 Y114.14 Z2
G92 E0
G92 E0
G1  F5600 X125.94 Y83.36 Z2
G1  F5600 X125.96 Y84.36 Z2
G1 F59 E1.008777332
G92 E0
G92 E0
G1 F59 E0
G1  F5600 X125.94 Y83.36 Z2
G92 E0
G92 E0
G1  F5600 X98.56 Y69.22 Z2
G1  F5600 X99.44 Y69.7 Z2
G1 F59 E1.008777332
G92 E0
G92 E0
G1 F59 E0
G1  F5600 X98.56 Y69.22 Z2
G92 E0
G92 E0
G1  F5600 X72.62 Y85.86 Z2
G1  F5600 X73.48 Y85.34 Z2
G1 F59 E1.008777332
G92 E0
G92 E0
G1 F59 E0
G1  F5600 X72.62 Y85.86 Z2
G92 E0
G92 E0
G1  F5600 X74.06 Y116.64 Z2
G1  F5600 X74.04 Y115.64 Z2
G1 F59 E1.008777332
G92 E0
G92 E0
G1 F59 E0
G1  F5600 X74.06 Y116.64 Z2
G92 E0
G92 E0
G1  F5600 X101.44 Y130.78 Z2
G1  F5600 X100.56 Y130.3 Z2
G1 F59 E1.008777332
G92 E0
G92 E0
G1 F59 E0
G1  F5600 X101.44 Y130.78 Z2
G92 E0
G92 E0
G1  F5600 X127.52 Y114.05 Z2.5
G1  F5600 X126.67 Y114.57 Z2.5
G1 F59 E1.008777332
G92 E0
G92 E0
G1 F59 E0
G1  F5600 X127.52 Y114.05 Z2.5
G92 E0
G92 E0
G1  F5600 X125.93 Y83.19 Z2.5
G1  F5600 X125.95 Y84.19 Z2.5
G1 F59 E1.008777332
G92 E0
G92 E0
G1 F59 E0
G1  F5600 X125.93 Y83.19 Z2.5
G92 E0
G92 E0
G1  F5600 X98.4 Y69.14 Z2.5
G1  F5600 X99.28 Y69.62 Z2.5
G1 F59 E1.008777332
G92 E0
G92 E0
G1 F59 E0
G1  F5600 X98.4 Y69.14 Z2.5
G92 E0
G92 E0
G1  F5600 X72.48 Y85.95 Z2.5
G1  F5600 X73.33 Y85.43 Z2.5
G1 F59 E1.008777332
G92 E0
G92 E0
G1 F59 E0
G1  F5600 X72.48 Y85.95 Z2.5
G92 E0
G92 E0
G1  F5600 X74.07 Y116.81 Z2.5
G1  F5600 X74.05 Y115.81 Z2.5
G1 F59 E1.008777332
G92 E0
G92 E0
G1 F59 E0
G1  F5600 X74.07 Y116.81 Z2.5
G92 E0
G92 E0
G1  F5600 X101.6 Y130.86 Z2.5
G1  F5600 X100.72 Y130.38 Z2.5
G1 F59 E1.008777332
G92 E0
G92 E0
G1 F59 E0
G1  F5600 X101.6 Y130.86 Z2.5
G92 E0
G92 E0
G1  F5600 X127.67 Y113.96 Z3
G1  F5600 X126.82 Y114.48 Z3
G1 F59 E1.008777332
G92 E0
G92 E0
G1 F59 E0
G1  F5600 X127.67 Y113.96 Z3
G92 E0
G92 E0
G1  F5600 X125.92 Y83.01 Z3
G1  F5600 X125.95 Y84.01 Z3
G1 F59 E1.008777332
G92 E0
G92 E0
G1 F59 E0
G1  F5600 X125.92 Y83.01 Z3
G92 E0
G92 E0
G1  F5600 X98.24 Y69.06 Z3
G1  F5600 X99.12 Y69.53 Z3
G1 F59 E1.008777332
G92 E0
G92 E0
G1 F59 E0
G1  F5600 X98.24 Y69.06 Z3
G92 E0
G92 E0
G1  F5600 X72.33 Y86.04 Z3
G1  F5600 X73.18 Y85.52 Z3
G1 F59 E1.008777332
G92 E0
G92 E0
G1 F59 E0
G1  F5600 X72.33 Y86.04 Z3
G92 E0
G92 E0
G1  F5600 X74.08 Y116.99 Z3
G1  F5600 X74.05 Y115.99 Z3
G1 F59 E1.008777332
G92 E0
G92 E0
G1 F59 E0
G1  F5600 X74.08 Y116.99 Z3
G92 E0
G92 E0
G1  F5600 X101.76 Y130.94 Z3
G1  F5600 X100.88 Y130.47 Z3
G1 F59 E1.008777332
G92 E0
G92 E0
G1 F59 E0
G1  F5600 X101.76 Y130.94 Z3
G92 E0
G92 E0
G1  F5600 X127.82 Y113.85 Z3.5
G1  F5600 X126.97 Y114.38 Z3.5
G1 F59 E1.008777332
G92 E0
G92 E0
G1 F59 E0
G1  F5600 X127.82 Y113.85 Z3.5
G92 E0
G92 E0
G1  F5600 X125.91 Y82.83 Z3.5
G1  F5600 X125.94 Y83.83 Z3.5
G1 F59 E1.008777332
G92 E0
G92 E0
G1 F59 E0
G1  F5600 X125.91 Y82.83 Z3.5
G92 E0
G92 E0
G1  F5600 X98.09 Y68.98 Z3.5
G1  F5600 X98.97 Y69.45 Z3.5
G1 F59 E1.008777332
G92 E0
G92 E0
G1 F59 E0
G1  F5600 X98.09 Y68.98 Z3.5
G92 E0
G92 E0
G1  F5600 X72.18 Y86.15 Z3.5
G1  F5600 X73.03 Y85.62 Z3.5
G1 F59 E1.008777332
G92 E0
G92 E0
G1 F59 E0
G1  F5600 X72.18 Y86.15 Z3.5
G92 E0
G92 E0
G1  F5600 X74.09 Y117.17 Z3.5
G1  F5600 X74.06 Y116.17 Z3.5
G1 F59 E1.008777332
G92 E0
G92 E0
G1 F59 E0
G1  F5600 X74.09 Y117.17 Z3.5
G92 E0
G92 E0
G1  F5600 X101.91 Y131.02 Z3.5
G1  F5600 X101.03 Y130.55 Z3.5
G1 F59 E1.008777332
G92 E0
G92 E0
G1 F59 E0
G1  F5600 X101.91 Y131.02 Z3.5
G92 E0
G92 E0
G1  F5600 X127.97 Y113.76 Z4
G1  F5600 X127.12 Y114.29 Z4
G1 F59 E1.008777332
G92 E0
G92 E0
G1 F59 E0
G1  F5600 X127.97 Y113.76 Z4
G92 E0
G92 E0
G1  F5600 X125.9 Y82.65 Z4
G1  F5600 X125.94 Y83.65 Z4
G1 F59 E1.008777332
G92 E0
G92 E0
G1 F59 E0
G1  F5600 X125.9 Y82.65 Z4
G92 E0
G92 E0
G1  F5600 X97.93 Y68.9 Z4
G1  F5600 X98.81 Y69.37 Z4
G1 F59 E1.008777332
G92 E0
G92 E0
G1 F59 E0
G1  F5600 X97.93 Y68.9 Z4
G92 E0
G92 E0
G1  F5600 X72.03 Y86.24 Z4
G1  F5600 X72.88 Y85.71 Z4
G1 F59 E1.008777332
G92 E0
G92 E0
G1 F59 E0
G1  F5600 X72.03 Y86.24 Z4
G92 E0
G92 E0
G1  F5600 X74.1 Y117.35 Z4
G1  F5600 X74.06 Y116.35 Z4
G1 F59 E1.008777332
G92 E0
G92 E0
G1 F59 E0
G1  F5600 X74.1 Y117.35 Z4
G92 E0
G92 E0
G1  F5600 X102.07 Y131.1 Z4
G1  F5600 X101.19 Y130.63 Z4
G1 F59 E1.008777332
G92 E0
G92 E0
G1 F59 E0
G1  F5600 X102.07 Y131.1 Z4
G92 E0
G92 E0
G1  F5600 X128.11 Y113.65 Z4.5
G1  F5600 X127.27 Y114.19 Z4.5
G1 F59 E1.008777332
G92 E0
G92 E0
G1 F59 E0
G1  F5600 X128.11 Y113.65 Z4.5
G92 E0
G92 E0
G1  F5600 X125.89 Y82.48 Z4.5
G1  F5600 X125.93 Y83.48 Z4.5
G1 F59 E1.008777332
G92 E0
G92 E0
G1 F59 E0
G1  F5600 X125.89 Y82.48 Z4.5
G92 E0
G92 E0
G1  F5600 X97.77 Y68.82 Z4.5
G1  F5600 X98.66 Y69.28 Z4.5
G1 F59 E1.008777332
G92 E0
G92 E0
G1 F59 E0
G1  F5600 X97.77 Y68.82 Z4.5
G92 E0
G92 E0
G1  F5600 X71.89 Y86.35 Z4.5
G1  F5600 X72.73 Y85.81 Z4.5
G1 F59 E1.008777332
G92 E0
G92 E0
G1 F59 E0
G1  F5600 X71.89 Y86.35 Z4.5
G92 E0
G92 E0
G1  F5600 X74.11 Y117.52 Z4.5
G1  F5600 X74.07 Y116.52 Z4.5
G1 F59 E1.008777332
G92 E0
G92 E0
G1 F59 E0
G1  F5600 X74.11 Y117.52 Z4.5
G92 E0
G92 E0
G1  F5600 X102.23 Y131.18 Z4.5
G1  F5600 X101.34 Y130.72 Z4.5
G1 F59 E1.008777332
G92 E0
G92 E0
G1 F59 E0
G1  F5600 X102.23 Y131.18 Z4.5
G92 E0
G92 E0
G1  F5600 X128.26 Y113.56 Z5
G1  F5600 X127.42 Y114.1 Z5
G1 F59 E1.008777332
G92 E0
G92 E0
G1 F59 E0
G1  F5600 X128.26 Y113.56 Z5
G92 E0
G92 E0
G1  F5600 X125.87 Y82.3 Z5
G1  F5600 X125.92 Y83.3 Z5
G1 F59 E1.008777332
G92 E0
G92 E0
G1 F59 E0
G1  F5600 X125.87 Y82.3 Z5
G92 E0
G92 E0
G1  F5600 X97.61 Y68.74 Z5
G1  F5600 X98.5 Y69.2 Z5
G1 F59 E1.008777332
G92 E0
G92 E0
G1 F59 E0
G1  F5600 X97.61 Y68.74 Z5
G92 E0
G92 E0
G1  F5600 X71.74 Y86.44 Z5
G1  F5600 X72.58 Y85.9 Z5
G1 F59 E1.008777332
G92 E0
G92 E0
G1 F59 E0
G1  F5600 X71.74 Y86.44 Z5
G92 E0
G92 E0
G1  F5600 X74.13 Y117.7 Z5
G1  F5600 X74.08 Y116.7 Z5
G1 F59 E1.008777332
G92 E0
G92 E0
G1 F59 E0
G1  F5600 X74.13 Y117.7 Z5
G92 E0
G92 E0
G1  F5600 X102.39 Y131.26 Z5
G1  F5600 X101.5 Y130.8 Z5
G1 F59 E1.008777332
G92 E0
G92 E0
G1 F59 E0
G1  F5600 X102.39 Y131.26 Z5
G92 E0
G92 E0
G1  F5600 X128.41 Y113.46 Z5.5
G1  F5600 X127.57 Y114.01 Z5.5
G1 F59 E1.008777332
G92 E0
G92 E0
G1 F59 E0
G1  F5600 X128.41 Y113.46 Z5.5
G92 E0
G92 E0
G1  F5600 X125.87 Y82.12 Z5.5
G1  F5600 X125.92 Y83.12 Z5.5
G1 F59 E1.008777332
G92 E0
G92 E0
G1 F59 E0
G1  F5600 X125.87 Y82.12 Z5.5
G92 E0
G92 E0
G1  F5600 X97.45 Y68.67 Z5.5
G1  F5600 X98.34 Y69.12 Z5.5
G1 F59 E1.008777332
G92 E0
G92 E0
G1 F59 E0
G1  F5600 X97.45 Y68.67 Z5.5
G92 E0
G92 E0
G1  F5600 X71.59 Y86.54 Z5.5
G1  F5600 X72.43 Y85.99 Z5.5
G1 F59 E1.008777332
G92 E0
G92 E0
G1 F59 E0
G1  F5600 X71.59 Y86.54 Z5.5
G92 E0
G92 E0
G1  F5600 X74.13 Y117.88 Z5.5
G1  F5600 X74.08 Y116.88 Z5.5
G1 F59 E1.008777332
G92 E0
G92 E0
G1 F59 E0
G1  F5600 X74.13 Y117.88 Z5.5
G92 E0
G92 E0
G1  F5600 X102.55 Y131.33 Z5.5
G1  F5600 X101.66 Y130.88 Z5.5
G1 F59 E1.008777332
G92 E0
G92 E0
G1 F59 E0
G1  F5600 X102.55 Y131.33 Z5.5
G92 E0
G92 E0
G1  F5600 X128.56 Y113.36 Z6
G1  F5600 X127.72 Y113.91 Z6
G1 F59 E1.008777332
G92 E0
G92 E0
G1 F59 E0
G1  F5600 X128.56 Y113.36 Z6
G92 E0
G92 E0
G1  F5600 X125.85 Y81.95 Z6
G1  F5600 X125.91 Y82.95 Z6
G1 F59 E1.008777332
G92 E0
G92 E0
G1 F59 E0
G1  F5600 X125.85 Y81.95 Z6
G92 E0
G92 E0
G1  F5600 X97.3 Y68.58 Z6
G1  F5600 X98.19 Y69.03 Z6
G1 F59 E1.008777332
G92 E0
G92 E0
G1 F59 E0
G1  F5600 X97.3 Y68.58 Z6
G92 E0
G92 E0
G1  F5600 X71.44 Y86.64 Z6
G1  F5600 X72.28 Y86.09 Z6
G1 F59 E1.008777332
G92 E0
G92 E0
G1 F59 E0
G1  F5600 X71.44 Y86.64 Z6
G92 E0
G92 E0
G1  F5600 X74.15 Y118.05 Z6
G1  F5600 X74.09 Y117.05 Z6
G1 F59 E1.008777332
G92 E0
G92 E0
G1 F59 E0
G1  F5600 X74.15 Y118.05 Z6
G92 E0
G92 E0
G1  F5600 X102.7 Y131.42 Z6
G1  F5600 X101.81 Y130.97 Z6
G1 F59 E1.008777332
G92 E0
G92 E0
G1 F59 E0
G1  F5600 X102.7 Y131.42 Z6
G92 E0
G92 E0
G1  F5600 X128.7 Y113.27 Z6.5
G1  F5600 X127.87 Y113.82 Z6.5
G1 F59 E1.008777332
G92 E0
G92 E0
G1 F59 E0
G1  F5600 X128.7 Y113.27 Z6.5
G92 E0
G92 E0
G1  F5600 X125.85 Y81.77 Z6.5
G1  F5600 X125.91 Y82.77 Z6.5
G1 F59 E1.008777332
G92 E0
G92 E0
G1 F59 E0
G1  F5600 X125.85 Y81.77 Z6.5
G92 E0
G92 E0
G1  F5600 X97.13 Y68.51 Z6.5
G1  F5600 X98.03 Y68.95 Z6.5
G1 F59 E1.008777332
G92 E0
G92 E0
G1 F59 E0
G1  F5600 X97.13 Y68.51 Z6.5
G92 E0
G92 E0
G1  F5600 X71.3 Y86.73 Z6.5
G1  F5600 X72.13 Y86.18 Z6.5
G1 F59 E1.008777332
G92 E0
G92 E0
G1 F59 E0
G1  F5600 X71.3 Y86.73 Z6.5
G92 E0
G92 E0
G1  F5600 X74.15 Y118.23 Z6.5
G1  F5600 X74.09 Y117.23 Z6.5
G1 F59 E1.008777332
G92 E0
G92 E0
G1 F59 E0
G1  F5600 X74.15 Y118.23 Z6.5
G92 E0
G92 E0
G1  F5600 X102.87 Y131.49 Z6.5
G1  F5600 X101.97 Y131.05 Z6.5
G1 F59 E1.008777332
G92 E0
G92 E0
G1 F59 E0
G1  F5600 X102.87 Y131.49 Z6.5
G92 E0
G92 E0
G1  F5600 X128.86 Y113.17 Z7
G1  F5600 X128.03 Y113.73 Z7
G1 F59 E1.008777332
G92 E0
G92 E0
G1 F59 E0
G1  F5600 X128.86 Y113.17 Z7
G92 E0
G92 E0
G1  F5600 X125.83 Y81.59 Z7
G1  F5600 X125.9 Y82.59 Z7
G1 F59 E1.008777332
G92 E0
G92 E0
G1 F59 E0
G1  F5600 X125.83 Y81.59 Z7
G92 E0
G92 E0
G1  F5600 X96.97 Y68.43 Z7
G1  F5600 X97.87 Y68.87 Z7
G1 F59 E1.008777332
G92 E0
G92 E0
G1 F59 E0
G1  F5600 X96.97 Y68.43 Z7
G92 E0
G92 E0
G1  F5600 X71.14 Y86.83 Z7
G1  F5600 X71.97 Y86.27 Z7
G1 F59 E1.008777332
G92 E0
G92 E0
G1 F59 E0
G1  F5600 X71.14 Y86.83 Z7
G92 E0
G92 E0
G1  F5600 X74.17 Y118.41 Z7
G1  F5600 X74.1 Y117.41 Z7
G1 F59 E1.008777332
G92 E0
G92 E0
G1 F59 E0
G1  F5600 X74.17 Y118.41 Z7
G92 E0
G92 E0
G1  F5600 X103.03 Y131.57 Z7
G1  F5600 X102.13 Y131.13 Z7
G1 F59 E1.008777332
G92 E0
G92 E0
G1 F59 E0
G1  F5600 X103.03 Y131.57 Z7
G92 E0
G92 E0
G1  F5600 X129.01 Y113.07 Z7.5
G1  F5600 X128.18 Y113.63 Z7.5
G1 F59 E1.008777332
G92 E0
G92 E0
G1 F59 E0
G1  F5600 X129.01 Y113.07 Z7.5
G92 E0
G92 E0
G1  F5600 X125.82 Y81.42 Z7.5
G1  F5600 X125.89 Y82.42 Z7.5
G1 F59 E1.008777332
G92 E0
G92 E0
G1 F59 E0
G1  F5600 X125.82 Y81.42 Z7.5
G92 E0
G92 E0
G1  F5600 X96.82 Y68.34 Z7.5
G1  F5600 X97.72 Y68.78 Z7.5
G1 F59 E1.008777332
G92 E0
G92 E0
G1 F59 E0
G1  F5600 X96.82 Y68.34 Z7.5
G92 E0
G92 E0
G1  F5600 X70.99 Y86.93 Z7.5
G1  F5600 X71.82 Y86.37 Z7.5
G1 F59 E1.008777332
G92 E0
G92 E0
G1 F59 E0
G1  F5600 X70.99 Y86.93 Z7.5
G92 E0
G92 E0
G1  F5600 X74.18 Y118.58 Z7.5
G1  F5600 X74.11 Y117.58 Z7.5
G1 F59 E1.008777332
G92 E0
G92 E0
G1 F59 E0
G1  F5600 X74.18 Y118.58 Z7.5
G92 E0
G92 E0
G1  F5600 X103.18 Y131.66 Z7.5
G1  F5600 X102.28 Y131.22 Z7.5
G1 F59 E1.008777332
G92 E0
G92 E0
G1 F59 E0
G1  F5600 X103.18 Y131.66 Z7.5
G92 E0
G92 E0
G1  F5600 X129.15 Y112.97 Z8
G1  F5600 X128.33 Y113.54 Z8
G1 F59 E1.008777332
G92 E0
G92 E0
G1 F59 E0
G1  F5600 X129.15 Y112.97 Z8
G92 E0
G92 E0
G1  F5600 X125.81 Y81.24 Z8
G1  F5600 X125.89 Y82.24 Z8
G1 F59 E1.008777332
G92 E0
G92 E0
G1 F59 E0
G1  F5600 X125.81 Y81.24 Z8
G92 E0
G92 E0
G1  F5600 X96.66 Y68.27 Z8
G1  F5600 X97.56 Y68.7 Z8
G1 F59 E1.008777332
G92 E0
G92 E0
G1 F59 E0
G1  F5600 X96.66 Y68.27 Z8
G92 E0
G92 E0
G1  F5600 X70.85 Y87.03 Z8
G1  F5600 X71.67 Y86.46 Z8
G1 F59 E1.008777332
G92 E0
G92 E0
G1 F59 E0
G1  F5600 X70.85 Y87.03 Z8
G92 E0
G92 E0
G1  F5600 X74.19 Y118.76 Z8
G1  F5600 X74.11 Y117.76 Z8
G1 F59 E1.008777332
G92 E0
G92 E0
G1 F59 E0
G1  F5600 X74.19 Y118.76 Z8
G92 E0
G92 E0
G1  F5600 X103.34 Y131.73 Z8
G1  F5600 X102.44 Y131.3 Z8
G1 F59 E1.008777332
G92 E0
G92 E0
G1 F59 E0
G1  F5600 X103.34 Y131.73 Z8
G92 E0
G92 E0
G1  F5600 X129.3 Y112.87 Z8.5
G1  F5600 X128.48 Y113.44 Z8.5
G1 F59 E1.008777332
G92 E0
G92 E0
G1 F59 E0
G1  F5600 X129.3 Y112.87 Z8.5
G92 E0
G92 E0
G1  F5600 X125.8 Y81.06 Z8.5
G1  F5600 X125.88 Y82.06 Z8.5
G1 F59 E1.008777332
G92 E0
G92 E0
G1 F59 E0
G1  F5600 X125.8 Y81.06 Z8.5
G92 E0
G92 E0
G1  F5600 X96.51 Y68.19 Z8.5
G1  F5600 X97.41 Y68.62 Z8.5
G1 F59 E1.008777332
G92 E0
G92 E0
G1 F59 E0
G1  F5600 X96.51 Y68.19 Z8.5
G92 E0
G92 E0
G1  F5600 X70.7 Y87.13 Z8.5
G1  F5600 X71.52 Y86.56 Z8.5
G1 F59 E1.008777332
G92 E0
G92 E0
G1 F59 E0
G1  F5600 X70.7 Y87.13 Z8.5
G92 E0
G92 E0
G1  F5600 X74.2 Y118.94 Z8.5
G1  F5600 X74.12 Y117.94 Z8.5
G1 F59 E1.008777332
G92 E0
G92 E0
G1 F59 E0
G1  F5600 X74.2 Y118.94 Z8.5
G92 E0
G92 E0
G1  F5600 X103.49 Y131.81 Z8.5
G1  F5600 X102.59 Y131.38 Z8.5
G1 F59 E1.008777332
G92 E0
G92 E0
G1 F59 E0
G1  F5600 X103.49 Y131.81 Z8.5
G92 E0
G92 E0
G1  F5600 X129.45 Y112.78 Z9
G1  F5600 X128.63 Y113.35 Z9
G1 F59 E1.008777332
G92 E0
G92 E0
G1 F59 E0
G1  F5600 X129.45 Y112.78 Z9
G92 E0
G92 E0
G1  F5600 X125.79 Y80.88 Z9
G1  F5600 X125.88 Y81.88 Z9
G1 F59 E1.008777332
G92 E0
G92 E0
G1 F59 E0
G1  F5600 X125.79 Y80.88 Z9
G92 E0
G92 E0
G1  F5600 X96.34 Y68.11 Z9
G1  F5600 X97.25 Y68.53 Z9
G1 F59 E1.008777332
G92 E0
G92 E0
G1 F59 E0
G1  F5600 X96.34 Y68.11 Z9
G92 E0
G92 E0
G1  F5600 X70.55 Y87.22 Z9
G1  F5600 X71.37 Y86.65 Z9
