;START_OF_HEADER
;HEADER_VERSION:0.1
;FLAVOR:Griffin
;GENERATOR.NAME:Cura_SteamEngine
;GENERATOR.VERSION:4.7.1
;GENERATOR.BUILD_DATE:2020-09-02
;TARGET_MACHINE.NAME:Ultimaker 3
;EXTRUDER_TRAIN.0.INITIAL_TEMPERATURE:205
;EXTRUDER_TRAIN.0.MATERIAL.VOLUME_USED:81
;EXTRUDER_TRAIN.0.MATERIAL.GUID:506c9f0d-e3aa-4bd4-b2d2-23e2425b1aa9
;EXTRUDER_TRAIN.0.NOZZLE.DIAMETER:0.4
;EXTRUDER_TRAIN.0.NOZZLE.NAME:AA 0.4
;BUILD_PLATE.TYPE:glass
;BUILD_PLATE.INITIAL_TEMPERATURE:60
;PRINT.TIME:95
;PRINT.GROUPS:1
;PRINT.SIZE.MIN.X:9
;PRINT.SIZE.MIN.Y:6
;PRINT.SIZE.MIN.Z:0.27
;PRINT.SIZE.MAX.X:125.628
;PRINT.SIZE.MAX.Y:116.295
;PRINT.SIZE.MAX.Z:3.87
;END_OF_HEADER
;Generated with Cura_SteamEngine 4.7.1
T0
M82 ;absolute extrusion mode

G92 E0
M109 S200
G0 F15000 X9 Y6 Z2
G280
G1 F1500 E-6.5
;LAYER_COUNT:39
;LAYER:0
M107
M204 S625
M205 X6 Y6
G1 F600 Z2.27
G0 F4285.7 X109.682 Y101.958 Z2.27
M204 S500
M205 X5 Y5
;- END OF START GCODE ----------------------------------------------------
 G28 ; home all axes
M82 ; use absolute distances for extrusion
G90 ; use absolute coordinates
G21 ; set units to millimeters
G92 E0 ; reset extrusion distance
M104 S185 ; set temperature
M109 S185 ; wait for temperature to be reached
G1 Z0.0 F360 E1
G92 E0
G1  F6000 X141.72 Y70 Z0.5
G1 F1200 X100 Y28.28 Z0.5 E4.82
G1 F1200 X58.28 Y70 Z0.5 E9.63
G1 F1200 X100 Y111.72 Z0.5 E14.45
G1 F1200 X141.72 Y70 Z0.5 E19.27
G92 E0
G1  F6000 X142.43 Y70 Z0.5
G1 F1200 X100 Y27.57 Z0.5 E4.9
G1 F1200 X57.57 Y70 Z0.5 E9.8
G1 F1200 X100 Y112.43 Z0.5 E14.69
G1 F1200 X142.43 Y70 Z0.5 E19.59
G92 E0
G1  F6000 X143.13 Y70 Z0.5
G1 F1200 X100 Y26.87 Z0.5 E4.98
G1 F1200 X56.87 Y70 Z0.5 E9.96
G1 F1200 X100 Y113.13 Z0.5 E14.94
G1 F1200 X143.13 Y70 Z0.5 E19.92
G92 E0
G1  F6000 X141.72 Y90 Z0.5
G1 F1200 X100 Y48.28 Z0.5 E4.82
G1 F1200 X58.28 Y90 Z0.5 E9.63
G1 F1200 X100 Y131.72 Z0.5 E14.45
G1 F1200 X141.72 Y90 Z0.5 E19.27
G92 E0
G1  F6000 X142.43 Y90 Z0.5
G1 F1200 X100 Y47.57 Z0.5 E4.9
G1 F1200 X57.57 Y90 Z0.5 E9.8
G1 F1200 X100 Y132.43 Z0.5 E14.69
G1 F1200 X142.43 Y90 Z0.5 E19.59
G92 E0
G1  F6000 X143.13 Y90 Z0.5
G1 F1200 X100 Y46.87 Z0.5 E4.98
G1 F1200 X56.87 Y90 Z0.5 E9.96
G1 F1200 X100 Y133.13 Z0.5 E14.94
G1 F1200 X143.13 Y90 Z0.5 E19.92
G92 E0
G1  F6000 X141.72 Y110 Z0.5
G1 F1200 X100 Y68.28 Z0.5 E4.82
G1 F1200 X58.28 Y110 Z0.5 E9.63
G1 F1200 X100 Y151.72 Z0.5 E14.45
G1 F1200 X141.72 Y110 Z0.5 E19.27
G92 E0
G1  F6000 X142.43 Y110 Z0.5
G1 F1200 X100 Y67.57 Z0.5 E4.9
G1 F1200 X57.57 Y110 Z0.5 E9.8
G1 F1200 X100 Y152.43 Z0.5 E14.69
G1 F1200 X142.43 Y110 Z0.5 E19.59
G92 E0
G1  F6000 X143.13 Y110 Z0.5
G1 F1200 X100 Y66.87 Z0.5 E4.98
G1 F1200 X56.87 Y110 Z0.5 E9.96
G1 F1200 X100 Y153.13 Z0.5 E14.94
G1 F1200 X143.13 Y110 Z0.5 E19.92
G92 E0
G1  F3000 X99.29 Y26.6 Z1
G1  F3000 X100 Y27.31 Z1
G1 F59 E0.344724
G92 E0
G92 E0
G1 F59 E0
G1  F3000 X99.29 Y26.6 Z1
G92 E0
G92 E0
G1  F3000 X56.68 Y70.63 Z1
G1  F3000 X57.39 Y69.92 Z1
G1 F59 E0.344724
G92 E0
G92 E0
G1 F59 E0
G1  F3000 X56.68 Y70.63 Z1
G92 E0
G92 E0
G1  F3000 X100.71 Y113.23 Z1
G1  F3000 X100 Y112.52 Z1
G1 F59 E0.344724
G92 E0
G92 E0
G1 F59 E0
G1  F3000 X100.71 Y113.23 Z1
G92 E0
G92 E0
G1  F3000 X143.32 Y69.21 Z1
G1  F3000 X142.61 Y69.92 Z1
G1 F59 E0.344724
G92 E0
G92 E0
G1 F59 E0
G1  F3000 X143.32 Y69.21 Z1
G92 E0
G92 E0
G1  F3000 X99.29 Y46.68 Z1
G1  F3000 X100 Y47.39 Z1
G1 F59 E0.344724
G92 E0
G92 E0
G1 F59 E0
G1  F3000 X99.29 Y46.68 Z1
G92 E0
G92 E0
G1  F3000 X56.68 Y90.71 Z1
G1  F3000 X57.39 Y90 Z1
G1 F59 E0.344724
G92 E0
G92 E0
G1 F59 E0
G1  F3000 X56.68 Y90.71 Z1
G92 E0
G92 E0
G1  F3000 X100.71 Y133.32 Z1
G1  F3000 X100 Y132.61 Z1
G1 F59 E0.344724
G92 E0
G92 E0
G1 F59 E0
G1  F3000 X100.71 Y133.32 Z1
G92 E0
G92 E0
G1  F3000 X143.32 Y89.29 Z1
G1  F3000 X142.61 Y90 Z1
G1 F59 E0.344724
G92 E0
G92 E0
G1 F59 E0
G1  F3000 X143.32 Y89.29 Z1
G92 E0
G92 E0
G1  F3000 X99.29 Y66.77 Z1
G1  F3000 X100 Y67.48 Z1
G1 F59 E0.344724
G92 E0
G92 E0
G1 F59 E0
G1  F3000 X99.29 Y66.77 Z1
G92 E0
G92 E0
G1  F3000 X56.68 Y110.79 Z1
G1  F3000 X57.39 Y110.08 Z1
G1 F59 E0.344724
G92 E0
G92 E0
G1 F59 E0
G1  F3000 X56.68 Y110.79 Z1
G92 E0
G92 E0
G1  F3000 X100.71 Y153.4 Z1
G1  F3000 X100 Y152.69 Z1
G1 F59 E0.344724
G92 E0
G92 E0
G1 F59 E0
G1  F3000 X100.71 Y153.4 Z1
G92 E0
G92 E0
G1  F3000 X143.32 Y109.37 Z1
G1  F3000 X142.61 Y110.08 Z1
G1 F59 E0.344724
G92 E0
G92 E0
G1 F59 E0
G1  F3000 X143.32 Y109.37 Z1
G92 E0
G92 E0
G1  F3000 X99.29 Y26.33 Z1.5
G1  F3000 X100 Y27.04 Z1.5
G1 F59 E0.344724
G92 E0
G92 E0
G1 F59 E0
G1  F3000 X99.29 Y26.33 Z1.5
G92 E0
G92 E0
G1  F3000 X56.5 Y70.54 Z1.5
G1  F3000 X57.21 Y69.83 Z1.5
G1 F59 E0.344724
G92 E0
G92 E0
G1 F59 E0
G1  F3000 X56.5 Y70.54 Z1.5
G92 E0
G92 E0
G1  F3000 X100.71 Y113.33 Z1.5
G1  F3000 X100 Y112.62 Z1.5
G1 F59 E0.344724
G92 E0
G92 E0
G1 F59 E0
G1  F3000 X100.71 Y113.33 Z1.5
G92 E0
G92 E0
G1  F3000 X143.5 Y69.12 Z1.5
G1  F3000 X142.79 Y69.83 Z1.5
G1 F59 E0.344724
G92 E0
G92 E0
G1 F59 E0
G1  F3000 X143.5 Y69.12 Z1.5
G92 E0
G92 E0
G1  F3000 X99.29 Y46.5 Z1.5
G1  F3000 X100 Y47.21 Z1.5
G1 F59 E0.344724
G92 E0
G92 E0
G1 F59 E0
G1  F3000 X99.29 Y46.5 Z1.5
G92 E0
G92 E0
G1  F3000 X56.5 Y90.71 Z1.5
G1  F3000 X57.21 Y90 Z1.5
G1 F59 E0.344724
G92 E0
G92 E0
G1 F59 E0
G1  F3000 X56.5 Y90.71 Z1.5
G92 E0
G92 E0
G1  F3000 X100.71 Y133.5 Z1.5
G1  F3000 X100 Y132.79 Z1.5
G1 F59 E0.344724
G92 E0
G92 E0
G1 F59 E0
G1  F3000 X100.71 Y133.5 Z1.5
G92 E0
G92 E0
G1  F3000 X143.5 Y89.29 Z1.5
G1  F3000 X142.79 Y90 Z1.5
G1 F59 E0.344724
G92 E0
G92 E0
G1 F59 E0
G1  F3000 X143.5 Y89.29 Z1.5
G92 E0
G92 E0
G1  F3000 X99.29 Y66.67 Z1.5
G1  F3000 X100 Y67.38 Z1.5
G1 F59 E0.344724
G92 E0
G92 E0
G1 F59 E0
G1  F3000 X99.29 Y66.67 Z1.5
G92 E0
G92 E0
G1  F3000 X56.5 Y110.88 Z1.5
G1  F3000 X57.21 Y110.17 Z1.5
G1 F59 E0.344724
G92 E0
G92 E0
G1 F59 E0
G1  F3000 X56.5 Y110.88 Z1.5
G92 E0
G92 E0
G1  F3000 X100.71 Y153.67 Z1.5
G1  F3000 X100 Y152.96 Z1.5
G1 F59 E0.344724
G92 E0
G92 E0
G1 F59 E0
G1  F3000 X100.71 Y153.67 Z1.5
G92 E0
G92 E0
G1  F3000 X143.5 Y109.46 Z1.5
G1  F3000 X142.79 Y110.17 Z1.5
G1 F59 E0.344724
G92 E0
G92 E0
G1 F59 E0
G1  F3000 X143.5 Y109.46 Z1.5
G92 E0
G92 E0
G1  F3000 X99.29 Y26.07 Z2
G1  F3000 X100 Y26.78 Z2
G1 F59 E0.344724
G92 E0
G92 E0
G1 F59 E0
G1  F3000 X99.29 Y26.07 Z2
G92 E0
G92 E0
G1  F3000 X56.32 Y70.46 Z2
G1  F3000 X57.03 Y69.75 Z2
G1 F59 E0.344724
G92 E0
G92 E0
G1 F59 E0
G1  F3000 X56.32 Y70.46 Z2
G92 E0
G92 E0
G1  F3000 X100.71 Y113.42 Z2
G1  F3000 X100 Y112.71 Z2
G1 F59 E0.344724
G92 E0
G92 E0
G1 F59 E0
G1  F3000 X100.71 Y113.42 Z2
G92 E0
G92 E0
G1  F3000 X143.68 Y69.04 Z2
G1  F3000 X142.97 Y69.75 Z2
G1 F59 E0.344724
G92 E0
G92 E0
G1 F59 E0
G1  F3000 X143.68 Y69.04 Z2
G92 E0
G92 E0
G1  F3000 X99.29 Y46.32 Z2
G1  F3000 X100 Y47.03 Z2
G1 F59 E0.344724
G92 E0
G92 E0
G1 F59 E0
G1  F3000 X99.29 Y46.32 Z2
G92 E0
G92 E0
G1  F3000 X56.32 Y90.71 Z2
G1  F3000 X57.03 Y90 Z2
G1 F59 E0.344724
G92 E0
G92 E0
G1 F59 E0
G1  F3000 X56.32 Y90.71 Z2
G92 E0
G92 E0
G1  F3000 X100.71 Y133.68 Z2
G1  F3000 X100 Y132.97 Z2
G1 F59 E0.344724
G92 E0
G92 E0
G1 F59 E0
G1  F3000 X100.71 Y133.68 Z2
G92 E0
G92 E0
G1  F3000 X143.68 Y89.29 Z2
G1  F3000 X142.97 Y90 Z2
G1 F59 E0.344724
G92 E0
G92 E0
G1 F59 E0
G1  F3000 X143.68 Y89.29 Z2
G92 E0
G92 E0
G1  F3000 X99.29 Y66.58 Z2
G1  F3000 X100 Y67.29 Z2
G1 F59 E0.344724
G92 E0
G92 E0
G1 F59 E0
G1  F3000 X99.29 Y66.58 Z2
G92 E0
G92 E0
G1  F3000 X56.32 Y110.96 Z2
G1  F3000 X57.03 Y110.25 Z2
G1 F59 E0.344724
G92 E0
G92 E0
G1 F59 E0
G1  F3000 X56.32 Y110.96 Z2
G92 E0
G92 E0
G1  F3000 X100.71 Y153.93 Z2
G1  F3000 X100 Y153.22 Z2
G1 F59 E0.344724
G92 E0
G92 E0
G1 F59 E0
G1  F3000 X100.71 Y153.93 Z2
G92 E0
G92 E0
G1  F3000 X143.68 Y109.54 Z2
G1  F3000 X142.97 Y110.25 Z2
G1 F59 E0.344724
G92 E0
G92 E0
G1 F59 E0
G1  F3000 X143.68 Y109.54 Z2
G92 E0
G92 E0
G1  F3000 X99.29 Y25.81 Z2.5
G1  F3000 X100 Y26.52 Z2.5
G1 F59 E0.344724
G92 E0
G92 E0
G1 F59 E0
G1  F3000 X99.29 Y25.81 Z2.5
G92 E0
G92 E0
G1  F3000 X56.14 Y70.37 Z2.5
G1  F3000 X56.85 Y69.66 Z2.5
G1 F59 E0.344724
G92 E0
G92 E0
G1 F59 E0
G1  F3000 X56.14 Y70.37 Z2.5
G92 E0
G92 E0
G1  F3000 X100.71 Y113.52 Z2.5
G1  F3000 X100 Y112.81 Z2.5
G1 F59 E0.344724
G92 E0
G92 E0
G1 F59 E0
G1  F3000 X100.71 Y113.52 Z2.5
G92 E0
G92 E0
G1  F3000 X143.86 Y68.95 Z2.5
G1  F3000 X143.15 Y69.66 Z2.5
G1 F59 E0.344724
G92 E0
G92 E0
G1 F59 E0
G1  F3000 X143.86 Y68.95 Z2.5
G92 E0
G92 E0
G1  F3000 X99.29 Y46.14 Z2.5
G1  F3000 X100 Y46.85 Z2.5
G1 F59 E0.344724
G92 E0
G92 E0
G1 F59 E0
G1  F3000 X99.29 Y46.14 Z2.5
G92 E0
G92 E0
G1  F3000 X56.14 Y90.71 Z2.5
G1  F3000 X56.85 Y90 Z2.5
G1 F59 E0.344724
G92 E0
G92 E0
G1 F59 E0
G1  F3000 X56.14 Y90.71 Z2.5
G92 E0
G92 E0
G1  F3000 X100.71 Y133.86 Z2.5
G1  F3000 X100 Y133.15 Z2.5
G1 F59 E0.344724
G92 E0
G92 E0
G1 F59 E0
G1  F3000 X100.71 Y133.86 Z2.5
G92 E0
G92 E0
G1  F3000 X143.86 Y89.29 Z2.5
G1  F3000 X143.15 Y90 Z2.5
G1 F59 E0.344724
G92 E0
G92 E0
G1 F59 E0
G1  F3000 X143.86 Y89.29 Z2.5
G92 E0
G92 E0
G1  F3000 X99.29 Y66.48 Z2.5
G1  F3000 X100 Y67.19 Z2.5
G1 F59 E0.344724
G92 E0
G92 E0
G1 F59 E0
G1  F3000 X99.29 Y66.48 Z2.5
G92 E0
G92 E0
G1  F3000 X56.14 Y111.05 Z2.5
G1  F3000 X56.85 Y110.34 Z2.5
G1 F59 E0.344724
G92 E0
G92 E0
G1 F59 E0
G1  F3000 X56.14 Y111.05 Z2.5
G92 E0
G92 E0
G1  F3000 X100.71 Y154.19 Z2.5
G1  F3000 X100 Y153.48 Z2.5
G1 F59 E0.344724
G92 E0
G92 E0
G1 F59 E0
G1  F3000 X100.71 Y154.19 Z2.5
G92 E0
G92 E0
G1  F3000 X143.86 Y109.63 Z2.5
G1  F3000 X143.15 Y110.34 Z2.5
G1 F59 E0.344724
G92 E0
G92 E0
G1 F59 E0
G1  F3000 X143.86 Y109.63 Z2.5
G92 E0
G92 E0
G1  F3000 X99.29 Y25.54 Z3
G1  F3000 X100 Y26.25 Z3
G1 F59 E0.344724
G92 E0
G92 E0
G1 F59 E0
G1  F3000 X99.29 Y25.54 Z3
G92 E0
G92 E0
G1  F3000 X55.97 Y70.29 Z3
G1  F3000 X56.68 Y69.58 Z3
G1 F59 E0.344724
G92 E0
G92 E0
G1 F59 E0
G1  F3000 X55.97 Y70.29 Z3
G92 E0
G92 E0
G1  F3000 X100.71 Y113.61 Z3
G1  F3000 X100 Y112.9 Z3
G1 F59 E0.344724
G92 E0
G92 E0
G1 F59 E0
G1  F3000 X100.71 Y113.61 Z3
G92 E0
G92 E0
G1  F3000 X144.03 Y68.87 Z3
G1  F3000 X143.32 Y69.58 Z3
G1 F59 E0.344724
G92 E0
G92 E0
G1 F59 E0
G1  F3000 X144.03 Y68.87 Z3
G92 E0
G92 E0
G1  F3000 X99.29 Y45.97 Z3
G1  F3000 X100 Y46.68 Z3
G1 F59 E0.344724
G92 E0
G92 E0
G1 F59 E0
G1  F3000 X99.29 Y45.97 Z3
G92 E0
G92 E0
G1  F3000 X55.97 Y90.71 Z3
G1  F3000 X56.68 Y90 Z3
G1 F59 E0.344724
G92 E0
G92 E0
G1 F59 E0
G1  F3000 X55.97 Y90.71 Z3
G92 E0
G92 E0
G1  F3000 X100.71 Y134.03 Z3
G1  F3000 X100 Y133.32 Z3
G1 F59 E0.344724
G92 E0
G92 E0
G1 F59 E0
G1  F3000 X100.71 Y134.03 Z3
G92 E0
G92 E0
G1  F3000 X144.03 Y89.29 Z3
G1  F3000 X143.32 Y90 Z3
G1 F59 E0.344724
G92 E0
G92 E0
G1 F59 E0
G1  F3000 X144.03 Y89.29 Z3
G92 E0
G92 E0
G1  F3000 X99.29 Y66.39 Z3
G1  F3000 X100 Y67.1 Z3
G1 F59 E0.344724
G92 E0
G92 E0
G1 F59 E0
G1  F3000 X99.29 Y66.39 Z3
G92 E0
G92 E0
G1  F3000 X55.97 Y111.13 Z3
G1  F3000 X56.68 Y110.42 Z3
G1 F59 E0.344724
G92 E0
G92 E0
G1 F59 E0
G1  F3000 X55.97 Y111.13 Z3
G92 E0
G92 E0
G1  F3000 X100.71 Y154.46 Z3
G1  F3000 X100 Y153.75 Z3
G1 F59 E0.344724
G92 E0
G92 E0
G1 F59 E0
G1  F3000 X100.71 Y154.46 Z3
G92 E0
G92 E0
G1  F3000 X144.03 Y109.71 Z3
G1  F3000 X143.32 Y110.42 Z3
G1 F59 E0.344724
G92 E0
G92 E0
G1 F59 E0
G1  F3000 X144.03 Y109.71 Z3
G92 E0
G92 E0
G1  F3000 X99.29 Y25.28 Z3.5
G1  F3000 X100 Y25.99 Z3.5
G1 F59 E0.344724
G92 E0
G92 E0
G1 F59 E0
G1  F3000 X99.29 Y25.28 Z3.5
G92 E0
G92 E0
G1  F3000 X55.79 Y70.2 Z3.5
G1  F3000 X56.5 Y69.49 Z3.5
G1 F59 E0.344724
G92 E0
G92 E0
G1 F59 E0
G1  F3000 X55.79 Y70.2 Z3.5
G92 E0
G92 E0
G1  F3000 X100.71 Y113.71 Z3.5
G1  F3000 X100 Y113 Z3.5
G1 F59 E0.344724
G92 E0
G92 E0
G1 F59 E0
G1  F3000 X100.71 Y113.71 Z3.5
G92 E0
G92 E0
G1  F3000 X144.21 Y68.78 Z3.5
G1  F3000 X143.5 Y69.49 Z3.5
G1 F59 E0.344724
G92 E0
G92 E0
G1 F59 E0
G1  F3000 X144.21 Y68.78 Z3.5
G92 E0
G92 E0
G1  F3000 X99.29 Y45.79 Z3.5
G1  F3000 X100 Y46.5 Z3.5
G1 F59 E0.344724
G92 E0
G92 E0
G1 F59 E0
G1  F3000 X99.29 Y45.79 Z3.5
G92 E0
G92 E0
G1  F3000 X55.79 Y90.71 Z3.5
G1  F3000 X56.5 Y90 Z3.5
G1 F59 E0.344724
G92 E0
G92 E0
G1 F59 E0
G1  F3000 X55.79 Y90.71 Z3.5
G92 E0
G92 E0
G1  F3000 X100.71 Y134.21 Z3.5
G1  F3000 X100 Y133.5 Z3.5
G1 F59 E0.344724
G92 E0
G92 E0
G1 F59 E0
G1  F3000 X100.71 Y134.21 Z3.5
G92 E0
G92 E0
G1  F3000 X144.21 Y89.29 Z3.5
G1  F3000 X143.5 Y90 Z3.5
G1 F59 E0.344724
G92 E0
G92 E0
G1 F59 E0
G1  F3000 X144.21 Y89.29 Z3.5
G92 E0
G92 E0
G1  F3000 X99.29 Y66.29 Z3.5
G1  F3000 X100 Y67 Z3.5
G1 F59 E0.344724
G92 E0
G92 E0
G1 F59 E0
G1  F3000 X99.29 Y66.29 Z3.5
G92 E0
G92 E0
G1  F3000 X55.79 Y111.22 Z3.5
G1  F3000 X56.5 Y110.51 Z3.5
G1 F59 E0.344724
G92 E0
G92 E0
G1 F59 E0
G1  F3000 X55.79 Y111.22 Z3.5
G92 E0
G92 E0
G1  F3000 X100.71 Y154.72 Z3.5
G1  F3000 X100 Y154.01 Z3.5
G1 F59 E0.344724
G92 E0
G92 E0
G1 F59 E0
G1  F3000 X100.71 Y154.72 Z3.5
G92 E0
G92 E0
G1  F3000 X144.21 Y109.8 Z3.5
G1  F3000 X143.5 Y110.51 Z3.5
G1 F59 E0.344724
G92 E0
G92 E0
G1 F59 E0
G1  F3000 X144.21 Y109.8 Z3.5
G92 E0
G92 E0
G1  F3000 X99.29 Y25.01 Z4
G1  F3000 X100 Y25.72 Z4
G1 F59 E0.344724
G92 E0
G92 E0
G1 F59 E0
G1  F3000 X99.29 Y25.01 Z4
G92 E0
G92 E0
G1  F3000 X55.61 Y70.12 Z4
G1  F3000 X56.32 Y69.41 Z4
G1 F59 E0.344724
G92 E0
G92 E0
G1 F59 E0
G1  F3000 X55.61 Y70.12 Z4
G92 E0
G92 E0
G1  F3000 X100.71 Y113.8 Z4
G1  F3000 X100 Y113.09 Z4
G1 F59 E0.344724
G92 E0
G92 E0
G1 F59 E0
G1  F3000 X100.71 Y113.8 Z4
G92 E0
G92 E0
G1  F3000 X144.39 Y68.7 Z4
G1  F3000 X143.68 Y69.41 Z4
G1 F59 E0.344724
G92 E0
G92 E0
G1 F59 E0
G1  F3000 X144.39 Y68.7 Z4
G92 E0
G92 E0
G1  F3000 X99.29 Y45.61 Z4
G1  F3000 X100 Y46.32 Z4
G1 F59 E0.344724
G92 E0
G92 E0
G1 F59 E0
G1  F3000 X99.29 Y45.61 Z4
G92 E0
G92 E0
G1  F3000 X55.61 Y90.71 Z4
G1  F3000 X56.32 Y90 Z4
G1 F59 E0.344724
G92 E0
G92 E0
G1 F59 E0
G1  F3000 X55.61 Y90.71 Z4
G92 E0
G92 E0
G1  F3000 X100.71 Y134.39 Z4
G1  F3000 X100 Y133.68 Z4
G1 F59 E0.344724
G92 E0
G92 E0
G1 F59 E0
G1  F3000 X100.71 Y134.39 Z4
G92 E0
G92 E0
G1  F3000 X144.39 Y89.29 Z4
G1  F3000 X143.68 Y90 Z4
G1 F59 E0.344724
G92 E0
G92 E0
G1 F59 E0
G1  F3000 X144.39 Y89.29 Z4
G92 E0
G92 E0
G1  F3000 X99.29 Y66.2 Z4
G1  F3000 X100 Y66.91 Z4
G1 F59 E0.344724
G92 E0
G92 E0
G1 F59 E0
G1  F3000 X99.29 Y66.2 Z4
G92 E0
G92 E0
G1  F3000 X55.61 Y111.3 Z4
G1  F3000 X56.32 Y110.59 Z4
G1 F59 E0.344724
G92 E0
G92 E0
G1 F59 E0
G1  F3000 X55.61 Y111.3 Z4
G92 E0
G92 E0
G1  F3000 X100.71 Y154.99 Z4
G1  F3000 X100 Y154.28 Z4
G1 F59 E0.344724
G92 E0
G92 E0
G1 F59 E0
G1  F3000 X100.71 Y154.99 Z4
G92 E0
G92 E0
G1  F3000 X144.39 Y109.88 Z4
G1  F3000 X143.68 Y110.59 Z4
G1 F59 E0.344724
G92 E0
G92 E0
G1 F59 E0
G1  F3000 X144.39 Y109.88 Z4
G92 E0
G92 E0
G1  F3000 X99.29 Y24.75 Z4.5
G1  F3000 X100 Y25.46 Z4.5
G1 F59 E0.344724
G92 E0
G92 E0
G1 F59 E0
G1  F3000 X99.29 Y24.75 Z4.5
G92 E0
G92 E0
G1  F3000 X55.43 Y70.03 Z4.5
G1  F3000 X56.14 Y69.32 Z4.5
G1 F59 E0.344724
G92 E0
G92 E0
G1 F59 E0
G1  F3000 X55.43 Y70.03 Z4.5
G92 E0
G92 E0
G1  F3000 X100.71 Y113.9 Z4.5
G1  F3000 X100 Y113.19 Z4.5
G1 F59 E0.344724
G92 E0
G92 E0
G1 F59 E0
G1  F3000 X100.71 Y113.9 Z4.5
G92 E0
G92 E0
G1  F3000 X144.57 Y68.61 Z4.5
G1  F3000 X143.86 Y69.32 Z4.5
G1 F59 E0.344724
G92 E0
G92 E0
G1 F59 E0
G1  F3000 X144.57 Y68.61 Z4.5
G92 E0
G92 E0
G1  F3000 X99.29 Y45.43 Z4.5
G1  F3000 X100 Y46.14 Z4.5
G1 F59 E0.344724
G92 E0
G92 E0
G1 F59 E0
G1  F3000 X99.29 Y45.43 Z4.5
G92 E0
G92 E0
G1  F3000 X55.43 Y90.71 Z4.5
G1  F3000 X56.14 Y90 Z4.5
G1 F59 E0.344724
G92 E0
G92 E0
G1 F59 E0
G1  F3000 X55.43 Y90.71 Z4.5
G92 E0
G92 E0
G1  F3000 X100.71 Y134.57 Z4.5
G1  F3000 X100 Y133.86 Z4.5
G1 F59 E0.344724
G92 E0
G92 E0
G1 F59 E0
G1  F3000 X100.71 Y134.57 Z4.5
G92 E0
G92 E0
G1  F3000 X144.57 Y89.29 Z4.5
G1  F3000 X143.86 Y90 Z4.5
G1 F59 E0.344724
G92 E0
G92 E0
G1 F59 E0
G1  F3000 X144.57 Y89.29 Z4.5
G92 E0
G92 E0
G1  F3000 X99.29 Y66.1 Z4.5
G1  F3000 X100 Y66.81 Z4.5
G1 F59 E0.344724
G92 E0
G92 E0
G1 F59 E0
G1  F3000 X99.29 Y66.1 Z4.5
G92 E0
G92 E0
G1  F3000 X55.43 Y111.39 Z4.5
G1  F3000 X56.14 Y110.68 Z4.5
G1 F59 E0.344724
G92 E0
G92 E0
G1 F59 E0
G1  F3000 X55.43 Y111.39 Z4.5
G92 E0
G92 E0
G1  F3000 X100.71 Y155.25 Z4.5
G1  F3000 X100 Y154.54 Z4.5
G1 F59 E0.344724
G92 E0
G92 E0
G1 F59 E0
G1  F3000 X100.71 Y155.25 Z4.5
G92 E0
G92 E0
G1  F3000 X144.57 Y109.97 Z4.5
