;START_OF_HEADER
;HEADER_VERSION:0.1
;FLAVOR:Griffin
;GENERATOR.NAME:Cura_SteamEngine
;GENERATOR.VERSION:4.7.1
;GENERATOR.BUILD_DATE:2020-09-02
;TARGET_MACHINE.NAME:Ultimaker 3
;EXTRUDER_TRAIN.0.INITIAL_TEMPERATURE:205
;EXTRUDER_TRAIN.0.MATERIAL.VOLUME_USED:81
;EXTRUDER_TRAIN.0.MATERIAL.GUID:506c9f0d-e3aa-4bd4-b2d2-23e2425b1aa9
;EXTRUDER_TRAIN.0.NOZZLE.DIAMETER:0.4
;EXTRUDER_TRAIN.0.NOZZLE.NAME:AA 0.4
;BUILD_PLATE.TYPE:glass
;BUILD_PLATE.INITIAL_TEMPERATURE:60
;PRINT.TIME:95
;PRINT.GROUPS:1
;PRINT.SIZE.MIN.X:9
;PRINT.SIZE.MIN.Y:6
;PRINT.SIZE.MIN.Z:0.27
;PRINT.SIZE.MAX.X:125.628
;PRINT.SIZE.MAX.Y:116.295
;PRINT.SIZE.MAX.Z:3.87
;END_OF_HEADER
;Generated with Cura_SteamEngine 4.7.1
T0
M82 ;absolute extrusion mode

G92 E0
M109 S200
G0 F15000 X9 Y6 Z2
G280
G1 F1500 E-6.5
;LAYER_COUNT:39
;LAYER:0
M107
M204 S625
M205 X6 Y6
G1 F600 Z2.27
G0 F4285.7 X109.682 Y101.958 Z2.27
M204 S500
M205 X5 Y5
;- END OF START GCODE - 
 G28 ; home all axes
M82 ; use absolute distances for extrusion
G90 ; use absolute coordinates
G21 ; set units to millimeters
G92 E0 ; reset extrusion distance
M104 S185 ; set temperature
M109 S185 ; wait for temperature to be reached
G1 Z0.0 F360 E1
G92 E0
G1  F6000 X60 Y89.42 Z0.5
G1 F1200 X85.48 Y74.71 Z0.5 E2.4
G1 F1200 X85.48 Y45.29 Z0.5 E4.8
G1 F1200 X60 Y30.58 Z0.5 E7.21
G1 F1200 X34.52 Y45.29 Z0.5 E9.61
G1 F1200 X34.52 Y74.71 Z0.5 E12.01
G1 F1200 X60 Y89.42 Z0.5 E14.41
G92 E0
G1  F6000 X60 Y90 Z0.5
G1 F1200 X85.98 Y75 Z0.5 E2.45
G1 F1200 X85.98 Y45 Z0.5 E4.9
G1 F1200 X60 Y30 Z0.5 E7.35
G1 F1200 X34.02 Y45 Z0.5 E9.8
G1 F1200 X34.02 Y75 Z0.5 E12.24
G1 F1200 X60 Y90 Z0.5 E14.69
G92 E0
G1  F6000 X60 Y90.58 Z0.5
G1 F1200 X86.48 Y75.29 Z0.5 E2.5
G1 F1200 X86.48 Y44.71 Z0.5 E4.99
G1 F1200 X60 Y29.42 Z0.5 E7.49
G1 F1200 X33.52 Y44.71 Z0.5 E9.98
G1 F1200 X33.52 Y75.29 Z0.5 E12.48
G1 F1200 X60 Y90.58 Z0.5 E14.98
G92 E0
G1  F6000 X60.15 Y89.51 Z1
G1 F1200 X85.63 Y74.62 Z1 E2.41
G1 F1200 X85.48 Y45.11 Z1 E4.82
G1 F1200 X59.85 Y30.49 Z1 E7.23
G1 F1200 X34.37 Y45.38 Z1 E9.63
G1 F1200 X34.52 Y74.89 Z1 E12.04
G1 F1200 X60.15 Y89.51 Z1 E14.45
G92 E0
G1  F6000 X60.16 Y90.08 Z1
G1 F1200 X86.13 Y74.91 Z1 E2.46
G1 F1200 X85.97 Y44.82 Z1 E4.91
G1 F1200 X59.84 Y29.92 Z1 E7.37
G1 F1200 X33.87 Y45.09 Z1 E9.82
G1 F1200 X34.03 Y75.18 Z1 E12.28
G1 F1200 X60.16 Y90.08 Z1 E14.73
G92 E0
G1  F6000 X60.16 Y90.66 Z1
G1 F1200 X86.63 Y75.19 Z1 E2.5
G1 F1200 X86.47 Y44.53 Z1 E5.01
G1 F1200 X59.84 Y29.34 Z1 E7.51
G1 F1200 X33.37 Y44.81 Z1 E10.01
G1 F1200 X33.53 Y75.47 Z1 E12.51
G1 F1200 X60.16 Y90.66 Z1 E15.02
G92 E0
G1  F6000 X60.31 Y89.59 Z1.5
G1 F1200 X85.78 Y74.53 Z1.5 E2.42
G1 F1200 X85.47 Y44.94 Z1.5 E4.83
G1 F1200 X59.69 Y30.41 Z1.5 E7.25
G1 F1200 X34.22 Y45.47 Z1.5 E9.66
G1 F1200 X34.53 Y75.06 Z1.5 E12.08
G1 F1200 X60.31 Y89.59 Z1.5 E14.49
G92 E0
G1  F6000 X60.31 Y90.17 Z1.5
G1 F1200 X86.28 Y74.81 Z1.5 E2.46
G1 F1200 X85.97 Y44.65 Z1.5 E4.93
G1 F1200 X59.69 Y29.83 Z1.5 E7.39
G1 F1200 X33.72 Y45.19 Z1.5 E9.85
G1 F1200 X34.03 Y75.35 Z1.5 E12.31
G1 F1200 X60.31 Y90.17 Z1.5 E14.78
G92 E0
G1  F6000 X60.32 Y90.74 Z1.5
G1 F1200 X86.78 Y75.1 Z1.5 E2.51
G1 F1200 X86.47 Y44.35 Z1.5 E5.02
G1 F1200 X59.68 Y29.26 Z1.5 E7.53
G1 F1200 X33.22 Y44.9 Z1.5 E10.04
G1 F1200 X33.53 Y75.65 Z1.5 E12.55
G1 F1200 X60.32 Y90.74 Z1.5 E15.06
G92 E0
G1  F5000 X87.29 Y74.21 Z2
G1  F5000 X86.43 Y74.72 Z2
G1 F59 E0.344724
G92 E0
G92 E0
G1 F59 E0
G1  F5000 X87.29 Y74.21 Z2
G92 E0
G92 E0
G1  F5000 X85.94 Y43.47 Z2
G1  F5000 X85.96 Y44.47 Z2
G1 F59 E0.344724
G92 E0
G92 E0
G1 F59 E0
G1  F5000 X85.94 Y43.47 Z2
G92 E0
G92 E0
G1  F5000 X58.66 Y29.26 Z2
G1  F5000 X59.53 Y29.75 Z2
G1 F59 E0.344724
G92 E0
G92 E0
G1 F59 E0
G1  F5000 X58.66 Y29.26 Z2
G92 E0
G92 E0
G1  F5000 X32.71 Y45.79 Z2
G1  F5000 X33.57 Y45.28 Z2
G1 F59 E0.344724
G92 E0
G92 E0
G1 F59 E0
G1  F5000 X32.71 Y45.79 Z2
G92 E0
G92 E0
G1  F5000 X34.06 Y76.53 Z2
G1  F5000 X34.04 Y75.53 Z2
G1 F59 E0.344724
G92 E0
G92 E0
G1 F59 E0
G1  F5000 X34.06 Y76.53 Z2
G92 E0
G92 E0
G1  F5000 X61.34 Y90.74 Z2
G1  F5000 X60.47 Y90.25 Z2
G1 F59 E0.344724
G92 E0
G92 E0
G1 F59 E0
G1  F5000 X61.34 Y90.74 Z2
G92 E0
G92 E0
G1  F5000 X87.44 Y74.11 Z2.5
G1  F5000 X86.58 Y74.63 Z2.5
G1 F59 E0.344724
G92 E0
G92 E0
G1 F59 E0
G1  F5000 X87.44 Y74.11 Z2.5
G92 E0
G92 E0
G1  F5000 X85.94 Y43.29 Z2.5
G1  F5000 X85.96 Y44.29 Z2.5
G1 F59 E0.344724
G92 E0
G92 E0
G1 F59 E0
G1  F5000 X85.94 Y43.29 Z2.5
G92 E0
G92 E0
G1  F5000 X58.49 Y29.19 Z2.5
G1  F5000 X59.37 Y29.67 Z2.5
G1 F59 E0.344724
G92 E0
G92 E0
G1 F59 E0
G1  F5000 X58.49 Y29.19 Z2.5
G92 E0
G92 E0
G1  F5000 X32.56 Y45.89 Z2.5
G1  F5000 X33.42 Y45.37 Z2.5
G1 F59 E0.344724
G92 E0
G92 E0
G1 F59 E0
G1  F5000 X32.56 Y45.89 Z2.5
G92 E0
G92 E0
G1  F5000 X34.06 Y76.71 Z2.5
G1  F5000 X34.04 Y75.71 Z2.5
G1 F59 E0.344724
G92 E0
G92 E0
G1 F59 E0
G1  F5000 X34.06 Y76.71 Z2.5
G92 E0
G92 E0
G1  F5000 X61.51 Y90.81 Z2.5
G1  F5000 X60.63 Y90.33 Z2.5
G1 F59 E0.344724
G92 E0
G92 E0
G1 F59 E0
G1  F5000 X61.51 Y90.81 Z2.5
G92 E0
G92 E0
G1  F5000 X87.58 Y74.01 Z3
G1  F5000 X86.73 Y74.53 Z3
G1 F59 E0.344724
G92 E0
G92 E0
G1 F59 E0
G1  F5000 X87.58 Y74.01 Z3
G92 E0
G92 E0
G1  F5000 X85.92 Y43.11 Z3
G1  F5000 X85.95 Y44.11 Z3
G1 F59 E0.344724
G92 E0
G92 E0
G1 F59 E0
G1  F5000 X85.92 Y43.11 Z3
G92 E0
G92 E0
G1  F5000 X58.34 Y29.1 Z3
G1  F5000 X59.22 Y29.58 Z3
G1 F59 E0.344724
G92 E0
G92 E0
G1 F59 E0
G1  F5000 X58.34 Y29.1 Z3
G92 E0
G92 E0
G1  F5000 X32.42 Y45.99 Z3
G1  F5000 X33.27 Y45.47 Z3
G1 F59 E0.344724
G92 E0
G92 E0
G1 F59 E0
G1  F5000 X32.42 Y45.99 Z3
G92 E0
G92 E0
G1  F5000 X34.08 Y76.89 Z3
G1  F5000 X34.05 Y75.89 Z3
G1 F59 E0.344724
G92 E0
G92 E0
G1 F59 E0
G1  F5000 X34.08 Y76.89 Z3
G92 E0
G92 E0
G1  F5000 X61.66 Y90.9 Z3
G1  F5000 X60.78 Y90.42 Z3
G1 F59 E0.344724
G92 E0
G92 E0
G1 F59 E0
G1  F5000 X61.66 Y90.9 Z3
G92 E0
G92 E0
G1  F5000 X87.73 Y73.91 Z3.5
G1  F5000 X86.88 Y74.44 Z3.5
G1 F59 E0.344724
G92 E0
G92 E0
G1 F59 E0
G1  F5000 X87.73 Y73.91 Z3.5
G92 E0
G92 E0
G1  F5000 X85.91 Y42.94 Z3.5
G1  F5000 X85.94 Y43.94 Z3.5
G1 F59 E0.344724
G92 E0
G92 E0
G1 F59 E0
G1  F5000 X85.91 Y42.94 Z3.5
G92 E0
G92 E0
G1  F5000 X58.18 Y29.03 Z3.5
G1  F5000 X59.06 Y29.5 Z3.5
G1 F59 E0.344724
G92 E0
G92 E0
G1 F59 E0
G1  F5000 X58.18 Y29.03 Z3.5
G92 E0
G92 E0
G1  F5000 X32.27 Y46.09 Z3.5
G1  F5000 X33.12 Y45.56 Z3.5
G1 F59 E0.344724
G92 E0
G92 E0
G1 F59 E0
G1  F5000 X32.27 Y46.09 Z3.5
G92 E0
G92 E0
G1  F5000 X34.09 Y77.06 Z3.5
G1  F5000 X34.06 Y76.06 Z3.5
G1 F59 E0.344724
G92 E0
G92 E0
G1 F59 E0
G1  F5000 X34.09 Y77.06 Z3.5
G92 E0
G92 E0
G1  F5000 X61.82 Y90.97 Z3.5
G1  F5000 X60.94 Y90.5 Z3.5
G1 F59 E0.344724
G92 E0
G92 E0
G1 F59 E0
G1  F5000 X61.82 Y90.97 Z3.5
G92 E0
G92 E0
G1  F5000 X87.88 Y73.81 Z4
G1  F5000 X87.03 Y74.34 Z4
G1 F59 E0.344724
G92 E0
G92 E0
G1 F59 E0
G1  F5000 X87.88 Y73.81 Z4
G92 E0
G92 E0
G1  F5000 X85.9 Y42.76 Z4
G1  F5000 X85.94 Y43.76 Z4
G1 F59 E0.344724
G92 E0
G92 E0
G1 F59 E0
G1  F5000 X85.9 Y42.76 Z4
G92 E0
G92 E0
G1  F5000 X58.03 Y28.95 Z4
G1  F5000 X58.91 Y29.42 Z4
G1 F59 E0.344724
G92 E0
G92 E0
G1 F59 E0
G1  F5000 X58.03 Y28.95 Z4
G92 E0
G92 E0
G1  F5000 X32.12 Y46.19 Z4
G1  F5000 X32.97 Y45.66 Z4
G1 F59 E0.344724
G92 E0
G92 E0
G1 F59 E0
G1  F5000 X32.12 Y46.19 Z4
G92 E0
G92 E0
G1  F5000 X34.1 Y77.24 Z4
G1  F5000 X34.06 Y76.24 Z4
G1 F59 E0.344724
G92 E0
G92 E0
G1 F59 E0
G1  F5000 X34.1 Y77.24 Z4
G92 E0
G92 E0
G1  F5000 X61.97 Y91.05 Z4
G1  F5000 X61.09 Y90.58 Z4
G1 F59 E0.344724
G92 E0
G92 E0
G1 F59 E0
G1  F5000 X61.97 Y91.05 Z4
G92 E0
G92 E0
G1  F5000 X88.02 Y73.72 Z4.5
G1  F5000 X87.18 Y74.25 Z4.5
G1 F59 E0.344724
G92 E0
G92 E0
G1 F59 E0
G1  F5000 X88.02 Y73.72 Z4.5
G92 E0
G92 E0
G1  F5000 X85.89 Y42.58 Z4.5
G1  F5000 X85.93 Y43.58 Z4.5
G1 F59 E0.344724
G92 E0
G92 E0
G1 F59 E0
G1  F5000 X85.89 Y42.58 Z4.5
G92 E0
G92 E0
G1  F5000 X57.86 Y28.87 Z4.5
G1  F5000 X58.75 Y29.33 Z4.5
G1 F59 E0.344724
G92 E0
G92 E0
G1 F59 E0
G1  F5000 X57.86 Y28.87 Z4.5
G92 E0
G92 E0
G1  F5000 X31.98 Y46.28 Z4.5
G1  F5000 X32.82 Y45.75 Z4.5
G1 F59 E0.344724
G92 E0
G92 E0
G1 F59 E0
G1  F5000 X31.98 Y46.28 Z4.5
G92 E0
G92 E0
G1  F5000 X34.11 Y77.42 Z4.5
G1  F5000 X34.07 Y76.42 Z4.5
G1 F59 E0.344724
G92 E0
G92 E0
G1 F59 E0
G1  F5000 X34.11 Y77.42 Z4.5
G92 E0
G92 E0
G1  F5000 X62.14 Y91.13 Z4.5
G1  F5000 X61.25 Y90.67 Z4.5
G1 F59 E0.344724
G92 E0
G92 E0
G1 F59 E0
G1  F5000 X62.14 Y91.13 Z4.5
G92 E0
G92 E0
G1  F5000 X88.17 Y73.62 Z5
G1  F5000 X87.33 Y74.16 Z5
G1 F59 E0.344724
G92 E0
G92 E0
G1 F59 E0
G1  F5000 X88.17 Y73.62 Z5
G92 E0
G92 E0
G1  F5000 X85.88 Y42.41 Z5
G1  F5000 X85.93 Y43.41 Z5
G1 F59 E0.344724
G92 E0
G92 E0
G1 F59 E0
G1  F5000 X85.88 Y42.41 Z5
G92 E0
G92 E0
G1  F5000 X57.7 Y28.79 Z5
G1  F5000 X58.59 Y29.25 Z5
G1 F59 E0.344724
G92 E0
G92 E0
G1 F59 E0
G1  F5000 X57.7 Y28.79 Z5
G92 E0
G92 E0
G1  F5000 X31.83 Y46.38 Z5
G1  F5000 X32.67 Y45.84 Z5
G1 F59 E0.344724
G92 E0
G92 E0
G1 F59 E0
G1  F5000 X31.83 Y46.38 Z5
G92 E0
G92 E0
G1  F5000 X34.12 Y77.59 Z5
G1  F5000 X34.07 Y76.59 Z5
G1 F59 E0.344724
G92 E0
G92 E0
G1 F59 E0
G1  F5000 X34.12 Y77.59 Z5
G92 E0
G92 E0
G1  F5000 X62.3 Y91.21 Z5
G1  F5000 X61.41 Y90.75 Z5
G1 F59 E0.344724
G92 E0
G92 E0
G1 F59 E0
G1  F5000 X62.3 Y91.21 Z5
G92 E0
G92 E0
G1  F5000 X88.32 Y73.52 Z5.5
G1  F5000 X87.48 Y74.06 Z5.5
G1 F59 E0.344724
G92 E0
G92 E0
G1 F59 E0
G1  F5000 X88.32 Y73.52 Z5.5
G92 E0
G92 E0
G1  F5000 X85.87 Y42.23 Z5.5
G1  F5000 X85.92 Y43.23 Z5.5
G1 F59 E0.344724
G92 E0
G92 E0
G1 F59 E0
G1  F5000 X85.87 Y42.23 Z5.5
G92 E0
G92 E0
G1  F5000 X57.55 Y28.71 Z5.5
G1  F5000 X58.44 Y29.17 Z5.5
G1 F59 E0.344724
G92 E0
G92 E0
G1 F59 E0
G1  F5000 X57.55 Y28.71 Z5.5
G92 E0
G92 E0
G1  F5000 X31.68 Y46.48 Z5.5
G1  F5000 X32.52 Y45.94 Z5.5
G1 F59 E0.344724
G92 E0
G92 E0
G1 F59 E0
G1  F5000 X31.68 Y46.48 Z5.5
G92 E0
G92 E0
G1  F5000 X34.13 Y77.77 Z5.5
G1  F5000 X34.08 Y76.77 Z5.5
G1 F59 E0.344724
G92 E0
G92 E0
G1 F59 E0
G1  F5000 X34.13 Y77.77 Z5.5
G92 E0
G92 E0
G1  F5000 X62.45 Y91.29 Z5.5
G1  F5000 X61.56 Y90.83 Z5.5
G1 F59 E0.344724
G92 E0
G92 E0
G1 F59 E0
G1  F5000 X62.45 Y91.29 Z5.5
G92 E0
G92 E0
G1  F5000 X88.47 Y73.42 Z6
G1  F5000 X87.63 Y73.97 Z6
G1 F59 E0.344724
G92 E0
G92 E0
G1 F59 E0
G1  F5000 X88.47 Y73.42 Z6
G92 E0
G92 E0
G1  F5000 X85.85 Y42.05 Z6
G1  F5000 X85.91 Y43.05 Z6
G1 F59 E0.344724
G92 E0
G92 E0
G1 F59 E0
G1  F5000 X85.85 Y42.05 Z6
G92 E0
G92 E0
G1  F5000 X57.39 Y28.63 Z6
G1  F5000 X58.28 Y29.08 Z6
G1 F59 E0.344724
G92 E0
G92 E0
G1 F59 E0
G1  F5000 X57.39 Y28.63 Z6
G92 E0
G92 E0
G1  F5000 X31.53 Y46.58 Z6
G1  F5000 X32.37 Y46.03 Z6
G1 F59 E0.344724
G92 E0
G92 E0
G1 F59 E0
G1  F5000 X31.53 Y46.58 Z6
G92 E0
G92 E0
G1  F5000 X34.15 Y77.95 Z6
G1  F5000 X34.09 Y76.95 Z6
G1 F59 E0.344724
G92 E0
G92 E0
G1 F59 E0
G1  F5000 X34.15 Y77.95 Z6
G92 E0
G92 E0
G1  F5000 X62.61 Y91.37 Z6
G1  F5000 X61.72 Y90.92 Z6
G1 F59 E0.344724
G92 E0
G92 E0
G1 F59 E0
G1  F5000 X62.61 Y91.37 Z6
G92 E0
G92 E0
G1  F5000 X88.61 Y73.33 Z6.5
G1  F5000 X87.78 Y73.88 Z6.5
G1 F59 E0.344724
G92 E0
G92 E0
G1 F59 E0
G1  F5000 X88.61 Y73.33 Z6.5
G92 E0
G92 E0
G1  F5000 X85.85 Y41.88 Z6.5
G1  F5000 X85.91 Y42.88 Z6.5
G1 F59 E0.344724
G92 E0
G92 E0
G1 F59 E0
G1  F5000 X85.85 Y41.88 Z6.5
G92 E0
G92 E0
G1  F5000 X57.23 Y28.55 Z6.5
G1  F5000 X58.12 Y29 Z6.5
G1 F59 E0.344724
G92 E0
G92 E0
G1 F59 E0
G1  F5000 X57.23 Y28.55 Z6.5
G92 E0
G92 E0
G1  F5000 X31.39 Y46.67 Z6.5
G1  F5000 X32.22 Y46.12 Z6.5
G1 F59 E0.344724
G92 E0
G92 E0
G1 F59 E0
G1  F5000 X31.39 Y46.67 Z6.5
G92 E0
G92 E0
G1  F5000 X34.15 Y78.12 Z6.5
G1  F5000 X34.09 Y77.12 Z6.5
G1 F59 E0.344724
G92 E0
G92 E0
G1 F59 E0
G1  F5000 X34.15 Y78.12 Z6.5
G92 E0
G92 E0
G1  F5000 X62.77 Y91.45 Z6.5
G1  F5000 X61.88 Y91 Z6.5
G1 F59 E0.344724
G92 E0
G92 E0
G1 F59 E0
G1  F5000 X62.77 Y91.45 Z6.5
G92 E0
G92 E0
G1  F5000 X88.76 Y73.22 Z7
G1  F5000 X87.93 Y73.78 Z7
G1 F59 E0.344724
G92 E0
G92 E0
G1 F59 E0
G1  F5000 X88.76 Y73.22 Z7
G92 E0
G92 E0
G1  F5000 X85.83 Y41.7 Z7
G1  F5000 X85.9 Y42.7 Z7
G1 F59 E0.344724
G92 E0
G92 E0
G1 F59 E0
G1  F5000 X85.83 Y41.7 Z7
G92 E0
G92 E0
G1  F5000 X57.07 Y28.48 Z7
G1  F5000 X57.97 Y28.92 Z7
G1 F59 E0.344724
G92 E0
G92 E0
G1 F59 E0
G1  F5000 X57.07 Y28.48 Z7
G92 E0
G92 E0
G1  F5000 X31.24 Y46.78 Z7
G1  F5000 X32.07 Y46.22 Z7
G1 F59 E0.344724
G92 E0
G92 E0
G1 F59 E0
G1  F5000 X31.24 Y46.78 Z7
G92 E0
G92 E0
G1  F5000 X34.17 Y78.3 Z7
G1  F5000 X34.1 Y77.3 Z7
G1 F59 E0.344724
G92 E0
G92 E0
G1 F59 E0
G1  F5000 X34.17 Y78.3 Z7
G92 E0
G92 E0
G1  F5000 X62.93 Y91.52 Z7
G1  F5000 X62.03 Y91.08 Z7
G1 F59 E0.344724
G92 E0
G92 E0
G1 F59 E0
G1  F5000 X62.93 Y91.52 Z7
G92 E0
G92 E0
G1  F5000 X88.92 Y73.13 Z7.5
G1  F5000 X88.09 Y73.69 Z7.5
G1 F59 E0.344724
G92 E0
G92 E0
G1 F59 E0
G1  F5000 X88.92 Y73.13 Z7.5
G92 E0
G92 E0
G1  F5000 X85.83 Y41.52 Z7.5
G1  F5000 X85.9 Y42.52 Z7.5
G1 F59 E0.344724
G92 E0
G92 E0
G1 F59 E0
G1  F5000 X85.83 Y41.52 Z7.5
G92 E0
G92 E0
G1  F5000 X56.91 Y28.39 Z7.5
G1  F5000 X57.81 Y28.83 Z7.5
G1 F59 E0.344724
G92 E0
G92 E0
G1 F59 E0
G1  F5000 X56.91 Y28.39 Z7.5
G92 E0
G92 E0
G1  F5000 X31.08 Y46.87 Z7.5
G1  F5000 X31.91 Y46.31 Z7.5
G1 F59 E0.344724
G92 E0
G92 E0
G1 F59 E0
G1  F5000 X31.08 Y46.87 Z7.5
G92 E0
G92 E0
G1  F5000 X34.17 Y78.48 Z7.5
G1  F5000 X34.1 Y77.48 Z7.5
G1 F59 E0.344724
G92 E0
G92 E0
G1 F59 E0
G1  F5000 X34.17 Y78.48 Z7.5
G92 E0
G92 E0
G1  F5000 X63.09 Y91.61 Z7.5
G1  F5000 X62.19 Y91.17 Z7.5
G1 F59 E0.344724
G92 E0
G92 E0
G1 F59 E0
G1  F5000 X63.09 Y91.61 Z7.5
G92 E0
G92 E0
G1  F5000 X89.07 Y73.03 Z8
G1  F5000 X88.24 Y73.59 Z8
G1 F59 E0.344724
G92 E0
G92 E0
G1 F59 E0
G1  F5000 X89.07 Y73.03 Z8
G92 E0
G92 E0
G1  F5000 X85.82 Y41.34 Z8
G1  F5000 X85.89 Y42.34 Z8
G1 F59 E0.344724
G92 E0
G92 E0
G1 F59 E0
G1  F5000 X85.82 Y41.34 Z8
G92 E0
G92 E0
G1  F5000 X56.76 Y28.32 Z8
G1  F5000 X57.66 Y28.75 Z8
G1 F59 E0.344724
G92 E0
G92 E0
G1 F59 E0
G1  F5000 X56.76 Y28.32 Z8
G92 E0
G92 E0
G1  F5000 X30.93 Y46.97 Z8
G1  F5000 X31.76 Y46.41 Z8
G1 F59 E0.344724
G92 E0
G92 E0
G1 F59 E0
G1  F5000 X30.93 Y46.97 Z8
G92 E0
G92 E0
G1  F5000 X34.18 Y78.66 Z8
G1  F5000 X34.11 Y77.66 Z8
G1 F59 E0.344724
G92 E0
G92 E0
G1 F59 E0
G1  F5000 X34.18 Y78.66 Z8
G92 E0
G92 E0
G1  F5000 X63.24 Y91.68 Z8
G1  F5000 X62.34 Y91.25 Z8
G1 F59 E0.344724
G92 E0
G92 E0
G1 F59 E0
G1  F5000 X63.24 Y91.68 Z8
G92 E0
G92 E0
G1  F5000 X89.21 Y72.93 Z8.5
G1  F5000 X88.39 Y73.5 Z8.5
G1 F59 E0.344724
G92 E0
G92 E0
G1 F59 E0
G1  F5000 X89.21 Y72.93 Z8.5
G92 E0
G92 E0
G1  F5000 X85.81 Y41.17 Z8.5
G1  F5000 X85.89 Y42.17 Z8.5
G1 F59 E0.344724
G92 E0
G92 E0
G1 F59 E0
G1  F5000 X85.81 Y41.17 Z8.5
G92 E0
G92 E0
G1  F5000 X56.6 Y28.24 Z8.5
G1  F5000 X57.5 Y28.67 Z8.5
G1 F59 E0.344724
G92 E0
G92 E0
G1 F59 E0
G1  F5000 X56.6 Y28.24 Z8.5
G92 E0
G92 E0
G1  F5000 X30.79 Y47.07 Z8.5
G1  F5000 X31.61 Y46.5 Z8.5
G1 F59 E0.344724
G92 E0
G92 E0
G1 F59 E0
G1  F5000 X30.79 Y47.07 Z8.5
G92 E0
G92 E0
G1  F5000 X34.19 Y78.83 Z8.5
G1  F5000 X34.11 Y77.83 Z8.5
G1 F59 E0.344724
G92 E0
G92 E0
G1 F59 E0
G1  F5000 X34.19 Y78.83 Z8.5
G92 E0
G92 E0
G1  F5000 X63.4 Y91.76 Z8.5
G1  F5000 X62.5 Y91.33 Z8.5
G1 F59 E0.344724
G92 E0
G92 E0
G1 F59 E0
G1  F5000 X63.4 Y91.76 Z8.5
G92 E0
G92 E0
G1  F5000 X89.36 Y72.84 Z9
G1  F5000 X88.54 Y73.41 Z9
G1 F59 E0.344724
G92 E0
G92 E0
G1 F59 E0
G1  F5000 X89.36 Y72.84 Z9
G92 E0
G92 E0
G1  F5000 X85.8 Y40.99 Z9
G1  F5000 X85.88 Y41.99 Z9
G1 F59 E0.344724
G92 E0
G92 E0
G1 F59 E0
G1  F5000 X85.8 Y40.99 Z9
G92 E0
G92 E0
G1  F5000 X56.43 Y28.15 Z9
G1  F5000 X57.34 Y28.58 Z9
G1 F59 E0.344724
G92 E0
G92 E0
G1 F59 E0
G1  F5000 X56.43 Y28.15 Z9
G92 E0
G92 E0
G1  F5000 X30.64 Y47.16 Z9
G1  F5000 X31.46 Y46.59 Z9
G1 F59 E0.344724
G92 E0
G92 E0
G1 F59 E0
G1  F5000 X30.64 Y47.16 Z9
G92 E0
G92 E0
G1  F5000 X34.2 Y79.01 Z9
G1  F5000 X34.12 Y78.01 Z9
G1 F59 E0.344724
G92 E0
G92 E0
G1 F59 E0
G1  F5000 X34.2 Y79.01 Z9
G92 E0
G92 E0
G1  F5000 X63.57 Y91.85 Z9
G1  F5000 X62.66 Y91.42 Z9
G1 F59 E0.344724
G92 E0
G92 E0
G1 F59 E0
G1  F5000 X63.57 Y91.85 Z9
G92 E0
G92 E0
G1  F5000 X89.51 Y72.73 Z9.5
G1  F5000 X88.69 Y73.31 Z9.5
G1 F59 E0.344724
G92 E0
G92 E0
G1 F59 E0
G1  F5000 X89.51 Y72.73 Z9.5
G92 E0
G92 E0
G1  F5000 X85.78 Y40.81 Z9.5
G1  F5000 X85.87 Y41.81 Z9.5
G1 F59 E0.344724
G92 E0
G92 E0
G1 F59 E0
G1  F5000 X85.78 Y40.81 Z9.5
G92 E0
G92 E0
