;START_OF_HEADER
;HEADER_VERSION:0.1
;FLAVOR:Griffin
;GENERATOR.NAME:Cura_SteamEngine
;GENERATOR.VERSION:4.7.1
;GENERATOR.BUILD_DATE:2020-09-02
;TARGET_MACHINE.NAME:Ultimaker 3
;EXTRUDER_TRAIN.0.INITIAL_TEMPERATURE:205
;EXTRUDER_TRAIN.0.MATERIAL.VOLUME_USED:81
;EXTRUDER_TRAIN.0.MATERIAL.GUID:506c9f0d-e3aa-4bd4-b2d2-23e2425b1aa9
;EXTRUDER_TRAIN.0.NOZZLE.DIAMETER:0.4
;EXTRUDER_TRAIN.0.NOZZLE.NAME:AA 0.4
;BUILD_PLATE.TYPE:glass
;BUILD_PLATE.INITIAL_TEMPERATURE:60
;PRINT.TIME:95
;PRINT.GROUPS:1
;PRINT.SIZE.MIN.X:9
;PRINT.SIZE.MIN.Y:6
;PRINT.SIZE.MIN.Z:0.27
;PRINT.SIZE.MAX.X:125.628
;PRINT.SIZE.MAX.Y:116.295
;PRINT.SIZE.MAX.Z:3.87
;END_OF_HEADER
;Generated with Cura_SteamEngine 4.7.1
T0
M82 ;absolute extrusion mode

G92 E0
M109 S200
G0 F15000 X9 Y6 Z2
G280
G1 F1500 E-6.5
;LAYER_COUNT:39
;LAYER:0
M107
M204 S625
M205 X6 Y6
G1 F600 Z2.27
G0 F4285.7 X109.682 Y101.958 Z2.27
M204 S500
M205 X5 Y5
;- END OF START GCODE - 
 G28 ; home all axes
M82 ; use absolute distances for extrusion
G90 ; use absolute coordinates
G21 ; set units to millimeters
G92 E0 ; reset extrusion distance
M104 S185 ; set temperature
M109 S185 ; wait for temperature to be reached
G1 Z0.0 F360 E1
G92 E0
G1  F6000 X40.76 Y0 Z0
G1 F1200 X20.38 Y35.3 Z0 E3.33
G1 F1200 X-20.38 Y35.3 Z0 E6.66
G1 F1200 X-40.76 Y0 Z0 E9.98
G1 F1200 X-20.38 Y-35.3 Z0 E13.31
G1 F1200 X20.38 Y-35.3 Z0 E16.64
G1 F1200 X40.76 Y0 Z0 E19.97
G92 E0
G1  F6000 X40 Y0 Z0
G1 F1200 X20 Y34.64 Z0 E3.27
G1 F1200 X-20 Y34.64 Z0 E6.53
G1 F1200 X-40 Y0 Z0 E9.8
G1 F1200 X-20 Y-34.64 Z0 E13.06
G1 F1200 X20 Y-34.64 Z0 E16.33
G1 F1200 X40 Y0 Z0 E19.59
G92 E0
G1  F6000 X39.24 Y0 Z0
G1 F1200 X19.62 Y33.98 Z0 E3.2
G1 F1200 X-19.62 Y33.98 Z0 E6.41
G1 F1200 X-39.24 Y0 Z0 E9.61
G1 F1200 X-19.62 Y-33.98 Z0 E12.81
G1 F1200 X19.62 Y-33.98 Z0 E16.02
G1 F1200 X39.24 Y0 Z0 E19.22
G92 E0
G1  F6000 X40.87 Y-0.16 Z0.5
G1 F1200 X20.58 Y35.31 Z0.5 E3.34
G1 F1200 X-20.29 Y35.47 Z0.5 E6.67
G1 F1200 X-40.87 Y0.16 Z0.5 E10.01
G1 F1200 X-20.58 Y-35.31 Z0.5 E13.34
G1 F1200 X20.29 Y-35.47 Z0.5 E16.68
G1 F1200 X40.87 Y-0.16 Z0.5 E20.02
G92 E0
G1  F6000 X40.1 Y-0.16 Z0.5
G1 F1200 X20.19 Y34.65 Z0.5 E3.27
G1 F1200 X-19.91 Y34.81 Z0.5 E6.55
G1 F1200 X-40.1 Y0.16 Z0.5 E9.82
G1 F1200 X-20.19 Y-34.65 Z0.5 E13.1
G1 F1200 X19.91 Y-34.81 Z0.5 E16.37
G1 F1200 X40.1 Y-0.16 Z0.5 E19.64
G92 E0
G1  F6000 X39.34 Y-0.16 Z0.5
G1 F1200 X19.81 Y33.99 Z0.5 E3.21
G1 F1200 X-19.53 Y34.15 Z0.5 E6.42
G1 F1200 X-39.34 Y0.16 Z0.5 E9.63
G1 F1200 X-19.81 Y-33.99 Z0.5 E12.85
G1 F1200 X19.53 Y-34.15 Z0.5 E16.06
G1 F1200 X39.34 Y-0.16 Z0.5 E19.27
G92 E0
G1  F6000 X40.97 Y-0.33 Z1
G1 F1200 X20.77 Y35.32 Z1 E3.34
G1 F1200 X-20.2 Y35.65 Z1 E6.69
G1 F1200 X-40.97 Y0.33 Z1 E10.03
G1 F1200 X-20.77 Y-35.32 Z1 E13.38
G1 F1200 X20.2 Y-35.65 Z1 E16.72
G1 F1200 X40.97 Y-0.33 Z1 E20.07
G92 E0
G1  F6000 X40.21 Y-0.32 Z1
G1 F1200 X20.38 Y34.66 Z1 E3.28
G1 F1200 X-19.82 Y34.98 Z1 E6.56
G1 F1200 X-40.21 Y0.32 Z1 E9.85
G1 F1200 X-20.38 Y-34.66 Z1 E13.13
G1 F1200 X19.82 Y-34.98 Z1 E16.41
G1 F1200 X40.21 Y-0.32 Z1 E19.69
G92 E0
G1  F6000 X39.45 Y-0.32 Z1
G1 F1200 X20 Y34 Z1 E3.22
G1 F1200 X-19.45 Y34.32 Z1 E6.44
G1 F1200 X-39.45 Y0.32 Z1 E9.66
G1 F1200 X-20 Y-34 Z1 E12.88
G1 F1200 X19.45 Y-34.32 Z1 E16.1
G1 F1200 X39.45 Y-0.32 Z1 E19.32
G92 E0
G1  F6000 X41.07 Y-0.49 Z1.5
G1 F1200 X20.96 Y35.32 Z1.5 E3.35
G1 F1200 X-20.11 Y35.82 Z1.5 E6.71
G1 F1200 X-41.07 Y0.49 Z1.5 E10.06
G1 F1200 X-20.96 Y-35.32 Z1.5 E13.41
G1 F1200 X20.11 Y-35.82 Z1.5 E16.77
G1 F1200 X41.07 Y-0.49 Z1.5 E20.12
G92 E0
G1  F6000 X40.31 Y-0.49 Z1.5
G1 F1200 X20.58 Y34.67 Z1.5 E3.29
G1 F1200 X-19.74 Y35.15 Z1.5 E6.58
G1 F1200 X-40.31 Y0.49 Z1.5 E9.87
G1 F1200 X-20.58 Y-34.67 Z1.5 E13.16
G1 F1200 X19.74 Y-35.15 Z1.5 E16.45
G1 F1200 X40.31 Y-0.49 Z1.5 E19.75
G92 E0
G1  F6000 X39.55 Y-0.48 Z1.5
G1 F1200 X20.19 Y34.01 Z1.5 E3.23
G1 F1200 X-19.36 Y34.49 Z1.5 E6.46
G1 F1200 X-39.55 Y0.48 Z1.5 E9.69
G1 F1200 X-20.19 Y-34.01 Z1.5 E12.91
G1 F1200 X19.36 Y-34.49 Z1.5 E16.14
G1 F1200 X39.55 Y-0.48 Z1.5 E19.37
G92 E0
G1  F5600 X20.28 Y35.55 Z2
G1  F5600 X20.77 Y34.68 Z2
G1 F59 E0.255496196969697
G92 E0
G92 E0
G1 F59 E0
G1  F5600 X20.28 Y35.55 Z2
G92 E0
G92 E0
G1  F5600 X-20.65 Y35.34 Z2
G1  F5600 X-19.65 Y35.32 Z2
G1 F59 E0.255496196969697
G92 E0
G92 E0
G1 F59 E0
G1  F5600 X-20.65 Y35.34 Z2
G92 E0
G92 E0
G1  F5600 X-40.92 Y-0.21 Z2
G1  F5600 X-40.41 Y0.65 Z2
G1 F59 E0.255496196969697
G92 E0
G92 E0
G1 F59 E0
G1  F5600 X-40.92 Y-0.21 Z2
G92 E0
G92 E0
G1  F5600 X-20.28 Y-35.55 Z2
G1  F5600 X-20.77 Y-34.68 Z2
G1 F59 E0.255496196969697
G92 E0
G92 E0
G1 F59 E0
G1  F5600 X-20.28 Y-35.55 Z2
G92 E0
G92 E0
G1  F5600 X20.65 Y-35.34 Z2
G1  F5600 X19.65 Y-35.32 Z2
G1 F59 E0.255496196969697
G92 E0
G92 E0
G1 F59 E0
G1  F5600 X20.65 Y-35.34 Z2
G92 E0
G92 E0
G1  F5600 X40.92 Y0.21 Z2
G1  F5600 X40.41 Y-0.65 Z2
G1 F59 E0.255496196969697
G92 E0
G92 E0
G1 F59 E0
G1  F5600 X40.92 Y0.21 Z2
G92 E0
G92 E0
G1  F5600 X20.48 Y35.57 Z2.5
G1  F5600 X20.96 Y34.69 Z2.5
G1 F59 E0.255496196969697
G92 E0
G92 E0
G1 F59 E0
G1  F5600 X20.48 Y35.57 Z2.5
G92 E0
G92 E0
G1  F5600 X-20.56 Y35.51 Z2.5
G1  F5600 X-19.56 Y35.49 Z2.5
G1 F59 E0.255496196969697
G92 E0
G92 E0
G1 F59 E0
G1  F5600 X-20.56 Y35.51 Z2.5
G92 E0
G92 E0
G1  F5600 X-41.04 Y-0.0499999999999999 Z2.5
G1  F5600 X-40.52 Y0.81 Z2.5
G1 F59 E0.255496196969697
G92 E0
G92 E0
G1 F59 E0
G1  F5600 X-41.04 Y-0.0499999999999999 Z2.5
G92 E0
G92 E0
G1  F5600 X-20.48 Y-35.57 Z2.5
G1  F5600 X-20.96 Y-34.69 Z2.5
G1 F59 E0.255496196969697
G92 E0
G92 E0
G1 F59 E0
G1  F5600 X-20.48 Y-35.57 Z2.5
G92 E0
G92 E0
G1  F5600 X20.56 Y-35.51 Z2.5
G1  F5600 X19.56 Y-35.49 Z2.5
G1 F59 E0.255496196969697
G92 E0
G92 E0
G1 F59 E0
G1  F5600 X20.56 Y-35.51 Z2.5
G92 E0
G92 E0
G1  F5600 X41.04 Y0.0499999999999999 Z2.5
G1  F5600 X40.52 Y-0.81 Z2.5
G1 F59 E0.255496196969697
G92 E0
G92 E0
G1 F59 E0
G1  F5600 X41.04 Y0.0499999999999999 Z2.5
G92 E0
G92 E0
G1  F5600 X20.67 Y35.57 Z3
G1  F5600 X21.15 Y34.69 Z3
G1 F59 E0.255496196969697
G92 E0
G92 E0
G1 F59 E0
G1  F5600 X20.67 Y35.57 Z3
G92 E0
G92 E0
G1  F5600 X-20.47 Y35.69 Z3
G1  F5600 X-19.47 Y35.67 Z3
G1 F59 E0.255496196969697
G92 E0
G92 E0
G1 F59 E0
G1  F5600 X-20.47 Y35.69 Z3
G92 E0
G92 E0
G1  F5600 X-41.14 Y0.12 Z3
G1  F5600 X-40.62 Y0.97 Z3
G1 F59 E0.255496196969697
G92 E0
G92 E0
G1 F59 E0
G1  F5600 X-41.14 Y0.12 Z3
G92 E0
G92 E0
G1  F5600 X-20.67 Y-35.57 Z3
G1  F5600 X-21.15 Y-34.69 Z3
G1 F59 E0.255496196969697
G92 E0
G92 E0
G1 F59 E0
G1  F5600 X-20.67 Y-35.57 Z3
G92 E0
G92 E0
G1  F5600 X20.47 Y-35.69 Z3
G1  F5600 X19.47 Y-35.67 Z3
G1 F59 E0.255496196969697
G92 E0
G92 E0
G1 F59 E0
G1  F5600 X20.47 Y-35.69 Z3
G92 E0
G92 E0
G1  F5600 X41.14 Y-0.12 Z3
G1  F5600 X40.62 Y-0.97 Z3
G1 F59 E0.255496196969697
G92 E0
G92 E0
G1 F59 E0
G1  F5600 X41.14 Y-0.12 Z3
G92 E0
G92 E0
G1  F5600 X20.86 Y35.58 Z3.5
G1  F5600 X21.34 Y34.7 Z3.5
G1 F59 E0.255496196969697
G92 E0
G92 E0
G1 F59 E0
G1  F5600 X20.86 Y35.58 Z3.5
G92 E0
G92 E0
G1  F5600 X-20.38 Y35.87 Z3.5
G1  F5600 X-19.38 Y35.84 Z3.5
G1 F59 E0.255496196969697
G92 E0
G92 E0
G1 F59 E0
G1  F5600 X-20.38 Y35.87 Z3.5
G92 E0
G92 E0
G1  F5600 X-41.25 Y0.28 Z3.5
G1  F5600 X-40.73 Y1.13 Z3.5
G1 F59 E0.255496196969697
G92 E0
G92 E0
G1 F59 E0
G1  F5600 X-41.25 Y0.28 Z3.5
G92 E0
G92 E0
G1  F5600 X-20.86 Y-35.58 Z3.5
G1  F5600 X-21.34 Y-34.7 Z3.5
G1 F59 E0.255496196969697
G92 E0
G92 E0
G1 F59 E0
G1  F5600 X-20.86 Y-35.58 Z3.5
G92 E0
G92 E0
G1  F5600 X20.38 Y-35.87 Z3.5
G1  F5600 X19.38 Y-35.84 Z3.5
G1 F59 E0.255496196969697
G92 E0
G92 E0
G1 F59 E0
G1  F5600 X20.38 Y-35.87 Z3.5
G92 E0
G92 E0
G1  F5600 X41.25 Y-0.28 Z3.5
G1  F5600 X40.73 Y-1.13 Z3.5
G1 F59 E0.255496196969697
G92 E0
G92 E0
G1 F59 E0
G1  F5600 X41.25 Y-0.28 Z3.5
G92 E0
G92 E0
G1  F5600 X21.07 Y35.59 Z4
G1  F5600 X21.54 Y34.71 Z4
G1 F59 E0.255496196969697
G92 E0
G92 E0
G1 F59 E0
G1  F5600 X21.07 Y35.59 Z4
G92 E0
G92 E0
G1  F5600 X-20.29 Y36.04 Z4
G1  F5600 X-19.29 Y36.01 Z4
G1 F59 E0.255496196969697
G92 E0
G92 E0
G1 F59 E0
G1  F5600 X-20.29 Y36.04 Z4
G92 E0
G92 E0
G1  F5600 X-41.36 Y0.44 Z4
G1  F5600 X-40.83 Y1.29 Z4
G1 F59 E0.255496196969697
G92 E0
G92 E0
G1 F59 E0
G1  F5600 X-41.36 Y0.44 Z4
G92 E0
G92 E0
G1  F5600 X-21.07 Y-35.59 Z4
G1  F5600 X-21.54 Y-34.71 Z4
G1 F59 E0.255496196969697
G92 E0
G92 E0
G1 F59 E0
G1  F5600 X-21.07 Y-35.59 Z4
G92 E0
G92 E0
G1  F5600 X20.29 Y-36.04 Z4
G1  F5600 X19.29 Y-36.01 Z4
G1 F59 E0.255496196969697
G92 E0
G92 E0
G1 F59 E0
G1  F5600 X20.29 Y-36.04 Z4
G92 E0
G92 E0
G1  F5600 X41.36 Y-0.44 Z4
G1  F5600 X40.83 Y-1.29 Z4
G1 F59 E0.255496196969697
G92 E0
G92 E0
G1 F59 E0
G1  F5600 X41.36 Y-0.44 Z4
G92 E0
G92 E0
G1  F5600 X21.26 Y35.6 Z4.5
G1  F5600 X21.73 Y34.72 Z4.5
G1 F59 E0.255496196969697
G92 E0
G92 E0
G1 F59 E0
G1  F5600 X21.26 Y35.6 Z4.5
G92 E0
G92 E0
G1  F5600 X-20.21 Y36.22 Z4.5
G1  F5600 X-19.21 Y36.18 Z4.5
G1 F59 E0.255496196969697
G92 E0
G92 E0
G1 F59 E0
G1  F5600 X-20.21 Y36.22 Z4.5
G92 E0
G92 E0
G1  F5600 X-41.46 Y0.61 Z4.5
G1  F5600 X-40.93 Y1.46 Z4.5
G1 F59 E0.255496196969697
G92 E0
G92 E0
G1 F59 E0
G1  F5600 X-41.46 Y0.61 Z4.5
G92 E0
G92 E0
G1  F5600 X-21.26 Y-35.6 Z4.5
G1  F5600 X-21.73 Y-34.72 Z4.5
G1 F59 E0.255496196969697
G92 E0
G92 E0
G1 F59 E0
G1  F5600 X-21.26 Y-35.6 Z4.5
G92 E0
G92 E0
G1  F5600 X20.21 Y-36.22 Z4.5
G1  F5600 X19.21 Y-36.18 Z4.5
G1 F59 E0.255496196969697
G92 E0
G92 E0
G1 F59 E0
G1  F5600 X20.21 Y-36.22 Z4.5
G92 E0
G92 E0
G1  F5600 X41.46 Y-0.61 Z4.5
G1  F5600 X40.93 Y-1.46 Z4.5
G1 F59 E0.255496196969697
G92 E0
G92 E0
G1 F59 E0
G1  F5600 X41.46 Y-0.61 Z4.5
G92 E0
G92 E0
G1  F5600 X21.45 Y35.62 Z5
G1  F5600 X21.92 Y34.73 Z5
G1 F59 E0.255496196969697
G92 E0
G92 E0
G1 F59 E0
G1  F5600 X21.45 Y35.62 Z5
G92 E0
G92 E0
G1  F5600 X-20.12 Y36.39 Z5
G1  F5600 X-19.12 Y36.35 Z5
G1 F59 E0.255496196969697
G92 E0
G92 E0
G1 F59 E0
G1  F5600 X-20.12 Y36.39 Z5
G92 E0
G92 E0
G1  F5600 X-41.57 Y0.77 Z5
G1  F5600 X-41.04 Y1.62 Z5
G1 F59 E0.255496196969697
G92 E0
G92 E0
G1 F59 E0
G1  F5600 X-41.57 Y0.77 Z5
G92 E0
G92 E0
G1  F5600 X-21.45 Y-35.62 Z5
G1  F5600 X-21.92 Y-34.73 Z5
G1 F59 E0.255496196969697
G92 E0
G92 E0
G1 F59 E0
G1  F5600 X-21.45 Y-35.62 Z5
G92 E0
G92 E0
G1  F5600 X20.12 Y-36.39 Z5
G1  F5600 X19.12 Y-36.35 Z5
G1 F59 E0.255496196969697
G92 E0
G92 E0
G1 F59 E0
G1  F5600 X20.12 Y-36.39 Z5
G92 E0
G92 E0
G1  F5600 X41.57 Y-0.77 Z5
G1  F5600 X41.04 Y-1.62 Z5
G1 F59 E0.255496196969697
G92 E0
G92 E0
G1 F59 E0
G1  F5600 X41.57 Y-0.77 Z5
G92 E0
G92 E0
G1  F5600 X21.65 Y35.63 Z5.5
G1  F5600 X22.11 Y34.74 Z5.5
G1 F59 E0.255496196969697
G92 E0
G92 E0
G1 F59 E0
G1  F5600 X21.65 Y35.63 Z5.5
G92 E0
G92 E0
G1  F5600 X-20.03 Y36.56 Z5.5
G1  F5600 X-19.03 Y36.52 Z5.5
G1 F59 E0.255496196969697
G92 E0
G92 E0
G1 F59 E0
G1  F5600 X-20.03 Y36.56 Z5.5
G92 E0
G92 E0
G1  F5600 X-41.68 Y0.94 Z5.5
G1  F5600 X-41.14 Y1.78 Z5.5
G1 F59 E0.255496196969697
G92 E0
G92 E0
G1 F59 E0
G1  F5600 X-41.68 Y0.94 Z5.5
G92 E0
G92 E0
G1  F5600 X-21.65 Y-35.63 Z5.5
G1  F5600 X-22.11 Y-34.74 Z5.5
G1 F59 E0.255496196969697
G92 E0
G92 E0
G1 F59 E0
G1  F5600 X-21.65 Y-35.63 Z5.5
G92 E0
G92 E0
G1  F5600 X20.03 Y-36.56 Z5.5
G1  F5600 X19.03 Y-36.52 Z5.5
G1 F59 E0.255496196969697
G92 E0
G92 E0
G1 F59 E0
G1  F5600 X20.03 Y-36.56 Z5.5
G92 E0
G92 E0
G1  F5600 X41.68 Y-0.94 Z5.5
G1  F5600 X41.14 Y-1.78 Z5.5
G1 F59 E0.255496196969697
G92 E0
G92 E0
G1 F59 E0
G1  F5600 X41.68 Y-0.94 Z5.5
G92 E0
G92 E0
G1  F5600 X21.84 Y35.64 Z6
G1  F5600 X22.3 Y34.75 Z6
G1 F59 E0.255496196969697
G92 E0
G92 E0
G1 F59 E0
G1  F5600 X21.84 Y35.64 Z6
G92 E0
G92 E0
G1  F5600 X-19.94 Y36.74 Z6
G1  F5600 X-18.94 Y36.69 Z6
G1 F59 E0.255496196969697
G92 E0
G92 E0
G1 F59 E0
G1  F5600 X-19.94 Y36.74 Z6
G92 E0
G92 E0
G1  F5600 X-41.78 Y1.1 Z6
G1  F5600 X-41.24 Y1.94 Z6
G1 F59 E0.255496196969697
G92 E0
G92 E0
G1 F59 E0
G1  F5600 X-41.78 Y1.1 Z6
G92 E0
G92 E0
G1  F5600 X-21.84 Y-35.64 Z6
G1  F5600 X-22.3 Y-34.75 Z6
G1 F59 E0.255496196969697
G92 E0
G92 E0
G1 F59 E0
G1  F5600 X-21.84 Y-35.64 Z6
G92 E0
G92 E0
G1  F5600 X19.94 Y-36.74 Z6
G1  F5600 X18.94 Y-36.69 Z6
G1 F59 E0.255496196969697
G92 E0
G92 E0
G1 F59 E0
G1  F5600 X19.94 Y-36.74 Z6
G92 E0
G92 E0
G1  F5600 X41.78 Y-1.1 Z6
G1  F5600 X41.24 Y-1.94 Z6
G1 F59 E0.255496196969697
G92 E0
G92 E0
G1 F59 E0
G1  F5600 X41.78 Y-1.1 Z6
G92 E0
G92 E0
G1  F5600 X22.04 Y35.65 Z6.5
G1  F5600 X22.5 Y34.76 Z6.5
G1 F59 E0.255496196969697
G92 E0
G92 E0
G1 F59 E0
G1  F5600 X22.04 Y35.65 Z6.5
G92 E0
G92 E0
G1  F5600 X-19.85 Y36.91 Z6.5
G1  F5600 X-18.85 Y36.86 Z6.5
G1 F59 E0.255496196969697
G92 E0
G92 E0
G1 F59 E0
G1  F5600 X-19.85 Y36.91 Z6.5
G92 E0
G92 E0
G1  F5600 X-41.89 Y1.26 Z6.5
G1  F5600 X-41.35 Y2.1 Z6.5
G1 F59 E0.255496196969697
G92 E0
G92 E0
G1 F59 E0
G1  F5600 X-41.89 Y1.26 Z6.5
G92 E0
G92 E0
G1  F5600 X-22.04 Y-35.65 Z6.5
G1  F5600 X-22.5 Y-34.76 Z6.5
G1 F59 E0.255496196969697
G92 E0
G92 E0
G1 F59 E0
G1  F5600 X-22.04 Y-35.65 Z6.5
G92 E0
G92 E0
G1  F5600 X19.85 Y-36.91 Z6.5
G1  F5600 X18.85 Y-36.86 Z6.5
G1 F59 E0.255496196969697
G92 E0
G92 E0
G1 F59 E0
G1  F5600 X19.85 Y-36.91 Z6.5
G92 E0
G92 E0
G1  F5600 X41.89 Y-1.26 Z6.5
G1  F5600 X41.35 Y-2.1 Z6.5
G1 F59 E0.255496196969697
G92 E0
G92 E0
G1 F59 E0
G1  F5600 X41.89 Y-1.26 Z6.5
G92 E0
G92 E0
G1  F5600 X22.24 Y35.66 Z7
G1  F5600 X22.69 Y34.77 Z7
G1 F59 E0.255496196969697
G92 E0
G92 E0
G1 F59 E0
G1  F5600 X22.24 Y35.66 Z7
G92 E0
G92 E0
G1  F5600 X-19.76 Y37.08 Z7
G1  F5600 X-18.76 Y37.03 Z7
G1 F59 E0.255496196969697
G92 E0
G92 E0
G1 F59 E0
G1  F5600 X-19.76 Y37.08 Z7
G92 E0
G92 E0
G1  F5600 X-42 Y1.42 Z7
G1  F5600 X-41.45 Y2.26 Z7
G1 F59 E0.255496196969697
G92 E0
G92 E0
G1 F59 E0
G1  F5600 X-42 Y1.42 Z7
G92 E0
G92 E0
G1  F5600 X-22.24 Y-35.66 Z7
G1  F5600 X-22.69 Y-34.77 Z7
G1 F59 E0.255496196969697
G92 E0
G92 E0
G1 F59 E0
G1  F5600 X-22.24 Y-35.66 Z7
G92 E0
G92 E0
G1  F5600 X19.76 Y-37.08 Z7
G1  F5600 X18.76 Y-37.03 Z7
G1 F59 E0.255496196969697
G92 E0
G92 E0
G1 F59 E0
G1  F5600 X19.76 Y-37.08 Z7
G92 E0
G92 E0
G1  F5600 X42 Y-1.42 Z7
G1  F5600 X41.45 Y-2.26 Z7
G1 F59 E0.255496196969697
G92 E0
G92 E0
G1 F59 E0
G1  F5600 X42 Y-1.42 Z7
G92 E0
G92 E0
G1  F5600 X22.43 Y35.66 Z7.5
G1  F5600 X22.88 Y34.77 Z7.5
G1 F59 E0.255496196969697
G92 E0
G92 E0
G1 F59 E0
G1  F5600 X22.43 Y35.66 Z7.5
G92 E0
G92 E0
G1  F5600 X-19.68 Y37.26 Z7.5
G1  F5600 X-18.68 Y37.2 Z7.5
G1 F59 E0.255496196969697
G92 E0
G92 E0
G1 F59 E0
G1  F5600 X-19.68 Y37.26 Z7.5
G92 E0
G92 E0
G1  F5600 X-42.11 Y1.59 Z7.5
G1  F5600 X-41.56 Y2.43 Z7.5
G1 F59 E0.255496196969697
G92 E0
G92 E0
G1 F59 E0
G1  F5600 X-42.11 Y1.59 Z7.5
G92 E0
G92 E0
G1  F5600 X-22.43 Y-35.66 Z7.5
G1  F5600 X-22.88 Y-34.77 Z7.5
G1 F59 E0.255496196969697
G92 E0
G92 E0
G1 F59 E0
G1  F5600 X-22.43 Y-35.66 Z7.5
G92 E0
G92 E0
G1  F5600 X19.68 Y-37.26 Z7.5
G1  F5600 X18.68 Y-37.2 Z7.5
G1 F59 E0.255496196969697
G92 E0
G92 E0
G1 F59 E0
G1  F5600 X19.68 Y-37.26 Z7.5
G92 E0
G92 E0
G1  F5600 X42.11 Y-1.59 Z7.5
G1  F5600 X41.56 Y-2.43 Z7.5
G1 F59 E0.255496196969697
G92 E0
G92 E0
G1 F59 E0
G1  F5600 X42.11 Y-1.59 Z7.5
G92 E0
G92 E0
G1  F5600 X22.62 Y35.68 Z8
G1  F5600 X23.07 Y34.78 Z8
G1 F59 E0.255496196969697
G92 E0
G92 E0
G1 F59 E0
G1  F5600 X22.62 Y35.68 Z8
G92 E0
G92 E0
G1  F5600 X-19.59 Y37.43 Z8
G1  F5600 X-18.59 Y37.37 Z8
G1 F59 E0.255496196969697
G92 E0
G92 E0
G1 F59 E0
G1  F5600 X-19.59 Y37.43 Z8
G92 E0
G92 E0
G1  F5600 X-42.21 Y1.76 Z8
G1  F5600 X-41.66 Y2.59 Z8
G1 F59 E0.255496196969697
G92 E0
G92 E0
G1 F59 E0
G1  F5600 X-42.21 Y1.76 Z8
G92 E0
G92 E0
G1  F5600 X-22.62 Y-35.68 Z8
G1  F5600 X-23.07 Y-34.78 Z8
G1 F59 E0.255496196969697
G92 E0
G92 E0
G1 F59 E0
G1  F5600 X-22.62 Y-35.68 Z8
G92 E0
G92 E0
G1  F5600 X19.59 Y-37.43 Z8
G1  F5600 X18.59 Y-37.37 Z8
G1 F59 E0.255496196969697
G92 E0
G92 E0
G1 F59 E0
G1  F5600 X19.59 Y-37.43 Z8
G92 E0
G92 E0
G1  F5600 X42.21 Y-1.76 Z8
G1  F5600 X41.66 Y-2.59 Z8
G1 F59 E0.255496196969697
G92 E0
G92 E0
G1 F59 E0
G1  F5600 X42.21 Y-1.76 Z8
G92 E0
G92 E0
G1  F5600 X22.82 Y35.69 Z8.5
G1  F5600 X23.26 Y34.79 Z8.5
G1 F59 E0.255496196969697
G92 E0
G92 E0
G1 F59 E0
G1  F5600 X22.82 Y35.69 Z8.5
G92 E0
G92 E0
G1  F5600 X-19.5 Y37.61 Z8.5
G1  F5600 X-18.5 Y37.54 Z8.5
G1 F59 E0.255496196969697
G92 E0
G92 E0
G1 F59 E0
G1  F5600 X-19.5 Y37.61 Z8.5
G92 E0
G92 E0
