;START_OF_HEADER
;HEADER_VERSION:0.1
;FLAVOR:Griffin
;GENERATOR.NAME:Cura_SteamEngine
;GENERATOR.VERSION:4.7.1
;GENERATOR.BUILD_DATE:2020-09-02
;TARGET_MACHINE.NAME:Ultimaker 3
;EXTRUDER_TRAIN.0.INITIAL_TEMPERATURE:205
;EXTRUDER_TRAIN.0.MATERIAL.VOLUME_USED:81
;EXTRUDER_TRAIN.0.MATERIAL.GUID:506c9f0d-e3aa-4bd4-b2d2-23e2425b1aa9
;EXTRUDER_TRAIN.0.NOZZLE.DIAMETER:0.4
;EXTRUDER_TRAIN.0.NOZZLE.NAME:AA 0.4
;BUILD_PLATE.TYPE:glass
;BUILD_PLATE.INITIAL_TEMPERATURE:60
;PRINT.TIME:95
;PRINT.GROUPS:1
;PRINT.SIZE.MIN.X:9
;PRINT.SIZE.MIN.Y:6
;PRINT.SIZE.MIN.Z:0.27
;PRINT.SIZE.MAX.X:125.628
;PRINT.SIZE.MAX.Y:116.295
;PRINT.SIZE.MAX.Z:3.87
;END_OF_HEADER
;Generated with Cura_SteamEngine 4.7.1
T0
M82 ;absolute extrusion mode

G92 E0
M109 S200
G0 F15000 X9 Y6 Z2
G280
G1 F1500 E-6.5
;LAYER_COUNT:39
;LAYER:0
M107
M204 S625
M205 X6 Y6
G1 F600 Z2.27
G0 F4285.7 X109.682 Y101.958 Z2.27
M204 S500
M205 X5 Y5
;- END OF START GCODE - 
 G28 ; home all axes
M82 ; use absolute distances for extrusion
G90 ; use absolute coordinates
G21 ; set units to millimeters
G92 E0 ; reset extrusion distance
M104 S185 ; set temperature
M109 S185 ; wait for temperature to be reached
G1 Z0.0 F360 E1
G92 E0
G1  F6000 X139.24 Y100 Z0
G1 F1200 X119.62 Y66.02 Z0 E3.2
G1 F1200 X80.38 Y66.02 Z0 E6.41
G1 F1200 X60.76 Y100 Z0 E9.61
G1 F1200 X80.38 Y133.98 Z0 E12.81
G1 F1200 X119.62 Y133.98 Z0 E16.02
G1 F1200 X139.24 Y100 Z0 E19.22
G92 E0
G1  F6000 X140 Y100 Z0
G1 F1200 X120 Y65.36 Z0 E3.27
G1 F1200 X80 Y65.36 Z0 E6.53
G1 F1200 X60 Y100 Z0 E9.8
G1 F1200 X80 Y134.64 Z0 E13.06
G1 F1200 X120 Y134.64 Z0 E16.33
G1 F1200 X140 Y100 Z0 E19.59
G92 E0
G1  F6000 X140.76 Y100 Z0
G1 F1200 X120.38 Y64.7 Z0 E3.33
G1 F1200 X79.62 Y64.7 Z0 E6.66
G1 F1200 X59.24 Y100 Z0 E9.98
G1 F1200 X79.62 Y135.3 Z0 E13.31
G1 F1200 X120.38 Y135.3 Z0 E16.64
G1 F1200 X140.76 Y100 Z0 E19.97
G92 E0
G1  F6000 X139.34 Y99.84 Z0.5
G1 F1200 X119.53 Y65.85 Z0.5 E3.21
G1 F1200 X80.19 Y66.01 Z0.5 E6.42
G1 F1200 X60.66 Y100.16 Z0.5 E9.63
G1 F1200 X80.47 Y134.15 Z0.5 E12.85
G1 F1200 X119.81 Y133.99 Z0.5 E16.06
G1 F1200 X139.34 Y99.84 Z0.5 E19.27
G92 E0
G1  F6000 X140.1 Y99.84 Z0.5
G1 F1200 X119.91 Y65.19 Z0.5 E3.27
G1 F1200 X79.81 Y65.35 Z0.5 E6.55
G1 F1200 X59.9 Y100.16 Z0.5 E9.82
G1 F1200 X80.09 Y134.81 Z0.5 E13.1
G1 F1200 X120.19 Y134.65 Z0.5 E16.37
G1 F1200 X140.1 Y99.84 Z0.5 E19.64
G92 E0
G1  F6000 X140.87 Y99.84 Z0.5
G1 F1200 X120.29 Y64.53 Z0.5 E3.34
G1 F1200 X79.42 Y64.69 Z0.5 E6.67
G1 F1200 X59.13 Y100.16 Z0.5 E10.01
G1 F1200 X79.71 Y135.47 Z0.5 E13.34
G1 F1200 X120.58 Y135.31 Z0.5 E16.68
G1 F1200 X140.87 Y99.84 Z0.5 E20.02
G92 E0
G1  F6000 X139.45 Y99.68 Z1
G1 F1200 X119.45 Y65.68 Z1 E3.22
G1 F1200 X80 Y66 Z1 E6.44
G1 F1200 X60.55 Y100.32 Z1 E9.66
G1 F1200 X80.55 Y134.32 Z1 E12.88
G1 F1200 X120 Y134 Z1 E16.1
G1 F1200 X139.45 Y99.68 Z1 E19.32
G92 E0
G1  F6000 X140.21 Y99.68 Z1
G1 F1200 X119.82 Y65.02 Z1 E3.28
G1 F1200 X79.62 Y65.34 Z1 E6.56
G1 F1200 X59.79 Y100.32 Z1 E9.85
G1 F1200 X80.18 Y134.98 Z1 E13.13
G1 F1200 X120.38 Y134.66 Z1 E16.41
G1 F1200 X140.21 Y99.68 Z1 E19.69
G92 E0
G1  F6000 X140.97 Y99.67 Z1
G1 F1200 X120.2 Y64.35 Z1 E3.34
G1 F1200 X79.23 Y64.68 Z1 E6.69
G1 F1200 X59.03 Y100.33 Z1 E10.03
G1 F1200 X79.8 Y135.65 Z1 E13.38
G1 F1200 X120.77 Y135.32 Z1 E16.72
G1 F1200 X140.97 Y99.67 Z1 E20.07
G92 E0
G1  F6000 X139.55 Y99.52 Z1.5
G1 F1200 X119.36 Y65.51 Z1.5 E3.23
G1 F1200 X79.81 Y65.99 Z1.5 E6.46
G1 F1200 X60.45 Y100.48 Z1.5 E9.69
G1 F1200 X80.64 Y134.49 Z1.5 E12.91
G1 F1200 X120.19 Y134.01 Z1.5 E16.14
G1 F1200 X139.55 Y99.52 Z1.5 E19.37
G92 E0
G1  F6000 X140.31 Y99.51 Z1.5
G1 F1200 X119.74 Y64.85 Z1.5 E3.29
G1 F1200 X79.42 Y65.33 Z1.5 E6.58
G1 F1200 X59.69 Y100.49 Z1.5 E9.87
G1 F1200 X80.26 Y135.15 Z1.5 E13.16
G1 F1200 X120.58 Y134.67 Z1.5 E16.45
G1 F1200 X140.31 Y99.51 Z1.5 E19.75
G92 E0
G1  F6000 X141.07 Y99.51 Z1.5
G1 F1200 X120.11 Y64.18 Z1.5 E3.35
G1 F1200 X79.04 Y64.68 Z1.5 E6.71
G1 F1200 X58.93 Y100.49 Z1.5 E10.06
G1 F1200 X79.89 Y135.82 Z1.5 E13.41
G1 F1200 X120.96 Y135.32 Z1.5 E16.77
G1 F1200 X141.07 Y99.51 Z1.5 E20.12
G92 E0
G1  F5600 X119.14 Y63.82 Z2
G1  F5600 X119.65 Y64.68 Z2
G1 F59 E0.348206060606061
G92 E0
G92 E0
G1 F59 E0
G1  F5600 X119.14 Y63.82 Z2
G92 E0
G92 E0
G1  F5600 X78.23 Y65.34 Z2
G1  F5600 X79.23 Y65.32 Z2
G1 F59 E0.348206060606061
G92 E0
G92 E0
G1 F59 E0
G1  F5600 X78.23 Y65.34 Z2
G92 E0
G92 E0
G1  F5600 X59.1 Y101.52 Z2
G1  F5600 X59.59 Y100.65 Z2
G1 F59 E0.348206060606061
G92 E0
G92 E0
G1 F59 E0
G1  F5600 X59.1 Y101.52 Z2
G92 E0
G92 E0
G1  F5600 X80.86 Y136.18 Z2
G1  F5600 X80.35 Y135.32 Z2
G1 F59 E0.348206060606061
G92 E0
G92 E0
G1 F59 E0
G1  F5600 X80.86 Y136.18 Z2
G92 E0
G92 E0
G1  F5600 X121.77 Y134.66 Z2
G1  F5600 X120.77 Y134.68 Z2
G1 F59 E0.348206060606061
G92 E0
G92 E0
G1 F59 E0
G1  F5600 X121.77 Y134.66 Z2
G92 E0
G92 E0
G1  F5600 X140.9 Y98.48 Z2
G1  F5600 X140.41 Y99.35 Z2
G1 F59 E0.348206060606061
G92 E0
G92 E0
G1 F59 E0
G1  F5600 X140.9 Y98.48 Z2
G92 E0
G92 E0
G1  F5600 X119.04 Y63.65 Z2.5
G1  F5600 X119.56 Y64.51 Z2.5
G1 F59 E0.348206060606061
G92 E0
G92 E0
G1 F59 E0
G1  F5600 X119.04 Y63.65 Z2.5
G92 E0
G92 E0
G1  F5600 X78.04 Y65.33 Z2.5
G1  F5600 X79.04 Y65.31 Z2.5
G1 F59 E0.348206060606061
G92 E0
G92 E0
G1 F59 E0
G1  F5600 X78.04 Y65.33 Z2.5
G92 E0
G92 E0
G1  F5600 X59 Y101.69 Z2.5
G1  F5600 X59.48 Y100.81 Z2.5
G1 F59 E0.348206060606061
G92 E0
G92 E0
G1 F59 E0
G1  F5600 X59 Y101.69 Z2.5
G92 E0
G92 E0
G1  F5600 X80.96 Y136.35 Z2.5
G1  F5600 X80.44 Y135.49 Z2.5
G1 F59 E0.348206060606061
G92 E0
G92 E0
G1 F59 E0
G1  F5600 X80.96 Y136.35 Z2.5
G92 E0
G92 E0
G1  F5600 X121.96 Y134.67 Z2.5
G1  F5600 X120.96 Y134.69 Z2.5
G1 F59 E0.348206060606061
G92 E0
G92 E0
G1 F59 E0
G1  F5600 X121.96 Y134.67 Z2.5
G92 E0
G92 E0
G1  F5600 X141 Y98.31 Z2.5
G1  F5600 X140.52 Y99.19 Z2.5
G1 F59 E0.348206060606061
G92 E0
G92 E0
G1 F59 E0
G1  F5600 X141 Y98.31 Z2.5
G92 E0
G92 E0
G1  F5600 X118.95 Y63.48 Z3
G1  F5600 X119.47 Y64.33 Z3
G1 F59 E0.348206060606061
G92 E0
G92 E0
G1 F59 E0
G1  F5600 X118.95 Y63.48 Z3
G92 E0
G92 E0
G1  F5600 X77.85 Y65.33 Z3
G1  F5600 X78.85 Y65.31 Z3
G1 F59 E0.348206060606061
G92 E0
G92 E0
G1 F59 E0
G1  F5600 X77.85 Y65.33 Z3
G92 E0
G92 E0
G1  F5600 X58.9 Y101.85 Z3
G1  F5600 X59.38 Y100.97 Z3
G1 F59 E0.348206060606061
G92 E0
G92 E0
G1 F59 E0
G1  F5600 X58.9 Y101.85 Z3
G92 E0
G92 E0
G1  F5600 X81.05 Y136.52 Z3
G1  F5600 X80.53 Y135.67 Z3
G1 F59 E0.348206060606061
G92 E0
G92 E0
G1 F59 E0
G1  F5600 X81.05 Y136.52 Z3
G92 E0
G92 E0
G1  F5600 X122.15 Y134.67 Z3
G1  F5600 X121.15 Y134.69 Z3
G1 F59 E0.348206060606061
G92 E0
G92 E0
G1 F59 E0
G1  F5600 X122.15 Y134.67 Z3
G92 E0
G92 E0
G1  F5600 X141.1 Y98.15 Z3
G1  F5600 X140.62 Y99.03 Z3
G1 F59 E0.348206060606061
G92 E0
G92 E0
G1 F59 E0
G1  F5600 X141.1 Y98.15 Z3
G92 E0
G92 E0
G1  F5600 X118.86 Y63.31 Z3.5
G1  F5600 X119.38 Y64.16 Z3.5
G1 F59 E0.348206060606061
G92 E0
G92 E0
G1 F59 E0
G1  F5600 X118.86 Y63.31 Z3.5
G92 E0
G92 E0
G1  F5600 X77.66 Y65.33 Z3.5
G1  F5600 X78.66 Y65.3 Z3.5
G1 F59 E0.348206060606061
G92 E0
G92 E0
G1 F59 E0
G1  F5600 X77.66 Y65.33 Z3.5
G92 E0
G92 E0
G1  F5600 X58.79 Y102.01 Z3.5
G1  F5600 X59.27 Y101.13 Z3.5
G1 F59 E0.348206060606061
G92 E0
G92 E0
G1 F59 E0
G1  F5600 X58.79 Y102.01 Z3.5
G92 E0
G92 E0
G1  F5600 X81.14 Y136.69 Z3.5
G1  F5600 X80.62 Y135.84 Z3.5
G1 F59 E0.348206060606061
G92 E0
G92 E0
G1 F59 E0
G1  F5600 X81.14 Y136.69 Z3.5
G92 E0
G92 E0
G1  F5600 X122.34 Y134.67 Z3.5
G1  F5600 X121.34 Y134.7 Z3.5
G1 F59 E0.348206060606061
G92 E0
G92 E0
G1 F59 E0
G1  F5600 X122.34 Y134.67 Z3.5
G92 E0
G92 E0
G1  F5600 X141.21 Y97.99 Z3.5
G1  F5600 X140.73 Y98.87 Z3.5
G1 F59 E0.348206060606061
G92 E0
G92 E0
G1 F59 E0
G1  F5600 X141.21 Y97.99 Z3.5
G92 E0
G92 E0
G1  F5600 X118.76 Y63.14 Z4
G1  F5600 X119.29 Y63.99 Z4
G1 F59 E0.348206060606061
G92 E0
G92 E0
G1 F59 E0
G1  F5600 X118.76 Y63.14 Z4
G92 E0
G92 E0
G1  F5600 X77.46 Y65.32 Z4
G1  F5600 X78.46 Y65.29 Z4
G1 F59 E0.348206060606061
G92 E0
G92 E0
G1 F59 E0
G1  F5600 X77.46 Y65.32 Z4
G92 E0
G92 E0
G1  F5600 X58.7 Y102.17 Z4
G1  F5600 X59.17 Y101.29 Z4
G1 F59 E0.348206060606061
G92 E0
G92 E0
G1 F59 E0
G1  F5600 X58.7 Y102.17 Z4
G92 E0
G92 E0
G1  F5600 X81.24 Y136.86 Z4
G1  F5600 X80.71 Y136.01 Z4
G1 F59 E0.348206060606061
G92 E0
G92 E0
G1 F59 E0
G1  F5600 X81.24 Y136.86 Z4
G92 E0
G92 E0
G1  F5600 X122.54 Y134.68 Z4
G1  F5600 X121.54 Y134.71 Z4
G1 F59 E0.348206060606061
G92 E0
G92 E0
G1 F59 E0
G1  F5600 X122.54 Y134.68 Z4
G92 E0
G92 E0
G1  F5600 X141.3 Y97.83 Z4
G1  F5600 X140.83 Y98.71 Z4
G1 F59 E0.348206060606061
G92 E0
G92 E0
G1 F59 E0
G1  F5600 X141.3 Y97.83 Z4
G92 E0
G92 E0
G1  F5600 X118.68 Y62.97 Z4.5
G1  F5600 X119.21 Y63.82 Z4.5
G1 F59 E0.348206060606061
G92 E0
G92 E0
G1 F59 E0
G1  F5600 X118.68 Y62.97 Z4.5
G92 E0
G92 E0
G1  F5600 X77.27 Y65.32 Z4.5
G1  F5600 X78.27 Y65.28 Z4.5
G1 F59 E0.348206060606061
G92 E0
G92 E0
G1 F59 E0
G1  F5600 X77.27 Y65.32 Z4.5
G92 E0
G92 E0
G1  F5600 X58.6 Y102.34 Z4.5
G1  F5600 X59.07 Y101.46 Z4.5
G1 F59 E0.348206060606061
G92 E0
G92 E0
G1 F59 E0
G1  F5600 X58.6 Y102.34 Z4.5
G92 E0
G92 E0
G1  F5600 X81.32 Y137.03 Z4.5
G1  F5600 X80.79 Y136.18 Z4.5
G1 F59 E0.348206060606061
G92 E0
G92 E0
G1 F59 E0
G1  F5600 X81.32 Y137.03 Z4.5
G92 E0
G92 E0
G1  F5600 X122.73 Y134.68 Z4.5
G1  F5600 X121.73 Y134.72 Z4.5
G1 F59 E0.348206060606061
G92 E0
G92 E0
G1 F59 E0
G1  F5600 X122.73 Y134.68 Z4.5
G92 E0
G92 E0
G1  F5600 X141.4 Y97.66 Z4.5
G1  F5600 X140.93 Y98.54 Z4.5
G1 F59 E0.348206060606061
G92 E0
G92 E0
G1 F59 E0
G1  F5600 X141.4 Y97.66 Z4.5
G92 E0
G92 E0
G1  F5600 X118.59 Y62.8 Z5
G1  F5600 X119.12 Y63.65 Z5
G1 F59 E0.348206060606061
G92 E0
G92 E0
G1 F59 E0
G1  F5600 X118.59 Y62.8 Z5
G92 E0
G92 E0
G1  F5600 X77.08 Y65.31 Z5
G1  F5600 X78.08 Y65.27 Z5
G1 F59 E0.348206060606061
G92 E0
G92 E0
G1 F59 E0
G1  F5600 X77.08 Y65.31 Z5
G92 E0
G92 E0
G1  F5600 X58.49 Y102.51 Z5
G1  F5600 X58.96 Y101.62 Z5
G1 F59 E0.348206060606061
G92 E0
G92 E0
G1 F59 E0
G1  F5600 X58.49 Y102.51 Z5
G92 E0
G92 E0
G1  F5600 X81.41 Y137.2 Z5
G1  F5600 X80.88 Y136.35 Z5
G1 F59 E0.348206060606061
G92 E0
G92 E0
G1 F59 E0
G1  F5600 X81.41 Y137.2 Z5
G92 E0
G92 E0
G1  F5600 X122.92 Y134.69 Z5
G1  F5600 X121.92 Y134.73 Z5
G1 F59 E0.348206060606061
G92 E0
G92 E0
G1 F59 E0
G1  F5600 X122.92 Y134.69 Z5
G92 E0
G92 E0
G1  F5600 X141.51 Y97.49 Z5
G1  F5600 X141.04 Y98.38 Z5
G1 F59 E0.348206060606061
G92 E0
G92 E0
G1 F59 E0
G1  F5600 X141.51 Y97.49 Z5
G92 E0
G92 E0
G1  F5600 X118.49 Y62.64 Z5.5
G1  F5600 X119.03 Y63.48 Z5.5
G1 F59 E0.348206060606061
G92 E0
G92 E0
G1 F59 E0
G1  F5600 X118.49 Y62.64 Z5.5
G92 E0
G92 E0
G1  F5600 X76.89 Y65.3 Z5.5
G1  F5600 X77.89 Y65.26 Z5.5
G1 F59 E0.348206060606061
G92 E0
G92 E0
G1 F59 E0
G1  F5600 X76.89 Y65.3 Z5.5
G92 E0
G92 E0
G1  F5600 X58.4 Y102.67 Z5.5
G1  F5600 X58.86 Y101.78 Z5.5
G1 F59 E0.348206060606061
G92 E0
G92 E0
G1 F59 E0
G1  F5600 X58.4 Y102.67 Z5.5
G92 E0
G92 E0
G1  F5600 X81.51 Y137.36 Z5.5
G1  F5600 X80.97 Y136.52 Z5.5
G1 F59 E0.348206060606061
G92 E0
G92 E0
G1 F59 E0
G1  F5600 X81.51 Y137.36 Z5.5
G92 E0
G92 E0
G1  F5600 X123.11 Y134.7 Z5.5
G1  F5600 X122.11 Y134.74 Z5.5
G1 F59 E0.348206060606061
G92 E0
G92 E0
G1 F59 E0
G1  F5600 X123.11 Y134.7 Z5.5
G92 E0
G92 E0
G1  F5600 X141.6 Y97.33 Z5.5
G1  F5600 X141.14 Y98.22 Z5.5
G1 F59 E0.348206060606061
G92 E0
G92 E0
G1 F59 E0
G1  F5600 X141.6 Y97.33 Z5.5
G92 E0
G92 E0
G1  F5600 X118.4 Y62.47 Z6
G1  F5600 X118.94 Y63.31 Z6
G1 F59 E0.348206060606061
G92 E0
G92 E0
G1 F59 E0
G1  F5600 X118.4 Y62.47 Z6
G92 E0
G92 E0
G1  F5600 X76.7 Y65.3 Z6
G1  F5600 X77.7 Y65.25 Z6
G1 F59 E0.348206060606061
G92 E0
G92 E0
G1 F59 E0
G1  F5600 X76.7 Y65.3 Z6
G92 E0
G92 E0
G1  F5600 X58.3 Y102.83 Z6
G1  F5600 X58.76 Y101.94 Z6
G1 F59 E0.348206060606061
G92 E0
G92 E0
G1 F59 E0
G1  F5600 X58.3 Y102.83 Z6
G92 E0
G92 E0
G1  F5600 X81.6 Y137.53 Z6
G1  F5600 X81.06 Y136.69 Z6
G1 F59 E0.348206060606061
G92 E0
G92 E0
G1 F59 E0
G1  F5600 X81.6 Y137.53 Z6
G92 E0
G92 E0
G1  F5600 X123.3 Y134.7 Z6
G1  F5600 X122.3 Y134.75 Z6
G1 F59 E0.348206060606061
G92 E0
G92 E0
G1 F59 E0
G1  F5600 X123.3 Y134.7 Z6
G92 E0
G92 E0
G1  F5600 X141.7 Y97.17 Z6
G1  F5600 X141.24 Y98.06 Z6
G1 F59 E0.348206060606061
G92 E0
G92 E0
G1 F59 E0
G1  F5600 X141.7 Y97.17 Z6
G92 E0
G92 E0
G1  F5600 X118.31 Y62.3 Z6.5
G1  F5600 X118.85 Y63.14 Z6.5
G1 F59 E0.348206060606061
G92 E0
G92 E0
G1 F59 E0
G1  F5600 X118.31 Y62.3 Z6.5
G92 E0
G92 E0
G1  F5600 X76.5 Y65.29 Z6.5
G1  F5600 X77.5 Y65.24 Z6.5
G1 F59 E0.348206060606061
G92 E0
G92 E0
G1 F59 E0
G1  F5600 X76.5 Y65.29 Z6.5
G92 E0
G92 E0
G1  F5600 X58.19 Y102.99 Z6.5
G1  F5600 X58.65 Y102.1 Z6.5
G1 F59 E0.348206060606061
G92 E0
G92 E0
G1 F59 E0
G1  F5600 X58.19 Y102.99 Z6.5
G92 E0
G92 E0
G1  F5600 X81.69 Y137.7 Z6.5
G1  F5600 X81.15 Y136.86 Z6.5
G1 F59 E0.348206060606061
G92 E0
G92 E0
G1 F59 E0
G1  F5600 X81.69 Y137.7 Z6.5
G92 E0
G92 E0
G1  F5600 X123.5 Y134.71 Z6.5
G1  F5600 X122.5 Y134.76 Z6.5
G1 F59 E0.348206060606061
G92 E0
G92 E0
G1 F59 E0
G1  F5600 X123.5 Y134.71 Z6.5
G92 E0
G92 E0
G1  F5600 X141.81 Y97.01 Z6.5
G1  F5600 X141.35 Y97.9 Z6.5
G1 F59 E0.348206060606061
G92 E0
G92 E0
G1 F59 E0
G1  F5600 X141.81 Y97.01 Z6.5
G92 E0
G92 E0
G1  F5600 X118.21 Y62.13 Z7
G1  F5600 X118.76 Y62.97 Z7
G1 F59 E0.348206060606061
G92 E0
G92 E0
G1 F59 E0
G1  F5600 X118.21 Y62.13 Z7
G92 E0
G92 E0
G1  F5600 X76.31 Y65.28 Z7
G1  F5600 X77.31 Y65.23 Z7
G1 F59 E0.348206060606061
G92 E0
G92 E0
G1 F59 E0
G1  F5600 X76.31 Y65.28 Z7
G92 E0
G92 E0
G1  F5600 X58.1 Y103.15 Z7
G1  F5600 X58.55 Y102.26 Z7
G1 F59 E0.348206060606061
G92 E0
G92 E0
G1 F59 E0
G1  F5600 X58.1 Y103.15 Z7
G92 E0
G92 E0
G1  F5600 X81.79 Y137.87 Z7
G1  F5600 X81.24 Y137.03 Z7
G1 F59 E0.348206060606061
G92 E0
G92 E0
G1 F59 E0
G1  F5600 X81.79 Y137.87 Z7
G92 E0
G92 E0
G1  F5600 X123.69 Y134.72 Z7
G1  F5600 X122.69 Y134.77 Z7
G1 F59 E0.348206060606061
G92 E0
G92 E0
G1 F59 E0
G1  F5600 X123.69 Y134.72 Z7
G92 E0
G92 E0
G1  F5600 X141.9 Y96.85 Z7
G1  F5600 X141.45 Y97.74 Z7
G1 F59 E0.348206060606061
G92 E0
G92 E0
G1 F59 E0
G1  F5600 X141.9 Y96.85 Z7
G92 E0
G92 E0
G1  F5600 X118.13 Y61.96 Z7.5
G1  F5600 X118.68 Y62.8 Z7.5
G1 F59 E0.348206060606061
G92 E0
G92 E0
G1 F59 E0
G1  F5600 X118.13 Y61.96 Z7.5
G92 E0
G92 E0
G1  F5600 X76.12 Y65.29 Z7.5
G1  F5600 X77.12 Y65.23 Z7.5
G1 F59 E0.348206060606061
G92 E0
G92 E0
G1 F59 E0
G1  F5600 X76.12 Y65.29 Z7.5
G92 E0
G92 E0
G1  F5600 X57.99 Y103.32 Z7.5
G1  F5600 X58.44 Y102.43 Z7.5
G1 F59 E0.348206060606061
G92 E0
G92 E0
G1 F59 E0
G1  F5600 X57.99 Y103.32 Z7.5
G92 E0
G92 E0
G1  F5600 X81.87 Y138.04 Z7.5
G1  F5600 X81.32 Y137.2 Z7.5
G1 F59 E0.348206060606061
G92 E0
G92 E0
G1 F59 E0
G1  F5600 X81.87 Y138.04 Z7.5
G92 E0
G92 E0
G1  F5600 X123.88 Y134.71 Z7.5
G1  F5600 X122.88 Y134.77 Z7.5
G1 F59 E0.348206060606061
G92 E0
G92 E0
G1 F59 E0
G1  F5600 X123.88 Y134.71 Z7.5
G92 E0
G92 E0
G1  F5600 X142.01 Y96.68 Z7.5
G1  F5600 X141.56 Y97.57 Z7.5
G1 F59 E0.348206060606061
G92 E0
G92 E0
G1 F59 E0
G1  F5600 X142.01 Y96.68 Z7.5
G92 E0
G92 E0
G1  F5600 X118.04 Y61.8 Z8
G1  F5600 X118.59 Y62.63 Z8
G1 F59 E0.348206060606061
G92 E0
G92 E0
G1 F59 E0
G1  F5600 X118.04 Y61.8 Z8
G92 E0
G92 E0
G1  F5600 X75.93 Y65.28 Z8
G1  F5600 X76.93 Y65.22 Z8
G1 F59 E0.348206060606061
G92 E0
G92 E0
G1 F59 E0
G1  F5600 X75.93 Y65.28 Z8
G92 E0
G92 E0
G1  F5600 X57.89 Y103.49 Z8
G1  F5600 X58.34 Y102.59 Z8
G1 F59 E0.348206060606061
G92 E0
G92 E0
G1 F59 E0
G1  F5600 X57.89 Y103.49 Z8
G92 E0
G92 E0
G1  F5600 X81.96 Y138.2 Z8
G1  F5600 X81.41 Y137.37 Z8
G1 F59 E0.348206060606061
G92 E0
G92 E0
G1 F59 E0
G1  F5600 X81.96 Y138.2 Z8
G92 E0
G92 E0
G1  F5600 X124.07 Y134.72 Z8
G1  F5600 X123.07 Y134.78 Z8
G1 F59 E0.348206060606061
G92 E0
G92 E0
G1 F59 E0
G1  F5600 X124.07 Y134.72 Z8
G92 E0
G92 E0
G1  F5600 X142.11 Y96.51 Z8
G1  F5600 X141.66 Y97.41 Z8
G1 F59 E0.348206060606061
G92 E0
G92 E0
G1 F59 E0
G1  F5600 X142.11 Y96.51 Z8
G92 E0
G92 E0
G1  F5600 X117.94 Y61.63 Z8.5
G1  F5600 X118.5 Y62.46 Z8.5
G1 F59 E0.348206060606061
G92 E0
G92 E0
G1 F59 E0
G1  F5600 X117.94 Y61.63 Z8.5
G92 E0
G92 E0
G1  F5600 X75.74 Y65.28 Z8.5
G1  F5600 X76.74 Y65.21 Z8.5
G1 F59 E0.348206060606061
G92 E0
G92 E0
G1 F59 E0
