;START_OF_HEADER
;HEADER_VERSION:0.1
;FLAVOR:Griffin
;GENERATOR.NAME:Cura_SteamEngine
;GENERATOR.VERSION:4.7.1
;GENERATOR.BUILD_DATE:2020-09-02
;TARGET_MACHINE.NAME:Ultimaker 3
;EXTRUDER_TRAIN.0.INITIAL_TEMPERATURE:205
;EXTRUDER_TRAIN.0.MATERIAL.VOLUME_USED:81
;EXTRUDER_TRAIN.0.MATERIAL.GUID:506c9f0d-e3aa-4bd4-b2d2-23e2425b1aa9
;EXTRUDER_TRAIN.0.NOZZLE.DIAMETER:0.4
;EXTRUDER_TRAIN.0.NOZZLE.NAME:AA 0.4
;BUILD_PLATE.TYPE:glass
;BUILD_PLATE.INITIAL_TEMPERATURE:60
;PRINT.TIME:95
;PRINT.GROUPS:1
;PRINT.SIZE.MIN.X:9
;PRINT.SIZE.MIN.Y:6
;PRINT.SIZE.MIN.Z:0.27
;PRINT.SIZE.MAX.X:125.628
;PRINT.SIZE.MAX.Y:116.295
;PRINT.SIZE.MAX.Z:3.87
;END_OF_HEADER
;Generated with Cura_SteamEngine 4.7.1
T0
M82 ;absolute extrusion mode

G92 E0
M109 S200
G0 F15000 X9 Y6 Z2
G280
G1 F1500 E-6.5
;LAYER_COUNT:39
;LAYER:0
M107
M204 S625
M205 X6 Y6
G1 F600 Z2.27
G0 F4285.7 X109.682 Y101.958 Z2.27
M204 S500
M205 X5 Y5
;- END OF START GCODE - 
 G28 ; home all axes
M82 ; use absolute distances for extrusion
G90 ; use absolute coordinates
G21 ; set units to millimeters
G92 E0 ; reset extrusion distance
M104 S185 ; set temperature
M109 S185 ; wait for temperature to be reached
G1 Z0.0 F360 E1
G92 E0
G1  F6000 X140.82 Y99.9 Z0.5
G1 F1200 X120.5 Y135.31 Z0.5 E3.33
G1 F1200 X79.67 Y135.4 Z0.5 E6.67
G1 F1200 X59.18 Y100.1 Z0.5 E10
G1 F1200 X79.5 Y64.69 Z0.5 E13.33
G1 F1200 X120.33 Y64.6 Z0.5 E16.66
G1 F1200 X140.82 Y99.9 Z0.5 E20
G92 E0
G1  F6000 X140.06 Y99.9 Z0.5
G1 F1200 X120.12 Y134.65 Z0.5 E3.27
G1 F1200 X80.05 Y134.74 Z0.5 E6.54
G1 F1200 X59.94 Y100.1 Z0.5 E9.81
G1 F1200 X79.88 Y65.35 Z0.5 E13.08
G1 F1200 X119.95 Y65.26 Z0.5 E16.35
G1 F1200 X140.06 Y99.9 Z0.5 E19.62
G92 E0
G1  F6000 X139.3 Y99.9 Z0.5
G1 F1200 X119.73 Y133.99 Z0.5 E3.21
G1 F1200 X80.43 Y134.08 Z0.5 E6.42
G1 F1200 X60.7 Y100.1 Z0.5 E9.62
G1 F1200 X80.27 Y66.01 Z0.5 E12.83
G1 F1200 X119.57 Y65.92 Z0.5 E16.04
G1 F1200 X139.3 Y99.9 Z0.5 E19.25
G92 E0
G1  F6000 X140.93 Y99.74 Z1
G1 F1200 X120.69 Y135.31 Z1 E3.34
G1 F1200 X79.76 Y135.58 Z1 E6.68
G1 F1200 X59.07 Y100.26 Z1 E10.02
G1 F1200 X79.31 Y64.69 Z1 E13.36
G1 F1200 X120.24 Y64.42 Z1 E16.71
G1 F1200 X140.93 Y99.74 Z1 E20.05
G92 E0
G1  F6000 X140.17 Y99.74 Z1
G1 F1200 X120.31 Y134.66 Z1 E3.28
G1 F1200 X80.14 Y134.91 Z1 E6.56
G1 F1200 X59.83 Y100.26 Z1 E9.84
G1 F1200 X79.69 Y65.34 Z1 E13.12
G1 F1200 X119.86 Y65.09 Z1 E16.39
G1 F1200 X140.17 Y99.74 Z1 E19.67
G92 E0
G1  F6000 X139.4 Y99.75 Z1
G1 F1200 X119.92 Y134 Z1 E3.22
G1 F1200 X80.52 Y134.25 Z1 E6.43
G1 F1200 X60.6 Y100.25 Z1 E9.65
G1 F1200 X80.08 Y66 Z1 E12.87
G1 F1200 X119.48 Y65.75 Z1 E16.08
G1 F1200 X139.4 Y99.75 Z1 E19.3
G92 E0
G1  F6000 X141.03 Y99.57 Z1.5
G1 F1200 X120.89 Y135.32 Z1.5 E3.35
G1 F1200 X79.86 Y135.75 Z1.5 E6.7
G1 F1200 X58.97 Y100.43 Z1.5 E10.05
G1 F1200 X79.11 Y64.68 Z1.5 E13.4
G1 F1200 X120.14 Y64.25 Z1.5 E16.75
G1 F1200 X141.03 Y99.57 Z1.5 E20.1
G92 E0
G1  F6000 X140.27 Y99.58 Z1.5
G1 F1200 X120.5 Y134.66 Z1.5 E3.29
G1 F1200 X80.23 Y135.08 Z1.5 E6.57
G1 F1200 X59.73 Y100.42 Z1.5 E9.86
G1 F1200 X79.5 Y65.34 Z1.5 E13.15
G1 F1200 X119.77 Y64.92 Z1.5 E16.44
G1 F1200 X140.27 Y99.58 Z1.5 E19.72
G92 E0
G1  F6000 X139.51 Y99.59 Z1.5
G1 F1200 X120.11 Y134.01 Z1.5 E3.23
G1 F1200 X80.6 Y134.42 Z1.5 E6.45
G1 F1200 X60.49 Y100.41 Z1.5 E9.68
G1 F1200 X79.89 Y65.99 Z1.5 E12.9
G1 F1200 X119.4 Y65.58 Z1.5 E16.13
G1 F1200 X139.51 Y99.59 Z1.5 E19.35
G92 E0
G1  F6000 X141.14 Y99.41 Z2
G1 F1200 X121.08 Y135.33 Z2 E3.36
G1 F1200 X79.95 Y135.92 Z2 E6.72
G1 F1200 X58.86 Y100.59 Z2 E10.08
G1 F1200 X78.92 Y64.67 Z2 E13.43
G1 F1200 X120.05 Y64.08 Z2 E16.79
G1 F1200 X141.14 Y99.41 Z2 E20.15
G92 E0
G1  F6000 X140.37 Y99.42 Z2
G1 F1200 X120.69 Y134.67 Z2 E3.3
G1 F1200 X80.32 Y135.26 Z2 E6.59
G1 F1200 X59.63 Y100.58 Z2 E9.89
G1 F1200 X79.31 Y65.33 Z2 E13.18
G1 F1200 X119.68 Y64.74 Z2 E16.48
G1 F1200 X140.37 Y99.42 Z2 E19.78
G92 E0
G1  F6000 X139.61 Y99.43 Z2
G1 F1200 X120.3 Y134.02 Z2 E3.23
G1 F1200 X80.69 Y134.59 Z2 E6.47
G1 F1200 X60.39 Y100.57 Z2 E9.7
G1 F1200 X79.7 Y65.98 Z2 E12.94
G1 F1200 X119.31 Y65.41 Z2 E16.17
G1 F1200 X139.61 Y99.43 Z2 E19.4
G92 E0
G1  F5600 X120.4 Y135.56 Z2.5
G1  F5600 X120.88 Y134.68 Z2.5
G1 F54 E0.337442424242424
G92 E0
G92 E0
G1 F54 E0
G1  F5600 X120.4 Y135.56 Z2.5
G92 E0
G92 E0
G1  F5600 X79.41 Y135.45 Z2.5
G1  F5600 X80.41 Y135.43 Z2.5
G1 F54 E0.337442424242424
G92 E0
G92 E0
G1 F54 E0
G1  F5600 X79.41 Y135.45 Z2.5
G92 E0
G92 E0
G1  F5600 X59 Y99.88 Z2.5
G1  F5600 X59.52 Y100.74 Z2.5
G1 F54 E0.337442424242424
G92 E0
G92 E0
G1 F54 E0
G1  F5600 X59 Y99.88 Z2.5
G92 E0
G92 E0
G1  F5600 X79.6 Y64.44 Z2.5
G1  F5600 X79.12 Y65.32 Z2.5
G1 F54 E0.337442424242424
G92 E0
G92 E0
G1 F54 E0
G1  F5600 X79.6 Y64.44 Z2.5
G92 E0
G92 E0
G1  F5600 X120.59 Y64.55 Z2.5
G1  F5600 X119.59 Y64.57 Z2.5
G1 F54 E0.337442424242424
G92 E0
G92 E0
G1 F54 E0
G1  F5600 X120.59 Y64.55 Z2.5
G92 E0
G92 E0
G1  F5600 X141 Y100.12 Z2.5
G1  F5600 X140.48 Y99.26 Z2.5
G1 F54 E0.337442424242424
G92 E0
G92 E0
G1 F54 E0
G1  F5600 X141 Y100.12 Z2.5
G92 E0
G92 E0
G1  F5600 X120.59 Y135.57 Z3
G1  F5600 X121.07 Y134.69 Z3
G1 F54 E0.337442424242424
G92 E0
G92 E0
G1 F54 E0
G1  F5600 X120.59 Y135.57 Z3
G92 E0
G92 E0
G1  F5600 X79.49 Y135.62 Z3
G1  F5600 X80.49 Y135.6 Z3
G1 F54 E0.337442424242424
G92 E0
G92 E0
G1 F54 E0
G1  F5600 X79.49 Y135.62 Z3
G92 E0
G92 E0
G1  F5600 X58.9 Y100.06 Z3
G1  F5600 X59.42 Y100.91 Z3
G1 F54 E0.337442424242424
G92 E0
G92 E0
G1 F54 E0
G1  F5600 X58.9 Y100.06 Z3
G92 E0
G92 E0
G1  F5600 X79.41 Y64.43 Z3
G1  F5600 X78.93 Y65.31 Z3
G1 F54 E0.337442424242424
G92 E0
G92 E0
G1 F54 E0
G1  F5600 X79.41 Y64.43 Z3
G92 E0
G92 E0
G1  F5600 X120.51 Y64.38 Z3
G1  F5600 X119.51 Y64.4 Z3
G1 F54 E0.337442424242424
G92 E0
G92 E0
G1 F54 E0
G1  F5600 X120.51 Y64.38 Z3
G92 E0
G92 E0
G1  F5600 X141.1 Y99.94 Z3
G1  F5600 X140.58 Y99.09 Z3
G1 F54 E0.337442424242424
G92 E0
G92 E0
G1 F54 E0
G1  F5600 X141.1 Y99.94 Z3
G92 E0
G92 E0
G1  F5600 X120.79 Y135.58 Z3.5
G1  F5600 X121.27 Y134.7 Z3.5
G1 F54 E0.337442424242424
G92 E0
G92 E0
G1 F54 E0
G1  F5600 X120.79 Y135.58 Z3.5
G92 E0
G92 E0
G1  F5600 X79.58 Y135.8 Z3.5
G1  F5600 X80.58 Y135.77 Z3.5
G1 F54 E0.337442424242424
G92 E0
G92 E0
G1 F54 E0
G1  F5600 X79.58 Y135.8 Z3.5
G92 E0
G92 E0
G1  F5600 X58.8 Y100.22 Z3.5
G1  F5600 X59.32 Y101.07 Z3.5
G1 F54 E0.337442424242424
G92 E0
G92 E0
G1 F54 E0
G1  F5600 X58.8 Y100.22 Z3.5
G92 E0
G92 E0
G1  F5600 X79.21 Y64.42 Z3.5
G1  F5600 X78.73 Y65.3 Z3.5
G1 F54 E0.337442424242424
G92 E0
G92 E0
G1 F54 E0
G1  F5600 X79.21 Y64.42 Z3.5
G92 E0
G92 E0
G1  F5600 X120.42 Y64.2 Z3.5
G1  F5600 X119.42 Y64.23 Z3.5
G1 F54 E0.337442424242424
G92 E0
G92 E0
G1 F54 E0
G1  F5600 X120.42 Y64.2 Z3.5
G92 E0
G92 E0
G1  F5600 X141.2 Y99.78 Z3.5
G1  F5600 X140.68 Y98.93 Z3.5
G1 F54 E0.337442424242424
G92 E0
G92 E0
G1 F54 E0
G1  F5600 X141.2 Y99.78 Z3.5
G92 E0
G92 E0
G1  F5600 X120.99 Y135.59 Z4
G1  F5600 X121.46 Y134.71 Z4
G1 F54 E0.337442424242424
G92 E0
G92 E0
G1 F54 E0
G1  F5600 X120.99 Y135.59 Z4
G92 E0
G92 E0
G1  F5600 X79.67 Y135.97 Z4
G1  F5600 X80.67 Y135.94 Z4
G1 F54 E0.337442424242424
G92 E0
G92 E0
G1 F54 E0
G1  F5600 X79.67 Y135.97 Z4
G92 E0
G92 E0
G1  F5600 X58.68 Y100.38 Z4
G1  F5600 X59.21 Y101.23 Z4
G1 F54 E0.337442424242424
G92 E0
G92 E0
G1 F54 E0
G1  F5600 X58.68 Y100.38 Z4
G92 E0
G92 E0
G1  F5600 X79.01 Y64.41 Z4
G1  F5600 X78.54 Y65.29 Z4
G1 F54 E0.337442424242424
G92 E0
G92 E0
G1 F54 E0
G1  F5600 X79.01 Y64.41 Z4
G92 E0
G92 E0
G1  F5600 X120.33 Y64.03 Z4
G1  F5600 X119.33 Y64.06 Z4
G1 F54 E0.337442424242424
G92 E0
G92 E0
G1 F54 E0
G1  F5600 X120.33 Y64.03 Z4
G92 E0
G92 E0
G1  F5600 X141.32 Y99.62 Z4
G1  F5600 X140.79 Y98.77 Z4
G1 F54 E0.337442424242424
G92 E0
G92 E0
G1 F54 E0
G1  F5600 X141.32 Y99.62 Z4
G92 E0
G92 E0
G1  F5600 X121.18 Y135.6 Z4.5
G1  F5600 X121.65 Y134.72 Z4.5
G1 F54 E0.337442424242424
G92 E0
G92 E0
G1 F54 E0
G1  F5600 X121.18 Y135.6 Z4.5
G92 E0
G92 E0
G1  F5600 X79.76 Y136.14 Z4.5
G1  F5600 X80.76 Y136.11 Z4.5
G1 F54 E0.337442424242424
G92 E0
G92 E0
G1 F54 E0
G1  F5600 X79.76 Y136.14 Z4.5
G92 E0
G92 E0
G1  F5600 X58.58 Y100.54 Z4.5
G1  F5600 X59.11 Y101.39 Z4.5
G1 F54 E0.337442424242424
G92 E0
G92 E0
G1 F54 E0
G1  F5600 X58.58 Y100.54 Z4.5
G92 E0
G92 E0
G1  F5600 X78.82 Y64.4 Z4.5
G1  F5600 X78.35 Y65.28 Z4.5
G1 F54 E0.337442424242424
G92 E0
G92 E0
G1 F54 E0
G1  F5600 X78.82 Y64.4 Z4.5
G92 E0
G92 E0
G1  F5600 X120.24 Y63.86 Z4.5
G1  F5600 X119.24 Y63.89 Z4.5
G1 F54 E0.337442424242424
G92 E0
G92 E0
G1 F54 E0
G1  F5600 X120.24 Y63.86 Z4.5
G92 E0
G92 E0
G1  F5600 X141.42 Y99.46 Z4.5
G1  F5600 X140.89 Y98.61 Z4.5
G1 F54 E0.337442424242424
G92 E0
G92 E0
G1 F54 E0
G1  F5600 X141.42 Y99.46 Z4.5
G92 E0
G92 E0
G1  F5600 X121.37 Y135.61 Z5
G1  F5600 X121.84 Y134.73 Z5
G1 F54 E0.337442424242424
G92 E0
G92 E0
G1 F54 E0
G1  F5600 X121.37 Y135.61 Z5
G92 E0
G92 E0
G1  F5600 X79.85 Y136.32 Z5
G1  F5600 X80.85 Y136.28 Z5
G1 F54 E0.337442424242424
G92 E0
G92 E0
G1 F54 E0
G1  F5600 X79.85 Y136.32 Z5
G92 E0
G92 E0
G1  F5600 X58.47 Y100.7 Z5
G1  F5600 X59 Y101.55 Z5
G1 F54 E0.337442424242424
G92 E0
G92 E0
G1 F54 E0
G1  F5600 X58.47 Y100.7 Z5
G92 E0
G92 E0
G1  F5600 X78.63 Y64.39 Z5
G1  F5600 X78.16 Y65.27 Z5
G1 F54 E0.337442424242424
G92 E0
G92 E0
G1 F54 E0
G1  F5600 X78.63 Y64.39 Z5
G92 E0
G92 E0
G1  F5600 X120.15 Y63.68 Z5
G1  F5600 X119.15 Y63.72 Z5
G1 F54 E0.337442424242424
G92 E0
G92 E0
G1 F54 E0
G1  F5600 X120.15 Y63.68 Z5
G92 E0
G92 E0
G1  F5600 X141.53 Y99.3 Z5
G1  F5600 X141 Y98.45 Z5
G1 F54 E0.337442424242424
G92 E0
G92 E0
G1 F54 E0
G1  F5600 X141.53 Y99.3 Z5
G92 E0
G92 E0
G1  F5600 X121.57 Y135.63 Z5.5
G1  F5600 X122.03 Y134.74 Z5.5
G1 F54 E0.337442424242424
G92 E0
G92 E0
G1 F54 E0
G1  F5600 X121.57 Y135.63 Z5.5
G92 E0
G92 E0
G1  F5600 X79.94 Y136.49 Z5.5
G1  F5600 X80.94 Y136.45 Z5.5
G1 F54 E0.337442424242424
G92 E0
G92 E0
G1 F54 E0
G1  F5600 X79.94 Y136.49 Z5.5
G92 E0
G92 E0
G1  F5600 X58.36 Y100.87 Z5.5
G1  F5600 X58.9 Y101.71 Z5.5
G1 F54 E0.337442424242424
G92 E0
G92 E0
G1 F54 E0
G1  F5600 X58.36 Y100.87 Z5.5
G92 E0
G92 E0
G1  F5600 X78.43 Y64.37 Z5.5
G1  F5600 X77.97 Y65.26 Z5.5
G1 F54 E0.337442424242424
G92 E0
G92 E0
G1 F54 E0
G1  F5600 X78.43 Y64.37 Z5.5
G92 E0
G92 E0
G1  F5600 X120.06 Y63.51 Z5.5
G1  F5600 X119.06 Y63.55 Z5.5
G1 F54 E0.337442424242424
G92 E0
G92 E0
G1 F54 E0
G1  F5600 X120.06 Y63.51 Z5.5
G92 E0
G92 E0
G1  F5600 X141.64 Y99.13 Z5.5
G1  F5600 X141.1 Y98.29 Z5.5
G1 F54 E0.337442424242424
G92 E0
G92 E0
G1 F54 E0
G1  F5600 X141.64 Y99.13 Z5.5
G92 E0
G92 E0
G1  F5600 X121.77 Y135.63 Z6
G1  F5600 X122.23 Y134.74 Z6
G1 F54 E0.337442424242424
G92 E0
G92 E0
G1 F54 E0
G1  F5600 X121.77 Y135.63 Z6
G92 E0
G92 E0
G1  F5600 X80.02 Y136.67 Z6
G1  F5600 X81.02 Y136.62 Z6
G1 F54 E0.337442424242424
G92 E0
G92 E0
G1 F54 E0
G1  F5600 X80.02 Y136.67 Z6
G92 E0
G92 E0
G1  F5600 X58.26 Y101.04 Z6
G1  F5600 X58.8 Y101.88 Z6
G1 F54 E0.337442424242424
G92 E0
G92 E0
G1 F54 E0
G1  F5600 X58.26 Y101.04 Z6
G92 E0
G92 E0
G1  F5600 X78.23 Y64.37 Z6
G1  F5600 X77.77 Y65.26 Z6
G1 F54 E0.337442424242424
G92 E0
G92 E0
G1 F54 E0
G1  F5600 X78.23 Y64.37 Z6
G92 E0
G92 E0
G1  F5600 X119.98 Y63.33 Z6
G1  F5600 X118.98 Y63.38 Z6
G1 F54 E0.337442424242424
G92 E0
G92 E0
G1 F54 E0
G1  F5600 X119.98 Y63.33 Z6
G92 E0
G92 E0
G1  F5600 X141.74 Y98.96 Z6
G1  F5600 X141.2 Y98.12 Z6
G1 F54 E0.337442424242424
G92 E0
G92 E0
G1 F54 E0
G1  F5600 X141.74 Y98.96 Z6
G92 E0
G92 E0
G1  F5600 X121.96 Y135.64 Z6.5
G1  F5600 X122.42 Y134.75 Z6.5
G1 F54 E0.337442424242424
G92 E0
G92 E0
G1 F54 E0
G1  F5600 X121.96 Y135.64 Z6.5
G92 E0
G92 E0
G1  F5600 X80.11 Y136.84 Z6.5
G1  F5600 X81.11 Y136.79 Z6.5
G1 F54 E0.337442424242424
G92 E0
G92 E0
G1 F54 E0
G1  F5600 X80.11 Y136.84 Z6.5
G92 E0
G92 E0
G1  F5600 X58.15 Y101.2 Z6.5
G1  F5600 X58.69 Y102.04 Z6.5
G1 F54 E0.337442424242424
G92 E0
G92 E0
G1 F54 E0
G1  F5600 X58.15 Y101.2 Z6.5
G92 E0
G92 E0
G1  F5600 X78.04 Y64.36 Z6.5
G1  F5600 X77.58 Y65.25 Z6.5
G1 F54 E0.337442424242424
G92 E0
G92 E0
G1 F54 E0
G1  F5600 X78.04 Y64.36 Z6.5
G92 E0
G92 E0
G1  F5600 X119.89 Y63.16 Z6.5
G1  F5600 X118.89 Y63.21 Z6.5
G1 F54 E0.337442424242424
G92 E0
G92 E0
G1 F54 E0
G1  F5600 X119.89 Y63.16 Z6.5
G92 E0
G92 E0
G1  F5600 X141.85 Y98.8 Z6.5
G1  F5600 X141.31 Y97.96 Z6.5
G1 F54 E0.337442424242424
G92 E0
G92 E0
G1 F54 E0
G1  F5600 X141.85 Y98.8 Z6.5
G92 E0
G92 E0
G1  F5600 X122.16 Y135.65 Z7
G1  F5600 X122.61 Y134.76 Z7
G1 F54 E0.337442424242424
G92 E0
G92 E0
G1 F54 E0
G1  F5600 X122.16 Y135.65 Z7
G92 E0
G92 E0
G1  F5600 X80.2 Y137.01 Z7
G1  F5600 X81.2 Y136.96 Z7
G1 F54 E0.337442424242424
G92 E0
G92 E0
G1 F54 E0
G1  F5600 X80.2 Y137.01 Z7
G92 E0
G92 E0
G1  F5600 X58.04 Y101.36 Z7
G1  F5600 X58.59 Y102.2 Z7
G1 F54 E0.337442424242424
G92 E0
G92 E0
G1 F54 E0
G1  F5600 X58.04 Y101.36 Z7
G92 E0
G92 E0
G1  F5600 X77.84 Y64.35 Z7
G1  F5600 X77.39 Y65.24 Z7
G1 F54 E0.337442424242424
G92 E0
G92 E0
G1 F54 E0
G1  F5600 X77.84 Y64.35 Z7
G92 E0
G92 E0
G1  F5600 X119.8 Y62.99 Z7
G1  F5600 X118.8 Y63.04 Z7
G1 F54 E0.337442424242424
G92 E0
G92 E0
G1 F54 E0
G1  F5600 X119.8 Y62.99 Z7
G92 E0
G92 E0
G1  F5600 X141.96 Y98.64 Z7
G1  F5600 X141.41 Y97.8 Z7
G1 F54 E0.337442424242424
G92 E0
G92 E0
G1 F54 E0
G1  F5600 X141.96 Y98.64 Z7
G92 E0
G92 E0
G1  F5600 X122.35 Y135.66 Z7.5
G1  F5600 X122.8 Y134.77 Z7.5
G1 F54 E0.337442424242424
G92 E0
G92 E0
G1 F54 E0
G1  F5600 X122.35 Y135.66 Z7.5
G92 E0
G92 E0
G1  F5600 X80.29 Y137.19 Z7.5
G1  F5600 X81.29 Y137.13 Z7.5
G1 F54 E0.337442424242424
G92 E0
G92 E0
G1 F54 E0
G1  F5600 X80.29 Y137.19 Z7.5
G92 E0
G92 E0
G1  F5600 X57.94 Y101.52 Z7.5
G1  F5600 X58.49 Y102.36 Z7.5
G1 F54 E0.337442424242424
G92 E0
G92 E0
G1 F54 E0
G1  F5600 X57.94 Y101.52 Z7.5
G92 E0
G92 E0
G1  F5600 X77.65 Y64.34 Z7.5
G1  F5600 X77.2 Y65.23 Z7.5
G1 F54 E0.337442424242424
G92 E0
G92 E0
G1 F54 E0
G1  F5600 X77.65 Y64.34 Z7.5
G92 E0
G92 E0
G1  F5600 X119.71 Y62.81 Z7.5
G1  F5600 X118.71 Y62.87 Z7.5
G1 F54 E0.337442424242424
G92 E0
G92 E0
G1 F54 E0
G1  F5600 X119.71 Y62.81 Z7.5
G92 E0
G92 E0
G1  F5600 X142.06 Y98.48 Z7.5
G1  F5600 X141.51 Y97.64 Z7.5
G1 F54 E0.337442424242424
G92 E0
G92 E0
G1 F54 E0
G1  F5600 X142.06 Y98.48 Z7.5
G92 E0
G92 E0
G1  F5600 X122.54 Y135.67 Z8
G1  F5600 X122.99 Y134.78 Z8
G1 F54 E0.337442424242424
G92 E0
G92 E0
G1 F54 E0
G1  F5600 X122.54 Y135.67 Z8
G92 E0
G92 E0
G1  F5600 X80.38 Y137.36 Z8
G1  F5600 X81.38 Y137.3 Z8
G1 F54 E0.337442424242424
G92 E0
G92 E0
G1 F54 E0
G1  F5600 X80.38 Y137.36 Z8
G92 E0
G92 E0
G1  F5600 X57.83 Y101.69 Z8
G1  F5600 X58.38 Y102.52 Z8
G1 F54 E0.337442424242424
G92 E0
G92 E0
G1 F54 E0
G1  F5600 X57.83 Y101.69 Z8
G92 E0
G92 E0
G1  F5600 X77.46 Y64.33 Z8
G1  F5600 X77.01 Y65.22 Z8
G1 F54 E0.337442424242424
G92 E0
G92 E0
G1 F54 E0
G1  F5600 X77.46 Y64.33 Z8
G92 E0
G92 E0
G1  F5600 X119.62 Y62.64 Z8
G1  F5600 X118.62 Y62.7 Z8
G1 F54 E0.337442424242424
G92 E0
G92 E0
G1 F54 E0
G1  F5600 X119.62 Y62.64 Z8
G92 E0
G92 E0
G1  F5600 X142.17 Y98.31 Z8
G1  F5600 X141.62 Y97.48 Z8
G1 F54 E0.337442424242424
G92 E0
G92 E0
G1 F54 E0
G1  F5600 X142.17 Y98.31 Z8
G92 E0
G92 E0
G1  F5600 X122.75 Y135.69 Z8.5
G1  F5600 X123.19 Y134.79 Z8.5
G1 F54 E0.337442424242424
G92 E0
G92 E0
G1 F54 E0
G1  F5600 X122.75 Y135.69 Z8.5
G92 E0
G92 E0
G1  F5600 X80.46 Y137.53 Z8.5
G1  F5600 X81.46 Y137.47 Z8.5
G1 F54 E0.337442424242424
G92 E0
G92 E0
G1 F54 E0
G1  F5600 X80.46 Y137.53 Z8.5
G92 E0
G92 E0
G1  F5600 X57.73 Y101.86 Z8.5
G1  F5600 X58.28 Y102.69 Z8.5
G1 F54 E0.337442424242424
G92 E0
G92 E0
G1 F54 E0
G1  F5600 X57.73 Y101.86 Z8.5
G92 E0
G92 E0
G1  F5600 X77.25 Y64.31 Z8.5
G1  F5600 X76.81 Y65.21 Z8.5
G1 F54 E0.337442424242424
G92 E0
G92 E0
G1 F54 E0
G1  F5600 X77.25 Y64.31 Z8.5
G92 E0
G92 E0
G1  F5600 X119.54 Y62.47 Z8.5
G1  F5600 X118.54 Y62.53 Z8.5
G1 F54 E0.337442424242424
G92 E0
G92 E0
G1 F54 E0
G1  F5600 X119.54 Y62.47 Z8.5
G92 E0
G92 E0
G1  F5600 X142.27 Y98.14 Z8.5
G1  F5600 X141.72 Y97.31 Z8.5
G1 F54 E0.337442424242424
G92 E0
G92 E0
G1 F54 E0
G1  F5600 X142.27 Y98.14 Z8.5
G92 E0
G92 E0
G1  F5600 X122.94 Y135.7 Z9
G1  F5600 X123.38 Y134.8 Z9
G1 F54 E0.337442424242424
G92 E0
G92 E0
G1 F54 E0
G1  F5600 X122.94 Y135.7 Z9
G92 E0
G92 E0
G1  F5600 X80.55 Y137.72 Z9
G1  F5600 X81.55 Y137.65 Z9
