;START_OF_HEADER
;HEADER_VERSION:0.1
;FLAVOR:Griffin
;GENERATOR.NAME:Cura_SteamEngine
;GENERATOR.VERSION:4.7.1
;GENERATOR.BUILD_DATE:2020-09-02
;TARGET_MACHINE.NAME:Ultimaker 3
;EXTRUDER_TRAIN.0.INITIAL_TEMPERATURE:205
;EXTRUDER_TRAIN.0.MATERIAL.VOLUME_USED:81
;EXTRUDER_TRAIN.0.MATERIAL.GUID:506c9f0d-e3aa-4bd4-b2d2-23e2425b1aa9
;EXTRUDER_TRAIN.0.NOZZLE.DIAMETER:0.4
;EXTRUDER_TRAIN.0.NOZZLE.NAME:AA 0.4
;BUILD_PLATE.TYPE:glass
;BUILD_PLATE.INITIAL_TEMPERATURE:60
;PRINT.TIME:95
;PRINT.GROUPS:1
;PRINT.SIZE.MIN.X:9
;PRINT.SIZE.MIN.Y:6
;PRINT.SIZE.MIN.Z:0.27
;PRINT.SIZE.MAX.X:125.628
;PRINT.SIZE.MAX.Y:116.295
;PRINT.SIZE.MAX.Z:3.87
;END_OF_HEADER
;Generated with Cura_SteamEngine 4.7.1
T0
M82 ;absolute extrusion mode

G92 E0
M109 S200
G0 F15000 X9 Y6 Z2
G280
G1 F1500 E-6.5
;LAYER_COUNT:39
;LAYER:0
M107
M204 S625
M205 X6 Y6
G1 F600 Z2.27
G0 F4285.7 X109.682 Y101.958 Z2.27
M204 S500
M205 X5 Y5
;- END OF START GCODE ----------------------------------------------------
 G28 ; home all axes
M82 ; use absolute distances for extrusion
G90 ; use absolute coordinates
G21 ; set units to millimeters
G92 E0 ; reset extrusion distance
M104 S185 ; set temperature
M109 S185 ; wait for temperature to be reached
G1 Z0.0 F360 E1
G92 E0
G1  F6000 X120 Y36.87 Z0.5
G1 F1200 X163.13 Y80 Z0.5 E4.98
G1 F1200 X120 Y123.13 Z0.5 E9.96
G1 F1200 X76.87 Y80 Z0.5 E14.94
G1 F1200 X120 Y36.87 Z0.5 E19.92
G92 E0
G1  F6000 X120 Y37.57 Z0.5
G1 F1200 X162.43 Y80 Z0.5 E4.9
G1 F1200 X120 Y122.43 Z0.5 E9.8
G1 F1200 X77.57 Y80 Z0.5 E14.69
G1 F1200 X120 Y37.57 Z0.5 E19.59
G92 E0
G1  F6000 X120 Y38.28 Z0.5
G1 F1200 X161.72 Y80 Z0.5 E4.82
G1 F1200 X120 Y121.72 Z0.5 E9.63
G1 F1200 X78.28 Y80 Z0.5 E14.45
G1 F1200 X120 Y38.28 Z0.5 E19.27
G92 E0
G1  F6000 X100 Y36.87 Z0.5
G1 F1200 X143.13 Y80 Z0.5 E4.98
G1 F1200 X100 Y123.13 Z0.5 E9.96
G1 F1200 X56.87 Y80 Z0.5 E14.94
G1 F1200 X100 Y36.87 Z0.5 E19.92
G92 E0
G1  F6000 X100 Y37.57 Z0.5
G1 F1200 X142.43 Y80 Z0.5 E4.9
G1 F1200 X100 Y122.43 Z0.5 E9.8
G1 F1200 X57.57 Y80 Z0.5 E14.69
G1 F1200 X100 Y37.57 Z0.5 E19.59
G92 E0
G1  F6000 X100 Y38.28 Z0.5
G1 F1200 X141.72 Y80 Z0.5 E4.82
G1 F1200 X100 Y121.72 Z0.5 E9.63
G1 F1200 X58.28 Y80 Z0.5 E14.45
G1 F1200 X100 Y38.28 Z0.5 E19.27
G92 E0
G1  F6000 X80 Y36.87 Z0.5
G1 F1200 X123.13 Y80 Z0.5 E4.98
G1 F1200 X80 Y123.13 Z0.5 E9.96
G1 F1200 X36.87 Y80 Z0.5 E14.94
G1 F1200 X80 Y36.87 Z0.5 E19.92
G92 E0
G1  F6000 X80 Y37.57 Z0.5
G1 F1200 X122.43 Y80 Z0.5 E4.9
G1 F1200 X80 Y122.43 Z0.5 E9.8
G1 F1200 X37.57 Y80 Z0.5 E14.69
G1 F1200 X80 Y37.57 Z0.5 E19.59
G92 E0
G1  F6000 X80 Y38.28 Z0.5
G1 F1200 X121.72 Y80 Z0.5 E4.82
G1 F1200 X80 Y121.72 Z0.5 E9.63
G1 F1200 X38.28 Y80 Z0.5 E14.45
G1 F1200 X80 Y38.28 Z0.5 E19.27
G92 E0
G1  F3000 X163.14 Y80.71 Z1
G1  F3000 X162.43 Y80 Z1
G1 F59 E0.344724
G92 E0
G92 E0
G1 F59 E0
G1  F3000 X163.14 Y80.71 Z1
G92 E0
G92 E0
G1  F3000 X119.29 Y123.14 Z1
G1  F3000 X120 Y122.43 Z1
G1 F59 E0.344724
G92 E0
G92 E0
G1 F59 E0
G1  F3000 X119.29 Y123.14 Z1
G92 E0
G92 E0
G1  F3000 X76.86 Y79.29 Z1
G1  F3000 X77.57 Y80 Z1
G1 F59 E0.344724
G92 E0
G92 E0
G1 F59 E0
G1  F3000 X76.86 Y79.29 Z1
G92 E0
G92 E0
G1  F3000 X120.71 Y36.86 Z1
G1  F3000 X120 Y37.57 Z1
G1 F59 E0.344724
G92 E0
G92 E0
G1 F59 E0
G1  F3000 X120.71 Y36.86 Z1
G92 E0
G92 E0
G1  F3000 X143.14 Y80.71 Z1
G1  F3000 X142.43 Y80 Z1
G1 F59 E0.344724
G92 E0
G92 E0
G1 F59 E0
G1  F3000 X143.14 Y80.71 Z1
G92 E0
G92 E0
G1  F3000 X99.29 Y123.14 Z1
G1  F3000 X100 Y122.43 Z1
G1 F59 E0.344724
G92 E0
G92 E0
G1 F59 E0
G1  F3000 X99.29 Y123.14 Z1
G92 E0
G92 E0
G1  F3000 X56.86 Y79.29 Z1
G1  F3000 X57.57 Y80 Z1
G1 F59 E0.344724
G92 E0
G92 E0
G1 F59 E0
G1  F3000 X56.86 Y79.29 Z1
G92 E0
G92 E0
G1  F3000 X100.71 Y36.86 Z1
G1  F3000 X100 Y37.57 Z1
G1 F59 E0.344724
G92 E0
G92 E0
G1 F59 E0
G1  F3000 X100.71 Y36.86 Z1
G92 E0
G92 E0
G1  F3000 X123.14 Y80.71 Z1
G1  F3000 X122.43 Y80 Z1
G1 F59 E0.344724
G92 E0
G92 E0
G1 F59 E0
G1  F3000 X123.14 Y80.71 Z1
G92 E0
G92 E0
G1  F3000 X79.29 Y123.14 Z1
G1  F3000 X80 Y122.43 Z1
G1 F59 E0.344724
G92 E0
G92 E0
G1 F59 E0
G1  F3000 X79.29 Y123.14 Z1
G92 E0
G92 E0
G1  F3000 X36.86 Y79.29 Z1
G1  F3000 X37.57 Y80 Z1
G1 F59 E0.344724
G92 E0
G92 E0
G1 F59 E0
G1  F3000 X36.86 Y79.29 Z1
G92 E0
G92 E0
G1  F3000 X80.71 Y36.86 Z1
G1  F3000 X80 Y37.57 Z1
G1 F59 E0.344724
G92 E0
G92 E0
G1 F59 E0
G1  F3000 X80.71 Y36.86 Z1
G92 E0
G92 E0
G1  F3000 X163.14 Y80.71 Z1.5
G1  F3000 X162.43 Y80 Z1.5
G1 F59 E0.344724
G92 E0
G92 E0
G1 F59 E0
G1  F3000 X163.14 Y80.71 Z1.5
G92 E0
G92 E0
G1  F3000 X119.29 Y123.14 Z1.5
G1  F3000 X120 Y122.43 Z1.5
G1 F59 E0.344724
G92 E0
G92 E0
G1 F59 E0
G1  F3000 X119.29 Y123.14 Z1.5
G92 E0
G92 E0
G1  F3000 X76.86 Y79.29 Z1.5
G1  F3000 X77.57 Y80 Z1.5
G1 F59 E0.344724
G92 E0
G92 E0
G1 F59 E0
G1  F3000 X76.86 Y79.29 Z1.5
G92 E0
G92 E0
G1  F3000 X120.71 Y36.86 Z1.5
G1  F3000 X120 Y37.57 Z1.5
G1 F59 E0.344724
G92 E0
G92 E0
G1 F59 E0
G1  F3000 X120.71 Y36.86 Z1.5
G92 E0
G92 E0
G1  F3000 X143.14 Y80.71 Z1.5
G1  F3000 X142.43 Y80 Z1.5
G1 F59 E0.344724
G92 E0
G92 E0
G1 F59 E0
G1  F3000 X143.14 Y80.71 Z1.5
G92 E0
G92 E0
G1  F3000 X99.29 Y123.14 Z1.5
G1  F3000 X100 Y122.43 Z1.5
G1 F59 E0.344724
G92 E0
G92 E0
G1 F59 E0
G1  F3000 X99.29 Y123.14 Z1.5
G92 E0
G92 E0
G1  F3000 X56.86 Y79.29 Z1.5
G1  F3000 X57.57 Y80 Z1.5
G1 F59 E0.344724
G92 E0
G92 E0
G1 F59 E0
G1  F3000 X56.86 Y79.29 Z1.5
G92 E0
G92 E0
G1  F3000 X100.71 Y36.86 Z1.5
G1  F3000 X100 Y37.57 Z1.5
G1 F59 E0.344724
G92 E0
G92 E0
G1 F59 E0
G1  F3000 X100.71 Y36.86 Z1.5
G92 E0
G92 E0
G1  F3000 X123.14 Y80.71 Z1.5
G1  F3000 X122.43 Y80 Z1.5
G1 F59 E0.344724
G92 E0
G92 E0
G1 F59 E0
G1  F3000 X123.14 Y80.71 Z1.5
G92 E0
G92 E0
G1  F3000 X79.29 Y123.14 Z1.5
G1  F3000 X80 Y122.43 Z1.5
G1 F59 E0.344724
G92 E0
G92 E0
G1 F59 E0
G1  F3000 X79.29 Y123.14 Z1.5
G92 E0
G92 E0
G1  F3000 X36.86 Y79.29 Z1.5
G1  F3000 X37.57 Y80 Z1.5
G1 F59 E0.344724
G92 E0
G92 E0
G1 F59 E0
G1  F3000 X36.86 Y79.29 Z1.5
G92 E0
G92 E0
G1  F3000 X80.71 Y36.86 Z1.5
G1  F3000 X80 Y37.57 Z1.5
G1 F59 E0.344724
G92 E0
G92 E0
G1 F59 E0
G1  F3000 X80.71 Y36.86 Z1.5
G92 E0
G92 E0
G1  F3000 X163.14 Y80.71 Z2
G1  F3000 X162.43 Y80 Z2
G1 F59 E0.344724
G92 E0
G92 E0
G1 F59 E0
G1  F3000 X163.14 Y80.71 Z2
G92 E0
G92 E0
G1  F3000 X119.29 Y123.14 Z2
G1  F3000 X120 Y122.43 Z2
G1 F59 E0.344724
G92 E0
G92 E0
G1 F59 E0
G1  F3000 X119.29 Y123.14 Z2
G92 E0
G92 E0
G1  F3000 X76.86 Y79.29 Z2
G1  F3000 X77.57 Y80 Z2
G1 F59 E0.344724
G92 E0
G92 E0
G1 F59 E0
G1  F3000 X76.86 Y79.29 Z2
G92 E0
G92 E0
G1  F3000 X120.71 Y36.86 Z2
G1  F3000 X120 Y37.57 Z2
G1 F59 E0.344724
G92 E0
G92 E0
G1 F59 E0
G1  F3000 X120.71 Y36.86 Z2
G92 E0
G92 E0
G1  F3000 X143.14 Y80.71 Z2
G1  F3000 X142.43 Y80 Z2
G1 F59 E0.344724
G92 E0
G92 E0
G1 F59 E0
G1  F3000 X143.14 Y80.71 Z2
G92 E0
G92 E0
G1  F3000 X99.29 Y123.14 Z2
G1  F3000 X100 Y122.43 Z2
G1 F59 E0.344724
G92 E0
G92 E0
G1 F59 E0
G1  F3000 X99.29 Y123.14 Z2
G92 E0
G92 E0
G1  F3000 X56.86 Y79.29 Z2
G1  F3000 X57.57 Y80 Z2
G1 F59 E0.344724
G92 E0
G92 E0
G1 F59 E0
G1  F3000 X56.86 Y79.29 Z2
G92 E0
G92 E0
G1  F3000 X100.71 Y36.86 Z2
G1  F3000 X100 Y37.57 Z2
G1 F59 E0.344724
G92 E0
G92 E0
G1 F59 E0
G1  F3000 X100.71 Y36.86 Z2
G92 E0
G92 E0
G1  F3000 X123.14 Y80.71 Z2
G1  F3000 X122.43 Y80 Z2
G1 F59 E0.344724
G92 E0
G92 E0
G1 F59 E0
G1  F3000 X123.14 Y80.71 Z2
G92 E0
G92 E0
G1  F3000 X79.29 Y123.14 Z2
G1  F3000 X80 Y122.43 Z2
G1 F59 E0.344724
G92 E0
G92 E0
G1 F59 E0
G1  F3000 X79.29 Y123.14 Z2
G92 E0
G92 E0
G1  F3000 X36.86 Y79.29 Z2
G1  F3000 X37.57 Y80 Z2
G1 F59 E0.344724
G92 E0
G92 E0
G1 F59 E0
G1  F3000 X36.86 Y79.29 Z2
G92 E0
G92 E0
G1  F3000 X80.71 Y36.86 Z2
G1  F3000 X80 Y37.57 Z2
G1 F59 E0.344724
G92 E0
G92 E0
G1 F59 E0
G1  F3000 X80.71 Y36.86 Z2
G92 E0
G92 E0
G1  F3000 X163.14 Y80.71 Z2.5
G1  F3000 X162.43 Y80 Z2.5
G1 F59 E0.344724
G92 E0
G92 E0
G1 F59 E0
G1  F3000 X163.14 Y80.71 Z2.5
G92 E0
G92 E0
G1  F3000 X119.29 Y123.14 Z2.5
G1  F3000 X120 Y122.43 Z2.5
G1 F59 E0.344724
G92 E0
G92 E0
G1 F59 E0
G1  F3000 X119.29 Y123.14 Z2.5
G92 E0
G92 E0
G1  F3000 X76.86 Y79.29 Z2.5
G1  F3000 X77.57 Y80 Z2.5
G1 F59 E0.344724
G92 E0
G92 E0
G1 F59 E0
G1  F3000 X76.86 Y79.29 Z2.5
G92 E0
G92 E0
G1  F3000 X120.71 Y36.86 Z2.5
G1  F3000 X120 Y37.57 Z2.5
G1 F59 E0.344724
G92 E0
G92 E0
G1 F59 E0
G1  F3000 X120.71 Y36.86 Z2.5
G92 E0
G92 E0
G1  F3000 X143.14 Y80.71 Z2.5
G1  F3000 X142.43 Y80 Z2.5
G1 F59 E0.344724
G92 E0
G92 E0
G1 F59 E0
G1  F3000 X143.14 Y80.71 Z2.5
G92 E0
G92 E0
G1  F3000 X99.29 Y123.14 Z2.5
G1  F3000 X100 Y122.43 Z2.5
G1 F59 E0.344724
G92 E0
G92 E0
G1 F59 E0
G1  F3000 X99.29 Y123.14 Z2.5
G92 E0
G92 E0
G1  F3000 X56.86 Y79.29 Z2.5
G1  F3000 X57.57 Y80 Z2.5
G1 F59 E0.344724
G92 E0
G92 E0
G1 F59 E0
G1  F3000 X56.86 Y79.29 Z2.5
G92 E0
G92 E0
G1  F3000 X100.71 Y36.86 Z2.5
G1  F3000 X100 Y37.57 Z2.5
G1 F59 E0.344724
G92 E0
G92 E0
G1 F59 E0
G1  F3000 X100.71 Y36.86 Z2.5
G92 E0
G92 E0
G1  F3000 X123.14 Y80.71 Z2.5
G1  F3000 X122.43 Y80 Z2.5
G1 F59 E0.344724
G92 E0
G92 E0
G1 F59 E0
G1  F3000 X123.14 Y80.71 Z2.5
G92 E0
G92 E0
G1  F3000 X79.29 Y123.14 Z2.5
G1  F3000 X80 Y122.43 Z2.5
G1 F59 E0.344724
G92 E0
G92 E0
G1 F59 E0
G1  F3000 X79.29 Y123.14 Z2.5
G92 E0
G92 E0
G1  F3000 X36.86 Y79.29 Z2.5
G1  F3000 X37.57 Y80 Z2.5
G1 F59 E0.344724
G92 E0
G92 E0
G1 F59 E0
G1  F3000 X36.86 Y79.29 Z2.5
G92 E0
G92 E0
G1  F3000 X80.71 Y36.86 Z2.5
G1  F3000 X80 Y37.57 Z2.5
G1 F59 E0.344724
G92 E0
G92 E0
G1 F59 E0
G1  F3000 X80.71 Y36.86 Z2.5
G92 E0
G92 E0
G1  F3000 X163.14 Y80.71 Z3
G1  F3000 X162.43 Y80 Z3
G1 F59 E0.344724
G92 E0
G92 E0
G1 F59 E0
G1  F3000 X163.14 Y80.71 Z3
G92 E0
G92 E0
G1  F3000 X119.29 Y123.14 Z3
G1  F3000 X120 Y122.43 Z3
G1 F59 E0.344724
G92 E0
G92 E0
G1 F59 E0
G1  F3000 X119.29 Y123.14 Z3
G92 E0
G92 E0
G1  F3000 X76.86 Y79.29 Z3
G1  F3000 X77.57 Y80 Z3
G1 F59 E0.344724
G92 E0
G92 E0
G1 F59 E0
G1  F3000 X76.86 Y79.29 Z3
G92 E0
G92 E0
G1  F3000 X120.71 Y36.86 Z3
G1  F3000 X120 Y37.57 Z3
G1 F59 E0.344724
G92 E0
G92 E0
G1 F59 E0
G1  F3000 X120.71 Y36.86 Z3
G92 E0
G92 E0
G1  F3000 X143.14 Y80.71 Z3
G1  F3000 X142.43 Y80 Z3
G1 F59 E0.344724
G92 E0
G92 E0
G1 F59 E0
G1  F3000 X143.14 Y80.71 Z3
G92 E0
G92 E0
G1  F3000 X99.29 Y123.14 Z3
G1  F3000 X100 Y122.43 Z3
G1 F59 E0.344724
G92 E0
G92 E0
G1 F59 E0
G1  F3000 X99.29 Y123.14 Z3
G92 E0
G92 E0
G1  F3000 X56.86 Y79.29 Z3
G1  F3000 X57.57 Y80 Z3
G1 F59 E0.344724
G92 E0
G92 E0
G1 F59 E0
G1  F3000 X56.86 Y79.29 Z3
G92 E0
G92 E0
G1  F3000 X100.71 Y36.86 Z3
G1  F3000 X100 Y37.57 Z3
G1 F59 E0.344724
G92 E0
G92 E0
G1 F59 E0
G1  F3000 X100.71 Y36.86 Z3
G92 E0
G92 E0
G1  F3000 X123.14 Y80.71 Z3
G1  F3000 X122.43 Y80 Z3
G1 F59 E0.344724
G92 E0
G92 E0
G1 F59 E0
G1  F3000 X123.14 Y80.71 Z3
G92 E0
G92 E0
G1  F3000 X79.29 Y123.14 Z3
G1  F3000 X80 Y122.43 Z3
G1 F59 E0.344724
G92 E0
G92 E0
G1 F59 E0
G1  F3000 X79.29 Y123.14 Z3
G92 E0
G92 E0
G1  F3000 X36.86 Y79.29 Z3
G1  F3000 X37.57 Y80 Z3
G1 F59 E0.344724
G92 E0
G92 E0
G1 F59 E0
G1  F3000 X36.86 Y79.29 Z3
G92 E0
G92 E0
G1  F3000 X80.71 Y36.86 Z3
G1  F3000 X80 Y37.57 Z3
G1 F59 E0.344724
G92 E0
G92 E0
G1 F59 E0
G1  F3000 X80.71 Y36.86 Z3
G92 E0
G92 E0
G1  F3000 X163.14 Y80.71 Z3.5
G1  F3000 X162.43 Y80 Z3.5
G1 F59 E0.344724
G92 E0
G92 E0
G1 F59 E0
G1  F3000 X163.14 Y80.71 Z3.5
G92 E0
G92 E0
G1  F3000 X119.29 Y123.14 Z3.5
G1  F3000 X120 Y122.43 Z3.5
G1 F59 E0.344724
G92 E0
G92 E0
G1 F59 E0
G1  F3000 X119.29 Y123.14 Z3.5
G92 E0
G92 E0
G1  F3000 X76.86 Y79.29 Z3.5
G1  F3000 X77.57 Y80 Z3.5
G1 F59 E0.344724
G92 E0
G92 E0
G1 F59 E0
G1  F3000 X76.86 Y79.29 Z3.5
G92 E0
G92 E0
G1  F3000 X120.71 Y36.86 Z3.5
G1  F3000 X120 Y37.57 Z3.5
G1 F59 E0.344724
G92 E0
G92 E0
G1 F59 E0
G1  F3000 X120.71 Y36.86 Z3.5
G92 E0
G92 E0
G1  F3000 X143.14 Y80.71 Z3.5
G1  F3000 X142.43 Y80 Z3.5
G1 F59 E0.344724
G92 E0
G92 E0
G1 F59 E0
G1  F3000 X143.14 Y80.71 Z3.5
G92 E0
G92 E0
G1  F3000 X99.29 Y123.14 Z3.5
G1  F3000 X100 Y122.43 Z3.5
G1 F59 E0.344724
G92 E0
G92 E0
G1 F59 E0
G1  F3000 X99.29 Y123.14 Z3.5
G92 E0
G92 E0
G1  F3000 X56.86 Y79.29 Z3.5
G1  F3000 X57.57 Y80 Z3.5
G1 F59 E0.344724
G92 E0
G92 E0
G1 F59 E0
G1  F3000 X56.86 Y79.29 Z3.5
G92 E0
G92 E0
G1  F3000 X100.71 Y36.86 Z3.5
G1  F3000 X100 Y37.57 Z3.5
G1 F59 E0.344724
G92 E0
G92 E0
G1 F59 E0
G1  F3000 X100.71 Y36.86 Z3.5
G92 E0
G92 E0
G1  F3000 X123.14 Y80.71 Z3.5
G1  F3000 X122.43 Y80 Z3.5
G1 F59 E0.344724
G92 E0
G92 E0
G1 F59 E0
G1  F3000 X123.14 Y80.71 Z3.5
G92 E0
G92 E0
G1  F3000 X79.29 Y123.14 Z3.5
G1  F3000 X80 Y122.43 Z3.5
G1 F59 E0.344724
G92 E0
G92 E0
G1 F59 E0
G1  F3000 X79.29 Y123.14 Z3.5
G92 E0
G92 E0
G1  F3000 X36.86 Y79.29 Z3.5
G1  F3000 X37.57 Y80 Z3.5
G1 F59 E0.344724
G92 E0
G92 E0
G1 F59 E0
G1  F3000 X36.86 Y79.29 Z3.5
G92 E0
G92 E0
G1  F3000 X80.71 Y36.86 Z3.5
G1  F3000 X80 Y37.57 Z3.5
G1 F59 E0.344724
G92 E0
G92 E0
G1 F59 E0
G1  F3000 X80.71 Y36.86 Z3.5
G92 E0
G92 E0
G1  F3000 X163.14 Y80.71 Z4
G1  F3000 X162.43 Y80 Z4
G1 F59 E0.344724
G92 E0
G92 E0
G1 F59 E0
G1  F3000 X163.14 Y80.71 Z4
G92 E0
G92 E0
G1  F3000 X119.29 Y123.14 Z4
G1  F3000 X120 Y122.43 Z4
G1 F59 E0.344724
G92 E0
G92 E0
G1 F59 E0
G1  F3000 X119.29 Y123.14 Z4
G92 E0
G92 E0
G1  F3000 X76.86 Y79.29 Z4
G1  F3000 X77.57 Y80 Z4
G1 F59 E0.344724
G92 E0
G92 E0
G1 F59 E0
G1  F3000 X76.86 Y79.29 Z4
G92 E0
G92 E0
G1  F3000 X120.71 Y36.86 Z4
G1  F3000 X120 Y37.57 Z4
G1 F59 E0.344724
G92 E0
G92 E0
G1 F59 E0
G1  F3000 X120.71 Y36.86 Z4
G92 E0
G92 E0
G1  F3000 X143.14 Y80.71 Z4
G1  F3000 X142.43 Y80 Z4
G1 F59 E0.344724
G92 E0
G92 E0
G1 F59 E0
G1  F3000 X143.14 Y80.71 Z4
G92 E0
G92 E0
G1  F3000 X99.29 Y123.14 Z4
G1  F3000 X100 Y122.43 Z4
G1 F59 E0.344724
G92 E0
G92 E0
G1 F59 E0
G1  F3000 X99.29 Y123.14 Z4
G92 E0
G92 E0
G1  F3000 X56.86 Y79.29 Z4
G1  F3000 X57.57 Y80 Z4
G1 F59 E0.344724
G92 E0
G92 E0
G1 F59 E0
G1  F3000 X56.86 Y79.29 Z4
G92 E0
G92 E0
G1  F3000 X100.71 Y36.86 Z4
G1  F3000 X100 Y37.57 Z4
G1 F59 E0.344724
G92 E0
G92 E0
G1 F59 E0
G1  F3000 X100.71 Y36.86 Z4
G92 E0
G92 E0
G1  F3000 X123.14 Y80.71 Z4
G1  F3000 X122.43 Y80 Z4
G1 F59 E0.344724
G92 E0
G92 E0
G1 F59 E0
G1  F3000 X123.14 Y80.71 Z4
G92 E0
G92 E0
G1  F3000 X79.29 Y123.14 Z4
G1  F3000 X80 Y122.43 Z4
G1 F59 E0.344724
G92 E0
G92 E0
G1 F59 E0
G1  F3000 X79.29 Y123.14 Z4
G92 E0
G92 E0
G1  F3000 X36.86 Y79.29 Z4
G1  F3000 X37.57 Y80 Z4
G1 F59 E0.344724
G92 E0
G92 E0
G1 F59 E0
G1  F3000 X36.86 Y79.29 Z4
G92 E0
G92 E0
G1  F3000 X80.71 Y36.86 Z4
G1  F3000 X80 Y37.57 Z4
G1 F59 E0.344724
G92 E0
G92 E0
G1 F59 E0
G1  F3000 X80.71 Y36.86 Z4
G92 E0
G92 E0
G1  F3000 X163.14 Y80.71 Z4.5
G1  F3000 X162.43 Y80 Z4.5
G1 F59 E0.344724
G92 E0
G92 E0
G1 F59 E0
G1  F3000 X163.14 Y80.71 Z4.5
G92 E0
G92 E0
G1  F3000 X119.29 Y123.14 Z4.5
G1  F3000 X120 Y122.43 Z4.5
G1 F59 E0.344724
G92 E0
G92 E0
G1 F59 E0
G1  F3000 X119.29 Y123.14 Z4.5
G92 E0
G92 E0
G1  F3000 X76.86 Y79.29 Z4.5
G1  F3000 X77.57 Y80 Z4.5
G1 F59 E0.344724
G92 E0
G92 E0
G1 F59 E0
G1  F3000 X76.86 Y79.29 Z4.5
G92 E0
G92 E0
G1  F3000 X120.71 Y36.86 Z4.5
G1  F3000 X120 Y37.57 Z4.5
G1 F59 E0.344724
G92 E0
G92 E0
G1 F59 E0
G1  F3000 X120.71 Y36.86 Z4.5
G92 E0
G92 E0
G1  F3000 X143.14 Y80.71 Z4.5
G1  F3000 X142.43 Y80 Z4.5
G1 F59 E0.344724
G92 E0
G92 E0
G1 F59 E0
G1  F3000 X143.14 Y80.71 Z4.5
G92 E0
G92 E0
G1  F3000 X99.29 Y123.14 Z4.5
G1  F3000 X100 Y122.43 Z4.5
G1 F59 E0.344724
G92 E0
G92 E0
G1 F59 E0
G1  F3000 X99.29 Y123.14 Z4.5
G92 E0
G92 E0
G1  F3000 X56.86 Y79.29 Z4.5
G1  F3000 X57.57 Y80 Z4.5
G1 F59 E0.344724
G92 E0
G92 E0
G1 F59 E0
G1  F3000 X56.86 Y79.29 Z4.5
G92 E0
G92 E0
G1  F3000 X100.71 Y36.86 Z4.5
G1  F3000 X100 Y37.57 Z4.5
G1 F59 E0.344724
G92 E0
G92 E0
G1 F59 E0
G1  F3000 X100.71 Y36.86 Z4.5
G92 E0
G92 E0
G1  F3000 X123.14 Y80.71 Z4.5
G1  F3000 X122.43 Y80 Z4.5
G1 F59 E0.344724
G92 E0
G92 E0
G1 F59 E0
G1  F3000 X123.14 Y80.71 Z4.5
G92 E0
G92 E0
G1  F3000 X79.29 Y123.14 Z4.5
G1  F3000 X80 Y122.43 Z4.5
G1 F59 E0.344724
G92 E0
G92 E0
G1 F59 E0
G1  F3000 X79.29 Y123.14 Z4.5
G92 E0
G92 E0
G1  F3000 X36.86 Y79.29 Z4.5
G1  F3000 X37.57 Y80 Z4.5
G1 F59 E0.344724
G92 E0
G92 E0
G1 F59 E0
G1  F3000 X36.86 Y79.29 Z4.5
G92 E0
G92 E0
G1  F3000 X80.71 Y36.86 Z4.5
G1  F3000 X80 Y37.57 Z4.5
G1 F59 E0.344724
G92 E0
G92 E0
G1 F59 E0
G1  F3000 X80.71 Y36.86 Z4.5
G92 E0
G92 E0
G1  F3000 X163.14 Y80.71 Z5
