;START_OF_HEADER
;HEADER_VERSION:0.1
;FLAVOR:Griffin
;GENERATOR.NAME:Cura_SteamEngine
;GENERATOR.VERSION:4.7.1
;GENERATOR.BUILD_DATE:2020-09-02
;TARGET_MACHINE.NAME:Ultimaker 3
;EXTRUDER_TRAIN.0.INITIAL_TEMPERATURE:205
;EXTRUDER_TRAIN.0.MATERIAL.VOLUME_USED:81
;EXTRUDER_TRAIN.0.MATERIAL.GUID:506c9f0d-e3aa-4bd4-b2d2-23e2425b1aa9
;EXTRUDER_TRAIN.0.NOZZLE.DIAMETER:0.4
;EXTRUDER_TRAIN.0.NOZZLE.NAME:AA 0.4
;BUILD_PLATE.TYPE:glass
;BUILD_PLATE.INITIAL_TEMPERATURE:60
;PRINT.TIME:95
;PRINT.GROUPS:1
;PRINT.SIZE.MIN.X:9
;PRINT.SIZE.MIN.Y:6
;PRINT.SIZE.MIN.Z:0.27
;PRINT.SIZE.MAX.X:125.628
;PRINT.SIZE.MAX.Y:116.295
;PRINT.SIZE.MAX.Z:3.87
;END_OF_HEADER
;Generated with Cura_SteamEngine 4.7.1
T0
M82 ;absolute extrusion mode

G92 E0
M109 S200
G0 F15000 X9 Y6 Z2
G280
G1 F1500 E-6.5
;LAYER_COUNT:39
;LAYER:0
M107
M204 S625
M205 X6 Y6
G1 F600 Z2.27
G0 F4285.7 X109.682 Y101.958 Z2.27
M204 S500
M205 X5 Y5
;- END OF START GCODE - 
 G28 ; home all axes
M82 ; use absolute distances for extrusion
G90 ; use absolute coordinates
G21 ; set units to millimeters
G92 E0 ; reset extrusion distance
M104 S185 ; set temperature
M109 S185 ; wait for temperature to be reached
G1 Z0.0 F360 E1
G92 E0
G1  F6000 X112.21 Y74.64 Z0
G1 F1200 X95.99 Y67.54 Z0 E1.45
G1 F1200 X70.8 Y77.62 Z0 E3.66
G1 F1200 X59.08 Y59.5 Z0 E5.42
G1 F1200 X120.86 Y59.5 Z0 E10.46
G1 F1200 X112.21 Y74.64 Z0 E11.89
G92 E0
G1  F6000 X112 Y74 Z0
G1 F1200 X96 Y67 Z0 E1.43
G1 F1200 X71 Y77 Z0 E3.62
G1 F1200 X60 Y60 Z0 E5.28
G1 F1200 X120 Y60 Z0 E10.17
G1 F1200 X112 Y74 Z0 E11.49
G92 E0
G1  F6000 X111.79 Y73.36 Z0
G1 F1200 X96.01 Y66.46 Z0 E1.41
G1 F1200 X71.2 Y76.38 Z0 E3.59
G1 F1200 X60.92 Y60.5 Z0 E5.13
G1 F1200 X119.14 Y60.5 Z0 E9.88
G1 F1200 X111.79 Y73.36 Z0 E11.09
G92 E0
G1  F6000 X112.21 Y74.64 Z0.5
G1 F1200 X95.99 Y67.54 Z0.5 E1.45
G1 F1200 X70.8 Y77.62 Z0.5 E3.66
G1 F1200 X59.08 Y59.5 Z0.5 E5.42
G1 F1200 X120.86 Y59.5 Z0.5 E10.46
G1 F1200 X112.21 Y74.64 Z0.5 E11.89
G92 E0
G1  F6000 X112 Y74 Z0.5
G1 F1200 X96 Y67 Z0.5 E1.43
G1 F1200 X71 Y77 Z0.5 E3.62
G1 F1200 X60 Y60 Z0.5 E5.28
G1 F1200 X120 Y60 Z0.5 E10.17
G1 F1200 X112 Y74 Z0.5 E11.49
G92 E0
G1  F6000 X111.79 Y73.36 Z0.5
G1 F1200 X96.01 Y66.46 Z0.5 E1.41
G1 F1200 X71.2 Y76.38 Z0.5 E3.59
G1 F1200 X60.92 Y60.5 Z0.5 E5.13
G1 F1200 X119.14 Y60.5 Z0.5 E9.88
G1 F1200 X111.79 Y73.36 Z0.5 E11.09
G92 E0
G1  F6000 X112.21 Y74.64 Z1
G1 F1200 X95.99 Y67.54 Z1 E1.45
G1 F1200 X70.8 Y77.62 Z1 E3.66
G1 F1200 X59.08 Y59.5 Z1 E5.42
G1 F1200 X120.86 Y59.5 Z1 E10.46
G1 F1200 X112.21 Y74.64 Z1 E11.89
G92 E0
G1  F6000 X112 Y74 Z1
G1 F1200 X96 Y67 Z1 E1.43
G1 F1200 X71 Y77 Z1 E3.62
G1 F1200 X60 Y60 Z1 E5.28
G1 F1200 X120 Y60 Z1 E10.17
G1 F1200 X112 Y74 Z1 E11.49
G92 E0
G1  F6000 X111.79 Y73.36 Z1
G1 F1200 X96.01 Y66.46 Z1 E1.41
G1 F1200 X71.2 Y76.38 Z1 E3.59
G1 F1200 X60.92 Y60.5 Z1 E5.13
G1 F1200 X119.14 Y60.5 Z1 E9.88
G1 F1200 X111.79 Y73.36 Z1 E11.09
G92 E0
G1  F5000 X95.08 Y66.6 Z1.5
G1  F5000 X96 Y67 Z1.5
G1 F59 E0.344724
G92 E0
G92 E0
G1 F59 E0
G1  F5000 X95.08 Y66.6 Z1.5
G92 E0
G92 E0
G1  F5000 X70.07 Y77.37 Z1.5
G1  F5000 X71 Y77 Z1.5
G1 F59 E0.344724
G92 E0
G92 E0
G1 F59 E0
G1  F5000 X70.07 Y77.37 Z1.5
G92 E0
G92 E0
G1  F5000 X59.46 Y59.16 Z1.5
G1  F5000 X60 Y60 Z1.5
G1 F59 E0.344724
G92 E0
G92 E0
G1 F59 E0
G1  F5000 X59.46 Y59.16 Z1.5
G92 E0
G92 E0
G1  F5000 X121 Y60 Z1.5
G1  F5000 X120 Y60 Z1.5
G1 F59 E0.344724
G92 E0
G92 E0
G1 F59 E0
G1  F5000 X121 Y60 Z1.5
G92 E0
G92 E0
G1  F5000 X111.5 Y74.87 Z1.5
G1  F5000 X112 Y74 Z1.5
G1 F59 E0.344724
G92 E0
G92 E0
G1 F59 E0
G1  F5000 X111.5 Y74.87 Z1.5
G92 E0
G92 E0
G1  F5000 X95.08 Y66.6 Z2
G1  F5000 X96 Y67 Z2
G1 F59 E0.344724
G92 E0
G92 E0
G1 F59 E0
G1  F5000 X95.08 Y66.6 Z2
G92 E0
G92 E0
G1  F5000 X70.07 Y77.37 Z2
G1  F5000 X71 Y77 Z2
G1 F59 E0.344724
G92 E0
G92 E0
G1 F59 E0
G1  F5000 X70.07 Y77.37 Z2
G92 E0
G92 E0
G1  F5000 X59.46 Y59.16 Z2
G1  F5000 X60 Y60 Z2
G1 F59 E0.344724
G92 E0
G92 E0
G1 F59 E0
G1  F5000 X59.46 Y59.16 Z2
G92 E0
G92 E0
G1  F5000 X121 Y60 Z2
G1  F5000 X120 Y60 Z2
G1 F59 E0.344724
G92 E0
G92 E0
G1 F59 E0
G1  F5000 X121 Y60 Z2
G92 E0
G92 E0
G1  F5000 X111.5 Y74.87 Z2
G1  F5000 X112 Y74 Z2
G1 F59 E0.344724
G92 E0
G92 E0
G1 F59 E0
G1  F5000 X111.5 Y74.87 Z2
G92 E0
G92 E0
G1  F5000 X95.08 Y66.6 Z2.5
G1  F5000 X96 Y67 Z2.5
G1 F59 E0.344724
G92 E0
G92 E0
G1 F59 E0
G1  F5000 X95.08 Y66.6 Z2.5
G92 E0
G92 E0
G1  F5000 X70.07 Y77.37 Z2.5
G1  F5000 X71 Y77 Z2.5
G1 F59 E0.344724
G92 E0
G92 E0
G1 F59 E0
G1  F5000 X70.07 Y77.37 Z2.5
G92 E0
G92 E0
G1  F5000 X59.46 Y59.16 Z2.5
G1  F5000 X60 Y60 Z2.5
G1 F59 E0.344724
G92 E0
G92 E0
G1 F59 E0
G1  F5000 X59.46 Y59.16 Z2.5
G92 E0
G92 E0
G1  F5000 X121 Y60 Z2.5
G1  F5000 X120 Y60 Z2.5
G1 F59 E0.344724
G92 E0
G92 E0
G1 F59 E0
G1  F5000 X121 Y60 Z2.5
G92 E0
G92 E0
G1  F5000 X111.5 Y74.87 Z2.5
G1  F5000 X112 Y74 Z2.5
G1 F59 E0.344724
G92 E0
G92 E0
G1 F59 E0
G1  F5000 X111.5 Y74.87 Z2.5
G92 E0
G92 E0
G1  F5000 X95.08 Y66.6 Z3
G1  F5000 X96 Y67 Z3
G1 F59 E0.344724
G92 E0
G92 E0
G1 F59 E0
G1  F5000 X95.08 Y66.6 Z3
G92 E0
G92 E0
G1  F5000 X70.07 Y77.37 Z3
G1  F5000 X71 Y77 Z3
G1 F59 E0.344724
G92 E0
G92 E0
G1 F59 E0
G1  F5000 X70.07 Y77.37 Z3
G92 E0
G92 E0
G1  F5000 X59.46 Y59.16 Z3
G1  F5000 X60 Y60 Z3
G1 F59 E0.344724
G92 E0
G92 E0
G1 F59 E0
G1  F5000 X59.46 Y59.16 Z3
G92 E0
G92 E0
G1  F5000 X121 Y60 Z3
G1  F5000 X120 Y60 Z3
G1 F59 E0.344724
G92 E0
G92 E0
G1 F59 E0
G1  F5000 X121 Y60 Z3
G92 E0
G92 E0
G1  F5000 X111.5 Y74.87 Z3
G1  F5000 X112 Y74 Z3
G1 F59 E0.344724
G92 E0
G92 E0
G1 F59 E0
G1  F5000 X111.5 Y74.87 Z3
G92 E0
G92 E0
G1  F5000 X95.08 Y66.6 Z3.5
G1  F5000 X96 Y67 Z3.5
G1 F59 E0.344724
G92 E0
G92 E0
G1 F59 E0
G1  F5000 X95.08 Y66.6 Z3.5
G92 E0
G92 E0
G1  F5000 X70.07 Y77.37 Z3.5
G1  F5000 X71 Y77 Z3.5
G1 F59 E0.344724
G92 E0
G92 E0
G1 F59 E0
G1  F5000 X70.07 Y77.37 Z3.5
G92 E0
G92 E0
G1  F5000 X59.46 Y59.16 Z3.5
G1  F5000 X60 Y60 Z3.5
G1 F59 E0.344724
G92 E0
G92 E0
G1 F59 E0
G1  F5000 X59.46 Y59.16 Z3.5
G92 E0
G92 E0
G1  F5000 X121 Y60 Z3.5
G1  F5000 X120 Y60 Z3.5
G1 F59 E0.344724
G92 E0
G92 E0
G1 F59 E0
G1  F5000 X121 Y60 Z3.5
G92 E0
G92 E0
G1  F5000 X111.5 Y74.87 Z3.5
G1  F5000 X112 Y74 Z3.5
G1 F59 E0.344724
G92 E0
G92 E0
G1 F59 E0
G1  F5000 X111.5 Y74.87 Z3.5
G92 E0
G92 E0
G1  F5000 X95.08 Y66.6 Z4
G1  F5000 X96 Y67 Z4
G1 F59 E0.344724
G92 E0
G92 E0
G1 F59 E0
G1  F5000 X95.08 Y66.6 Z4
G92 E0
G92 E0
G1  F5000 X70.07 Y77.37 Z4
G1  F5000 X71 Y77 Z4
G1 F59 E0.344724
G92 E0
G92 E0
G1 F59 E0
G1  F5000 X70.07 Y77.37 Z4
G92 E0
G92 E0
G1  F5000 X59.46 Y59.16 Z4
G1  F5000 X60 Y60 Z4
G1 F59 E0.344724
G92 E0
G92 E0
G1 F59 E0
G1  F5000 X59.46 Y59.16 Z4
G92 E0
G92 E0
G1  F5000 X121 Y60 Z4
G1  F5000 X120 Y60 Z4
G1 F59 E0.344724
G92 E0
G92 E0
G1 F59 E0
G1  F5000 X121 Y60 Z4
G92 E0
G92 E0
G1  F5000 X111.5 Y74.87 Z4
G1  F5000 X112 Y74 Z4
G1 F59 E0.344724
G92 E0
G92 E0
G1 F59 E0
G1  F5000 X111.5 Y74.87 Z4
G92 E0
G92 E0
G1  F5000 X95.08 Y66.6 Z4.5
G1  F5000 X96 Y67 Z4.5
G1 F59 E0.344724
G92 E0
G92 E0
G1 F59 E0
G1  F5000 X95.08 Y66.6 Z4.5
G92 E0
G92 E0
G1  F5000 X70.07 Y77.37 Z4.5
G1  F5000 X71 Y77 Z4.5
G1 F59 E0.344724
G92 E0
G92 E0
G1 F59 E0
G1  F5000 X70.07 Y77.37 Z4.5
G92 E0
G92 E0
G1  F5000 X59.46 Y59.16 Z4.5
G1  F5000 X60 Y60 Z4.5
G1 F59 E0.344724
G92 E0
G92 E0
G1 F59 E0
G1  F5000 X59.46 Y59.16 Z4.5
G92 E0
G92 E0
G1  F5000 X121 Y60 Z4.5
G1  F5000 X120 Y60 Z4.5
G1 F59 E0.344724
G92 E0
G92 E0
G1 F59 E0
G1  F5000 X121 Y60 Z4.5
G92 E0
G92 E0
G1  F5000 X111.5 Y74.87 Z4.5
G1  F5000 X112 Y74 Z4.5
G1 F59 E0.344724
G92 E0
G92 E0
G1 F59 E0
G1  F5000 X111.5 Y74.87 Z4.5
G92 E0
G92 E0
G1  F5000 X95.08 Y66.6 Z5
G1  F5000 X96 Y67 Z5
G1 F59 E0.344724
G92 E0
G92 E0
G1 F59 E0
G1  F5000 X95.08 Y66.6 Z5
G92 E0
G92 E0
G1  F5000 X70.07 Y77.37 Z5
G1  F5000 X71 Y77 Z5
G1 F59 E0.344724
G92 E0
G92 E0
G1 F59 E0
G1  F5000 X70.07 Y77.37 Z5
G92 E0
G92 E0
G1  F5000 X59.46 Y59.16 Z5
G1  F5000 X60 Y60 Z5
G1 F59 E0.344724
G92 E0
G92 E0
G1 F59 E0
G1  F5000 X59.46 Y59.16 Z5
G92 E0
G92 E0
G1  F5000 X121 Y60 Z5
G1  F5000 X120 Y60 Z5
G1 F59 E0.344724
G92 E0
G92 E0
G1 F59 E0
G1  F5000 X121 Y60 Z5
G92 E0
G92 E0
G1  F5000 X111.5 Y74.87 Z5
G1  F5000 X112 Y74 Z5
G1 F59 E0.344724
G92 E0
G92 E0
G1 F59 E0
G1  F5000 X111.5 Y74.87 Z5
G92 E0
G92 E0
G1  F5000 X95.08 Y66.6 Z5.5
G1  F5000 X96 Y67 Z5.5
G1 F59 E0.344724
G92 E0
G92 E0
G1 F59 E0
G1  F5000 X95.08 Y66.6 Z5.5
G92 E0
G92 E0
G1  F5000 X70.07 Y77.37 Z5.5
G1  F5000 X71 Y77 Z5.5
G1 F59 E0.344724
G92 E0
G92 E0
G1 F59 E0
G1  F5000 X70.07 Y77.37 Z5.5
G92 E0
G92 E0
G1  F5000 X59.46 Y59.16 Z5.5
G1  F5000 X60 Y60 Z5.5
G1 F59 E0.344724
G92 E0
G92 E0
G1 F59 E0
G1  F5000 X59.46 Y59.16 Z5.5
G92 E0
G92 E0
G1  F5000 X121 Y60 Z5.5
G1  F5000 X120 Y60 Z5.5
G1 F59 E0.344724
G92 E0
G92 E0
G1 F59 E0
G1  F5000 X121 Y60 Z5.5
G92 E0
G92 E0
G1  F5000 X111.5 Y74.87 Z5.5
G1  F5000 X112 Y74 Z5.5
G1 F59 E0.344724
G92 E0
G92 E0
G1 F59 E0
G1  F5000 X111.5 Y74.87 Z5.5
G92 E0
G92 E0
G1  F5000 X95.08 Y66.6 Z6
G1  F5000 X96 Y67 Z6
G1 F59 E0.344724
G92 E0
G92 E0
G1 F59 E0
G1  F5000 X95.08 Y66.6 Z6
G92 E0
G92 E0
G1  F5000 X70.07 Y77.37 Z6
G1  F5000 X71 Y77 Z6
G1 F59 E0.344724
G92 E0
G92 E0
G1 F59 E0
G1  F5000 X70.07 Y77.37 Z6
G92 E0
G92 E0
G1  F5000 X59.46 Y59.16 Z6
G1  F5000 X60 Y60 Z6
G1 F59 E0.344724
G92 E0
G92 E0
G1 F59 E0
G1  F5000 X59.46 Y59.16 Z6
G92 E0
G92 E0
G1  F5000 X121 Y60 Z6
G1  F5000 X120 Y60 Z6
G1 F59 E0.344724
G92 E0
G92 E0
G1 F59 E0
G1  F5000 X121 Y60 Z6
G92 E0
G92 E0
G1  F5000 X111.5 Y74.87 Z6
G1  F5000 X112 Y74 Z6
G1 F59 E0.344724
G92 E0
G92 E0
G1 F59 E0
G1  F5000 X111.5 Y74.87 Z6
G92 E0
G92 E0
G1  F5000 X95.08 Y66.6 Z6.5
G1  F5000 X96 Y67 Z6.5
G1 F59 E0.344724
G92 E0
G92 E0
G1 F59 E0
G1  F5000 X95.08 Y66.6 Z6.5
G92 E0
G92 E0
G1  F5000 X70.07 Y77.37 Z6.5
G1  F5000 X71 Y77 Z6.5
G1 F59 E0.344724
G92 E0
G92 E0
G1 F59 E0
G1  F5000 X70.07 Y77.37 Z6.5
G92 E0
G92 E0
G1  F5000 X59.46 Y59.16 Z6.5
G1  F5000 X60 Y60 Z6.5
G1 F59 E0.344724
G92 E0
G92 E0
G1 F59 E0
G1  F5000 X59.46 Y59.16 Z6.5
G92 E0
G92 E0
G1  F5000 X121 Y60 Z6.5
G1  F5000 X120 Y60 Z6.5
G1 F59 E0.344724
G92 E0
G92 E0
G1 F59 E0
G1  F5000 X121 Y60 Z6.5
G92 E0
G92 E0
G1  F5000 X111.5 Y74.87 Z6.5
G1  F5000 X112 Y74 Z6.5
G1 F59 E0.344724
G92 E0
G92 E0
G1 F59 E0
G1  F5000 X111.5 Y74.87 Z6.5
G92 E0
G92 E0
G1  F5000 X95.08 Y66.6 Z7
G1  F5000 X96 Y67 Z7
G1 F59 E0.344724
G92 E0
G92 E0
G1 F59 E0
G1  F5000 X95.08 Y66.6 Z7
G92 E0
G92 E0
G1  F5000 X70.07 Y77.37 Z7
G1  F5000 X71 Y77 Z7
G1 F59 E0.344724
G92 E0
G92 E0
G1 F59 E0
G1  F5000 X70.07 Y77.37 Z7
G92 E0
G92 E0
G1  F5000 X59.46 Y59.16 Z7
G1  F5000 X60 Y60 Z7
G1 F59 E0.344724
G92 E0
G92 E0
G1 F59 E0
G1  F5000 X59.46 Y59.16 Z7
G92 E0
G92 E0
G1  F5000 X121 Y60 Z7
G1  F5000 X120 Y60 Z7
G1 F59 E0.344724
G92 E0
G92 E0
G1 F59 E0
G1  F5000 X121 Y60 Z7
G92 E0
G92 E0
G1  F5000 X111.5 Y74.87 Z7
G1  F5000 X112 Y74 Z7
G1 F59 E0.344724
G92 E0
G92 E0
G1 F59 E0
G1  F5000 X111.5 Y74.87 Z7
G92 E0
G92 E0
G1  F5000 X95.08 Y66.6 Z7.5
G1  F5000 X96 Y67 Z7.5
G1 F59 E0.344724
G92 E0
G92 E0
G1 F59 E0
G1  F5000 X95.08 Y66.6 Z7.5
G92 E0
G92 E0
G1  F5000 X70.07 Y77.37 Z7.5
G1  F5000 X71 Y77 Z7.5
G1 F59 E0.344724
G92 E0
G92 E0
G1 F59 E0
G1  F5000 X70.07 Y77.37 Z7.5
G92 E0
G92 E0
G1  F5000 X59.46 Y59.16 Z7.5
G1  F5000 X60 Y60 Z7.5
G1 F59 E0.344724
G92 E0
G92 E0
G1 F59 E0
G1  F5000 X59.46 Y59.16 Z7.5
G92 E0
G92 E0
G1  F5000 X121 Y60 Z7.5
G1  F5000 X120 Y60 Z7.5
G1 F59 E0.344724
G92 E0
G92 E0
G1 F59 E0
G1  F5000 X121 Y60 Z7.5
G92 E0
G92 E0
G1  F5000 X111.5 Y74.87 Z7.5
G1  F5000 X112 Y74 Z7.5
G1 F59 E0.344724
G92 E0
G92 E0
G1 F59 E0
G1  F5000 X111.5 Y74.87 Z7.5
G92 E0
G92 E0
G1  F5000 X95.08 Y66.6 Z8
G1  F5000 X96 Y67 Z8
G1 F59 E0.344724
G92 E0
G92 E0
G1 F59 E0
G1  F5000 X95.08 Y66.6 Z8
G92 E0
G92 E0
G1  F5000 X70.07 Y77.37 Z8
G1  F5000 X71 Y77 Z8
G1 F59 E0.344724
G92 E0
G92 E0
G1 F59 E0
G1  F5000 X70.07 Y77.37 Z8
G92 E0
G92 E0
G1  F5000 X59.46 Y59.16 Z8
G1  F5000 X60 Y60 Z8
G1 F59 E0.344724
G92 E0
G92 E0
G1 F59 E0
G1  F5000 X59.46 Y59.16 Z8
G92 E0
G92 E0
G1  F5000 X121 Y60 Z8
G1  F5000 X120 Y60 Z8
G1 F59 E0.344724
G92 E0
G92 E0
G1 F59 E0
G1  F5000 X121 Y60 Z8
G92 E0
G92 E0
G1  F5000 X111.5 Y74.87 Z8
G1  F5000 X112 Y74 Z8
G1 F59 E0.344724
G92 E0
G92 E0
G1 F59 E0
G1  F5000 X111.5 Y74.87 Z8
G92 E0
G92 E0
G1  F5000 X95.08 Y66.6 Z8.5
G1  F5000 X96 Y67 Z8.5
G1 F59 E0.344724
G92 E0
G92 E0
G1 F59 E0
G1  F5000 X95.08 Y66.6 Z8.5
G92 E0
G92 E0
G1  F5000 X70.07 Y77.37 Z8.5
G1  F5000 X71 Y77 Z8.5
G1 F59 E0.344724
G92 E0
G92 E0
G1 F59 E0
G1  F5000 X70.07 Y77.37 Z8.5
G92 E0
G92 E0
G1  F5000 X59.46 Y59.16 Z8.5
G1  F5000 X60 Y60 Z8.5
G1 F59 E0.344724
G92 E0
G92 E0
G1 F59 E0
G1  F5000 X59.46 Y59.16 Z8.5
G92 E0
G92 E0
G1  F5000 X121 Y60 Z8.5
G1  F5000 X120 Y60 Z8.5
G1 F59 E0.344724
G92 E0
G92 E0
G1 F59 E0
G1  F5000 X121 Y60 Z8.5
G92 E0
G92 E0
G1  F5000 X111.5 Y74.87 Z8.5
G1  F5000 X112 Y74 Z8.5
G1 F59 E0.344724
G92 E0
G92 E0
G1 F59 E0
G1  F5000 X111.5 Y74.87 Z8.5
G92 E0
G92 E0
G1  F5000 X95.08 Y66.6 Z9
G1  F5000 X96 Y67 Z9
G1 F59 E0.344724
G92 E0
G92 E0
G1 F59 E0
G1  F5000 X95.08 Y66.6 Z9
G92 E0
G92 E0
G1  F5000 X70.07 Y77.37 Z9
G1  F5000 X71 Y77 Z9
G1 F59 E0.344724
G92 E0
G92 E0
G1 F59 E0
G1  F5000 X70.07 Y77.37 Z9
G92 E0
G92 E0
G1  F5000 X59.46 Y59.16 Z9
G1  F5000 X60 Y60 Z9
G1 F59 E0.344724
G92 E0
G92 E0
G1 F59 E0
G1  F5000 X59.46 Y59.16 Z9
G92 E0
G92 E0
G1  F5000 X121 Y60 Z9
G1  F5000 X120 Y60 Z9
G1 F59 E0.344724
G92 E0
G92 E0
G1 F59 E0
G1  F5000 X121 Y60 Z9
G92 E0
G92 E0
G1  F5000 X111.5 Y74.87 Z9
G1  F5000 X112 Y74 Z9
G1 F59 E0.344724
G92 E0
G92 E0
G1 F59 E0
G1  F5000 X111.5 Y74.87 Z9
G92 E0
G92 E0
G1  F5000 X95.08 Y66.6 Z9.5
G1  F5000 X96 Y67 Z9.5
G1 F59 E0.344724
G92 E0
G92 E0
G1 F59 E0
G1  F5000 X95.08 Y66.6 Z9.5
G92 E0
G92 E0
G1  F5000 X70.07 Y77.37 Z9.5
G1  F5000 X71 Y77 Z9.5
G1 F59 E0.344724
G92 E0
G92 E0
G1 F59 E0
G1  F5000 X70.07 Y77.37 Z9.5
G92 E0
G92 E0
G1  F5000 X59.46 Y59.16 Z9.5
G1  F5000 X60 Y60 Z9.5
G1 F59 E0.344724
G92 E0
G92 E0
G1 F59 E0
G1  F5000 X59.46 Y59.16 Z9.5
G92 E0
G92 E0
G1  F5000 X121 Y60 Z9.5
G1  F5000 X120 Y60 Z9.5
G1 F59 E0.344724
G92 E0
G92 E0
G1 F59 E0
G1  F5000 X121 Y60 Z9.5
G92 E0
G92 E0
G1  F5000 X111.5 Y74.87 Z9.5
G1  F5000 X112 Y74 Z9.5
G1 F59 E0.344724
G92 E0
G92 E0
G1 F59 E0
G1  F5000 X111.5 Y74.87 Z9.5
G92 E0
G92 E0
G1  F5000 X95.08 Y66.6 Z10
G1  F5000 X96 Y67 Z10
G1 F59 E0.344724
G92 E0
G92 E0
G1 F59 E0
G1  F5000 X95.08 Y66.6 Z10
G92 E0
G92 E0
G1  F5000 X70.07 Y77.37 Z10
G1  F5000 X71 Y77 Z10
G1 F59 E0.344724
G92 E0
G92 E0
G1 F59 E0
G1  F5000 X70.07 Y77.37 Z10
G92 E0
G92 E0
G1  F5000 X59.46 Y59.16 Z10
G1  F5000 X60 Y60 Z10
G1 F59 E0.344724
G92 E0
G92 E0
G1 F59 E0
G1  F5000 X59.46 Y59.16 Z10
G92 E0
G92 E0
G1  F5000 X121 Y60 Z10
G1  F5000 X120 Y60 Z10
G1 F59 E0.344724
G92 E0
G92 E0
G1 F59 E0
G1  F5000 X121 Y60 Z10
G92 E0
G92 E0
G1  F5000 X111.5 Y74.87 Z10
G1  F5000 X112 Y74 Z10
G1 F59 E0.344724
G92 E0
G92 E0
G1 F59 E0
G1  F5000 X111.5 Y74.87 Z10
G92 E0
G92 E0
G1  F5000 X95.08 Y66.6 Z10.5
G1  F5000 X96 Y67 Z10.5
G1 F59 E0.344724
G92 E0
G92 E0
G1 F59 E0
G1  F5000 X95.08 Y66.6 Z10.5
G92 E0
G92 E0
G1  F5000 X70.07 Y77.37 Z10.5
G1  F5000 X71 Y77 Z10.5
G1 F59 E0.344724
G92 E0
G92 E0
G1 F59 E0
G1  F5000 X70.07 Y77.37 Z10.5
G92 E0
G92 E0
G1  F5000 X59.46 Y59.16 Z10.5
G1  F5000 X60 Y60 Z10.5
G1 F59 E0.344724
G92 E0
G92 E0
G1 F59 E0
G1  F5000 X59.46 Y59.16 Z10.5
G92 E0
G92 E0
G1  F5000 X121 Y60 Z10.5
G1  F5000 X120 Y60 Z10.5
G1 F59 E0.344724
G92 E0
G92 E0
G1 F59 E0
G1  F5000 X121 Y60 Z10.5
G92 E0
G92 E0
G1  F5000 X111.5 Y74.87 Z10.5
G1  F5000 X112 Y74 Z10.5
G1 F59 E0.344724
G92 E0
G92 E0
G1 F59 E0
G1  F5000 X111.5 Y74.87 Z10.5
G92 E0
G92 E0
G1  F5000 X95.08 Y66.6 Z11
G1  F5000 X96 Y67 Z11
G1 F59 E0.344724
G92 E0
G92 E0
G1 F59 E0
G1  F5000 X95.08 Y66.6 Z11
G92 E0
G92 E0
G1  F5000 X70.07 Y77.37 Z11
G1  F5000 X71 Y77 Z11
G1 F59 E0.344724
G92 E0
G92 E0
G1 F59 E0
G1  F5000 X70.07 Y77.37 Z11
G92 E0
G92 E0
G1  F5000 X59.46 Y59.16 Z11
G1  F5000 X60 Y60 Z11
G1 F59 E0.344724
G92 E0
G92 E0
G1 F59 E0
G1  F5000 X59.46 Y59.16 Z11
G92 E0
G92 E0
G1  F5000 X121 Y60 Z11
G1  F5000 X120 Y60 Z11
G1 F59 E0.344724
G92 E0
G92 E0
G1 F59 E0
G1  F5000 X121 Y60 Z11
G92 E0
G92 E0
G1  F5000 X111.5 Y74.87 Z11
G1  F5000 X112 Y74 Z11
G1 F59 E0.344724
G92 E0
G92 E0
G1 F59 E0
