;START_OF_HEADER
;HEADER_VERSION:0.1
;FLAVOR:Griffin
;GENERATOR.NAME:Cura_SteamEngine
;GENERATOR.VERSION:4.7.1
;GENERATOR.BUILD_DATE:2020-09-02
;TARGET_MACHINE.NAME:Ultimaker 3
;EXTRUDER_TRAIN.0.INITIAL_TEMPERATURE:205
;EXTRUDER_TRAIN.0.MATERIAL.VOLUME_USED:81
;EXTRUDER_TRAIN.0.MATERIAL.GUID:506c9f0d-e3aa-4bd4-b2d2-23e2425b1aa9
;EXTRUDER_TRAIN.0.NOZZLE.DIAMETER:0.4
;EXTRUDER_TRAIN.0.NOZZLE.NAME:AA 0.4
;BUILD_PLATE.TYPE:glass
;BUILD_PLATE.INITIAL_TEMPERATURE:60
;PRINT.TIME:95
;PRINT.GROUPS:1
;PRINT.SIZE.MIN.X:9
;PRINT.SIZE.MIN.Y:6
;PRINT.SIZE.MIN.Z:0.27
;PRINT.SIZE.MAX.X:125.628
;PRINT.SIZE.MAX.Y:116.295
;PRINT.SIZE.MAX.Z:3.87
;END_OF_HEADER
;Generated with Cura_SteamEngine 4.7.1
T0
M82 ;absolute extrusion mode

G92 E0
M109 S200
G0 F15000 X9 Y6 Z2
G280
G1 F1500 E-6.5
;LAYER_COUNT:39
;LAYER:0
M107
M204 S625
M205 X6 Y6
G1 F600 Z2.27
G0 F4285.7 X109.682 Y101.958 Z2.27
M204 S500
M205 X5 Y5
;- END OF START GCODE - 
 G28 ; home all axes
M82 ; use absolute distances for extrusion
G90 ; use absolute coordinates
G21 ; set units to millimeters
G92 E0 ; reset extrusion distance
M104 S185 ; set temperature
M109 S185 ; wait for temperature to be reached
G1 Z0.0 F360 E1
G92 E0
G1  F6000 X140.9 Y99.8 Z0.5
G1 F1200 X120.62 Y135.32 Z0.5 E3.34
G1 F1200 X79.73 Y135.52 Z0.5 E6.68
G1 F1200 X59.1 Y100.2 Z0.5 E10.02
G1 F1200 X79.38 Y64.68 Z0.5 E13.35
G1 F1200 X120.27 Y64.48 Z0.5 E16.69
G1 F1200 X140.9 Y99.8 Z0.5 E20.03
G92 E0
G1  F6000 X140.13 Y99.8 Z0.5
G1 F1200 X120.24 Y134.66 Z0.5 E3.28
G1 F1200 X80.1 Y134.86 Z0.5 E6.55
G1 F1200 X59.87 Y100.2 Z0.5 E9.83
G1 F1200 X79.76 Y65.34 Z0.5 E13.11
G1 F1200 X119.9 Y65.14 Z0.5 E16.38
G1 F1200 X140.13 Y99.8 Z0.5 E19.66
G92 E0
G1  F6000 X139.37 Y99.81 Z0.5
G1 F1200 X119.85 Y134 Z0.5 E3.21
G1 F1200 X80.48 Y134.19 Z0.5 E6.43
G1 F1200 X60.63 Y100.19 Z0.5 E9.64
G1 F1200 X80.15 Y66 Z0.5 E12.86
G1 F1200 X119.52 Y65.81 Z0.5 E16.07
G1 F1200 X139.37 Y99.81 Z0.5 E19.28
G92 E0
G1  F6000 X141.12 Y99.47 Z1
G1 F1200 X121.02 Y135.34 Z1 E3.36
G1 F1200 X79.9 Y135.88 Z1 E6.71
G1 F1200 X58.88 Y100.53 Z1 E10.07
G1 F1200 X78.98 Y64.66 Z1 E13.43
G1 F1200 X120.1 Y64.12 Z1 E16.79
G1 F1200 X141.12 Y99.47 Z1 E20.14
G92 E0
G1  F6000 X140.36 Y99.47 Z1
G1 F1200 X120.63 Y134.69 Z1 E3.29
G1 F1200 X80.27 Y135.22 Z1 E6.59
G1 F1200 X59.64 Y100.53 Z1 E9.88
G1 F1200 X79.37 Y65.31 Z1 E13.18
G1 F1200 X119.73 Y64.78 Z1 E16.47
G1 F1200 X140.36 Y99.47 Z1 E19.77
G92 E0
G1  F6000 X139.6 Y99.48 Z1
G1 F1200 X120.24 Y134.03 Z1 E3.23
G1 F1200 X80.65 Y134.55 Z1 E6.47
G1 F1200 X60.4 Y100.52 Z1 E9.7
G1 F1200 X79.76 Y65.97 Z1 E12.93
G1 F1200 X119.35 Y65.45 Z1 E16.16
G1 F1200 X139.6 Y99.48 Z1 E19.4
G92 E0
G1  F6000 X141.35 Y99.13 Z1.5
G1 F1200 X121.43 Y135.37 Z1.5 E3.38
G1 F1200 X80.08 Y136.24 Z1.5 E6.75
G1 F1200 X58.65 Y100.87 Z1.5 E10.13
G1 F1200 X78.57 Y64.63 Z1.5 E13.5
G1 F1200 X119.92 Y63.76 Z1.5 E16.88
G1 F1200 X141.35 Y99.13 Z1.5 E20.26
G92 E0
G1  F6000 X140.58 Y99.15 Z1.5
G1 F1200 X121.03 Y134.72 Z1.5 E3.31
G1 F1200 X80.45 Y135.57 Z1.5 E6.63
G1 F1200 X59.42 Y100.85 Z1.5 E9.94
G1 F1200 X78.97 Y65.28 Z1.5 E13.25
G1 F1200 X119.55 Y64.43 Z1.5 E16.57
G1 F1200 X140.58 Y99.15 Z1.5 E19.88
G92 E0
G1  F6000 X139.82 Y99.16 Z1.5
G1 F1200 X120.64 Y134.07 Z1.5 E3.25
G1 F1200 X80.81 Y134.91 Z1.5 E6.5
G1 F1200 X60.18 Y100.84 Z1.5 E9.75
G1 F1200 X79.36 Y65.93 Z1.5 E13.01
G1 F1200 X119.19 Y65.09 Z1.5 E16.26
G1 F1200 X139.82 Y99.16 Z1.5 E19.51
G92 E0
G1  F6000 X141.57 Y98.8 Z2
G1 F1200 X121.83 Y135.4 Z2 E3.39
G1 F1200 X80.26 Y136.6 Z2 E6.79
G1 F1200 X58.43 Y101.2 Z2 E10.18
G1 F1200 X78.17 Y64.6 Z2 E13.58
G1 F1200 X119.74 Y63.4 Z2 E16.97
G1 F1200 X141.57 Y98.8 Z2 E20.37
G92 E0
G1  F6000 X140.81 Y98.82 Z2
G1 F1200 X121.43 Y134.75 Z2 E3.33
G1 F1200 X80.62 Y135.93 Z2 E6.67
G1 F1200 X59.19 Y101.18 Z2 E10
G1 F1200 X78.57 Y65.25 Z2 E13.33
G1 F1200 X119.38 Y64.07 Z2 E16.66
G1 F1200 X140.81 Y98.82 Z2 E20
G92 E0
G1  F6000 X140.05 Y98.84 Z2
G1 F1200 X121.03 Y134.1 Z2 E3.27
G1 F1200 X80.98 Y135.26 Z2 E6.54
G1 F1200 X59.95 Y101.16 Z2 E9.81
G1 F1200 X78.97 Y65.9 Z2 E13.08
G1 F1200 X119.02 Y64.74 Z2 E16.35
G1 F1200 X140.05 Y98.84 Z2 E19.62
G92 E0
G1  F5600 X121.35 Y135.66 Z2.5
G1  F5600 X121.82 Y134.78 Z2.5
G1 F54 E0.337442424242424
G92 E0
G92 E0
G1 F54 E0
G1  F5600 X121.35 Y135.66 Z2.5
G92 E0
G92 E0
G1  F5600 X79.79 Y136.33 Z2.5
G1  F5600 X80.79 Y136.29 Z2.5
G1 F54 E0.337442424242424
G92 E0
G92 E0
G1 F54 E0
G1  F5600 X79.79 Y136.33 Z2.5
G92 E0
G92 E0
G1  F5600 X58.44 Y100.66 Z2.5
G1  F5600 X58.97 Y101.51 Z2.5
G1 F54 E0.337442424242424
G92 E0
G92 E0
G1 F54 E0
G1  F5600 X58.44 Y100.66 Z2.5
G92 E0
G92 E0
G1  F5600 X78.65 Y64.34 Z2.5
G1  F5600 X78.18 Y65.22 Z2.5
G1 F54 E0.337442424242424
G92 E0
G92 E0
G1 F54 E0
G1  F5600 X78.65 Y64.34 Z2.5
G92 E0
G92 E0
G1  F5600 X120.21 Y63.67 Z2.5
G1  F5600 X119.21 Y63.71 Z2.5
G1 F54 E0.337442424242424
G92 E0
G92 E0
G1 F54 E0
G1  F5600 X120.21 Y63.67 Z2.5
G92 E0
G92 E0
G1  F5600 X141.56 Y99.34 Z2.5
G1  F5600 X141.03 Y98.49 Z2.5
G1 F54 E0.337442424242424
G92 E0
G92 E0
G1 F54 E0
G1  F5600 X141.56 Y99.34 Z2.5
G92 E0
G92 E0
G1  F5600 X121.76 Y135.7 Z3
G1  F5600 X122.22 Y134.81 Z3
G1 F54 E0.337442424242424
G92 E0
G92 E0
G1 F54 E0
G1  F5600 X121.76 Y135.7 Z3
G92 E0
G92 E0
G1  F5600 X79.96 Y136.69 Z3
G1  F5600 X80.96 Y136.65 Z3
G1 F54 E0.337442424242424
G92 E0
G92 E0
G1 F54 E0
G1  F5600 X79.96 Y136.69 Z3
G92 E0
G92 E0
G1  F5600 X58.2 Y101 Z3
G1  F5600 X58.74 Y101.84 Z3
G1 F54 E0.337442424242424
G92 E0
G92 E0
G1 F54 E0
G1  F5600 X58.2 Y101 Z3
G92 E0
G92 E0
G1  F5600 X78.24 Y64.3 Z3
G1  F5600 X77.78 Y65.19 Z3
G1 F54 E0.337442424242424
G92 E0
G92 E0
G1 F54 E0
G1  F5600 X78.24 Y64.3 Z3
G92 E0
G92 E0
G1  F5600 X120.04 Y63.31 Z3
G1  F5600 X119.04 Y63.35 Z3
G1 F54 E0.337442424242424
G92 E0
G92 E0
G1 F54 E0
G1  F5600 X120.04 Y63.31 Z3
G92 E0
G92 E0
G1  F5600 X141.8 Y99 Z3
G1  F5600 X141.26 Y98.16 Z3
G1 F54 E0.337442424242424
G92 E0
G92 E0
G1 F54 E0
G1  F5600 X141.8 Y99 Z3
G92 E0
G92 E0
G1  F5600 X122.17 Y135.73 Z3.5
G1  F5600 X122.62 Y134.84 Z3.5
G1 F54 E0.337442424242424
G92 E0
G92 E0
G1 F54 E0
G1  F5600 X122.17 Y135.73 Z3.5
G92 E0
G92 E0
G1  F5600 X80.13 Y137.06 Z3.5
G1  F5600 X81.13 Y137.01 Z3.5
G1 F54 E0.337442424242424
G92 E0
G92 E0
G1 F54 E0
G1  F5600 X80.13 Y137.06 Z3.5
G92 E0
G92 E0
G1  F5600 X57.98 Y101.33 Z3.5
G1  F5600 X58.52 Y102.17 Z3.5
G1 F54 E0.337442424242424
G92 E0
G92 E0
G1 F54 E0
G1  F5600 X57.98 Y101.33 Z3.5
G92 E0
G92 E0
G1  F5600 X77.83 Y64.27 Z3.5
G1  F5600 X77.38 Y65.16 Z3.5
G1 F54 E0.337442424242424
G92 E0
G92 E0
G1 F54 E0
G1  F5600 X77.83 Y64.27 Z3.5
G92 E0
G92 E0
G1  F5600 X119.87 Y62.94 Z3.5
G1  F5600 X118.87 Y62.99 Z3.5
G1 F54 E0.337442424242424
G92 E0
G92 E0
G1 F54 E0
G1  F5600 X119.87 Y62.94 Z3.5
G92 E0
G92 E0
G1  F5600 X142.02 Y98.67 Z3.5
G1  F5600 X141.48 Y97.83 Z3.5
G1 F54 E0.337442424242424
G92 E0
G92 E0
G1 F54 E0
G1  F5600 X142.02 Y98.67 Z3.5
G92 E0
G92 E0
G1  F5600 X122.56 Y135.76 Z4
G1  F5600 X123.01 Y134.87 Z4
G1 F54 E0.337442424242424
G92 E0
G92 E0
G1 F54 E0
G1  F5600 X122.56 Y135.76 Z4
G92 E0
G92 E0
G1  F5600 X80.31 Y137.43 Z4
G1  F5600 X81.31 Y137.37 Z4
G1 F54 E0.337442424242424
G92 E0
G92 E0
G1 F54 E0
G1  F5600 X80.31 Y137.43 Z4
G92 E0
G92 E0
G1  F5600 X57.74 Y101.66 Z4
G1  F5600 X58.29 Y102.49 Z4
G1 F54 E0.337442424242424
G92 E0
G92 E0
G1 F54 E0
G1  F5600 X57.74 Y101.66 Z4
G92 E0
G92 E0
G1  F5600 X77.44 Y64.24 Z4
G1  F5600 X76.99 Y65.13 Z4
G1 F54 E0.337442424242424
G92 E0
G92 E0
G1 F54 E0
G1  F5600 X77.44 Y64.24 Z4
G92 E0
G92 E0
G1  F5600 X119.69 Y62.57 Z4
G1  F5600 X118.69 Y62.63 Z4
G1 F54 E0.337442424242424
G92 E0
G92 E0
G1 F54 E0
G1  F5600 X119.69 Y62.57 Z4
G92 E0
G92 E0
G1  F5600 X142.26 Y98.34 Z4
G1  F5600 X141.71 Y97.51 Z4
G1 F54 E0.337442424242424
G92 E0
G92 E0
G1 F54 E0
G1  F5600 X142.26 Y98.34 Z4
G92 E0
G92 E0
G1  F5600 X122.97 Y135.8 Z4.5
G1  F5600 X123.41 Y134.9 Z4.5
G1 F54 E0.337442424242424
G92 E0
G92 E0
G1 F54 E0
G1  F5600 X122.97 Y135.8 Z4.5
G92 E0
G92 E0
G1  F5600 X80.48 Y137.8 Z4.5
G1  F5600 X81.48 Y137.73 Z4.5
G1 F54 E0.337442424242424
G92 E0
G92 E0
G1 F54 E0
G1  F5600 X80.48 Y137.8 Z4.5
G92 E0
G92 E0
G1  F5600 X57.51 Y101.99 Z4.5
G1  F5600 X58.07 Y102.82 Z4.5
G1 F54 E0.337442424242424
G92 E0
G92 E0
G1 F54 E0
G1  F5600 X57.51 Y101.99 Z4.5
G92 E0
G92 E0
G1  F5600 X77.03 Y64.2 Z4.5
G1  F5600 X76.59 Y65.1 Z4.5
G1 F54 E0.337442424242424
G92 E0
G92 E0
G1 F54 E0
G1  F5600 X77.03 Y64.2 Z4.5
G92 E0
G92 E0
G1  F5600 X119.52 Y62.2 Z4.5
G1  F5600 X118.52 Y62.27 Z4.5
G1 F54 E0.337442424242424
G92 E0
G92 E0
G1 F54 E0
G1  F5600 X119.52 Y62.2 Z4.5
G92 E0
G92 E0
G1  F5600 X142.49 Y98.01 Z4.5
G1  F5600 X141.93 Y97.18 Z4.5
G1 F54 E0.337442424242424
G92 E0
G92 E0
G1 F54 E0
G1  F5600 X142.49 Y98.01 Z4.5
G92 E0
G92 E0
G1  F5600 X123.38 Y135.83 Z5
G1  F5600 X123.81 Y134.93 Z5
G1 F54 E0.337442424242424
G92 E0
G92 E0
G1 F54 E0
G1  F5600 X123.38 Y135.83 Z5
G92 E0
G92 E0
G1  F5600 X80.65 Y138.16 Z5
G1  F5600 X81.65 Y138.09 Z5
G1 F54 E0.337442424242424
G92 E0
G92 E0
G1 F54 E0
G1  F5600 X80.65 Y138.16 Z5
G92 E0
G92 E0
G1  F5600 X57.28 Y102.32 Z5
G1  F5600 X57.84 Y103.15 Z5
G1 F54 E0.337442424242424
G92 E0
G92 E0
G1 F54 E0
G1  F5600 X57.28 Y102.32 Z5
G92 E0
G92 E0
G1  F5600 X76.62 Y64.17 Z5
G1  F5600 X76.19 Y65.07 Z5
G1 F54 E0.337442424242424
G92 E0
G92 E0
G1 F54 E0
G1  F5600 X76.62 Y64.17 Z5
G92 E0
G92 E0
G1  F5600 X119.35 Y61.84 Z5
G1  F5600 X118.35 Y61.91 Z5
G1 F54 E0.337442424242424
G92 E0
G92 E0
G1 F54 E0
G1  F5600 X119.35 Y61.84 Z5
G92 E0
G92 E0
G1  F5600 X142.72 Y97.68 Z5
G1  F5600 X142.16 Y96.85 Z5
G1 F54 E0.337442424242424
G92 E0
G92 E0
G1 F54 E0
G1  F5600 X142.72 Y97.68 Z5
G92 E0
G92 E0
G1  F5600 X123.77 Y135.87 Z5.5
G1  F5600 X124.2 Y134.97 Z5.5
G1 F54 E0.337442424242424
G92 E0
G92 E0
G1 F54 E0
G1  F5600 X123.77 Y135.87 Z5.5
G92 E0
G92 E0
G1  F5600 X80.82 Y138.52 Z5.5
G1  F5600 X81.82 Y138.44 Z5.5
G1 F54 E0.337442424242424
G92 E0
G92 E0
G1 F54 E0
G1  F5600 X80.82 Y138.52 Z5.5
G92 E0
G92 E0
G1  F5600 X57.05 Y102.66 Z5.5
G1  F5600 X57.62 Y103.48 Z5.5
G1 F54 E0.337442424242424
G92 E0
G92 E0
G1 F54 E0
G1  F5600 X57.05 Y102.66 Z5.5
G92 E0
G92 E0
G1  F5600 X76.23 Y64.13 Z5.5
G1  F5600 X75.8 Y65.03 Z5.5
G1 F54 E0.337442424242424
G92 E0
G92 E0
G1 F54 E0
G1  F5600 X76.23 Y64.13 Z5.5
G92 E0
G92 E0
G1  F5600 X119.18 Y61.48 Z5.5
G1  F5600 X118.18 Y61.56 Z5.5
G1 F54 E0.337442424242424
G92 E0
G92 E0
G1 F54 E0
G1  F5600 X119.18 Y61.48 Z5.5
G92 E0
G92 E0
G1  F5600 X142.95 Y97.34 Z5.5
G1  F5600 X142.38 Y96.52 Z5.5
G1 F54 E0.337442424242424
G92 E0
G92 E0
G1 F54 E0
G1  F5600 X142.95 Y97.34 Z5.5
G92 E0
G92 E0
G1  F5600 X124.18 Y135.91 Z6
G1  F5600 X124.6 Y135 Z6
G1 F54 E0.337442424242424
G92 E0
G92 E0
G1 F54 E0
G1  F5600 X124.18 Y135.91 Z6
G92 E0
G92 E0
G1  F5600 X80.99 Y138.89 Z6
G1  F5600 X81.99 Y138.8 Z6
G1 F54 E0.337442424242424
G92 E0
G92 E0
G1 F54 E0
G1  F5600 X80.99 Y138.89 Z6
G92 E0
G92 E0
G1  F5600 X56.81 Y102.99 Z6
G1  F5600 X57.39 Y103.81 Z6
G1 F54 E0.337442424242424
G92 E0
G92 E0
G1 F54 E0
G1  F5600 X56.81 Y102.99 Z6
G92 E0
G92 E0
G1  F5600 X75.82 Y64.09 Z6
G1  F5600 X75.4 Y65 Z6
G1 F54 E0.337442424242424
G92 E0
G92 E0
G1 F54 E0
G1  F5600 X75.82 Y64.09 Z6
G92 E0
G92 E0
G1  F5600 X119.01 Y61.11 Z6
G1  F5600 X118.01 Y61.2 Z6
G1 F54 E0.337442424242424
G92 E0
G92 E0
G1 F54 E0
G1  F5600 X119.01 Y61.11 Z6
G92 E0
G92 E0
G1  F5600 X143.19 Y97.01 Z6
G1  F5600 X142.61 Y96.19 Z6
G1 F54 E0.337442424242424
G92 E0
G92 E0
G1 F54 E0
G1  F5600 X143.19 Y97.01 Z6
G92 E0
G92 E0
G1  F5600 X124.59 Y135.94 Z6.5
G1  F5600 X125 Y135.03 Z6.5
G1 F54 E0.337442424242424
G92 E0
G92 E0
G1 F54 E0
G1  F5600 X124.59 Y135.94 Z6.5
G92 E0
G92 E0
G1  F5600 X81.16 Y139.26 Z6.5
G1  F5600 X82.16 Y139.16 Z6.5
G1 F54 E0.337442424242424
G92 E0
G92 E0
G1 F54 E0
G1  F5600 X81.16 Y139.26 Z6.5
G92 E0
G92 E0
G1  F5600 X56.59 Y103.33 Z6.5
G1  F5600 X57.17 Y104.14 Z6.5
G1 F54 E0.337442424242424
G92 E0
G92 E0
G1 F54 E0
G1  F5600 X56.59 Y103.33 Z6.5
G92 E0
G92 E0
G1  F5600 X75.41 Y64.06 Z6.5
G1  F5600 X75 Y64.97 Z6.5
G1 F54 E0.337442424242424
G92 E0
G92 E0
G1 F54 E0
G1  F5600 X75.41 Y64.06 Z6.5
G92 E0
G92 E0
G1  F5600 X118.84 Y60.74 Z6.5
G1  F5600 X117.84 Y60.84 Z6.5
G1 F54 E0.337442424242424
G92 E0
G92 E0
G1 F54 E0
G1  F5600 X118.84 Y60.74 Z6.5
G92 E0
G92 E0
G1  F5600 X143.41 Y96.67 Z6.5
G1  F5600 X142.83 Y95.86 Z6.5
G1 F54 E0.337442424242424
G92 E0
G92 E0
G1 F54 E0
G1  F5600 X143.41 Y96.67 Z6.5
G92 E0
G92 E0
G1  F5600 X124.98 Y135.97 Z7
G1  F5600 X125.39 Y135.06 Z7
G1 F54 E0.337442424242424
G92 E0
G92 E0
G1 F54 E0
G1  F5600 X124.98 Y135.97 Z7
G92 E0
G92 E0
G1  F5600 X81.35 Y139.62 Z7
G1  F5600 X82.34 Y139.52 Z7
G1 F54 E0.337442424242424
G92 E0
G92 E0
G1 F54 E0
G1  F5600 X81.35 Y139.62 Z7
G92 E0
G92 E0
G1  F5600 X56.35 Y103.65 Z7
G1  F5600 X56.94 Y104.46 Z7
G1 F54 E0.337442424242424
G92 E0
G92 E0
G1 F54 E0
G1  F5600 X56.35 Y103.65 Z7
G92 E0
G92 E0
G1  F5600 X75.02 Y64.03 Z7
G1  F5600 X74.61 Y64.94 Z7
G1 F54 E0.337442424242424
G92 E0
G92 E0
G1 F54 E0
G1  F5600 X75.02 Y64.03 Z7
G92 E0
G92 E0
G1  F5600 X118.65 Y60.38 Z7
G1  F5600 X117.66 Y60.48 Z7
G1 F54 E0.337442424242424
G92 E0
G92 E0
G1 F54 E0
G1  F5600 X118.65 Y60.38 Z7
G92 E0
G92 E0
G1  F5600 X143.65 Y96.35 Z7
G1  F5600 X143.06 Y95.54 Z7
G1 F54 E0.337442424242424
G92 E0
G92 E0
G1 F54 E0
G1  F5600 X143.65 Y96.35 Z7
G92 E0
G92 E0
G1  F5600 X125.39 Y136.01 Z7.5
G1  F5600 X125.79 Y135.09 Z7.5
G1 F54 E0.337442424242424
G92 E0
G92 E0
G1 F54 E0
G1  F5600 X125.39 Y136.01 Z7.5
G92 E0
G92 E0
G1  F5600 X81.52 Y139.99 Z7.5
G1  F5600 X82.51 Y139.88 Z7.5
G1 F54 E0.337442424242424
G92 E0
G92 E0
G1 F54 E0
G1  F5600 X81.52 Y139.99 Z7.5
G92 E0
G92 E0
G1  F5600 X56.13 Y103.98 Z7.5
G1  F5600 X56.72 Y104.79 Z7.5
G1 F54 E0.337442424242424
G92 E0
G92 E0
G1 F54 E0
G1  F5600 X56.13 Y103.98 Z7.5
G92 E0
G92 E0
G1  F5600 X74.61 Y63.99 Z7.5
G1  F5600 X74.21 Y64.91 Z7.5
G1 F54 E0.337442424242424
G92 E0
G92 E0
G1 F54 E0
G1  F5600 X74.61 Y63.99 Z7.5
G92 E0
G92 E0
G1  F5600 X118.48 Y60.01 Z7.5
G1  F5600 X117.49 Y60.12 Z7.5
G1 F54 E0.337442424242424
G92 E0
G92 E0
G1 F54 E0
G1  F5600 X118.48 Y60.01 Z7.5
G92 E0
G92 E0
G1  F5600 X143.87 Y96.02 Z7.5
G1  F5600 X143.28 Y95.21 Z7.5
G1 F54 E0.337442424242424
G92 E0
G92 E0
G1 F54 E0
G1  F5600 X143.87 Y96.02 Z7.5
G92 E0
G92 E0
G1  F5600 X125.79 Y136.04 Z8
G1  F5600 X126.19 Y135.12 Z8
G1 F54 E0.337442424242424
G92 E0
G92 E0
G1 F54 E0
G1  F5600 X125.79 Y136.04 Z8
G92 E0
G92 E0
G1  F5600 X81.69 Y140.36 Z8
G1  F5600 X82.68 Y140.24 Z8
G1 F54 E0.337442424242424
G92 E0
G92 E0
G1 F54 E0
G1  F5600 X81.69 Y140.36 Z8
G92 E0
G92 E0
G1  F5600 X55.89 Y104.32 Z8
G1  F5600 X56.49 Y105.12 Z8
G1 F54 E0.337442424242424
G92 E0
G92 E0
G1 F54 E0
G1  F5600 X55.89 Y104.32 Z8
G92 E0
G92 E0
G1  F5600 X74.21 Y63.96 Z8
G1  F5600 X73.81 Y64.88 Z8
G1 F54 E0.337442424242424
G92 E0
G92 E0
G1 F54 E0
G1  F5600 X74.21 Y63.96 Z8
G92 E0
G92 E0
G1  F5600 X118.31 Y59.64 Z8
G1  F5600 X117.32 Y59.76 Z8
G1 F54 E0.337442424242424
G92 E0
G92 E0
G1 F54 E0
G1  F5600 X118.31 Y59.64 Z8
G92 E0
G92 E0
G1  F5600 X144.11 Y95.68 Z8
G1  F5600 X143.51 Y94.88 Z8
G1 F54 E0.337442424242424
G92 E0
G92 E0
G1 F54 E0
G1  F5600 X144.11 Y95.68 Z8
G92 E0
G92 E0
G1  F5600 X126.19 Y136.07 Z8.5
G1  F5600 X126.58 Y135.15 Z8.5
G1 F54 E0.337442424242424
G92 E0
G92 E0
G1 F54 E0
G1  F5600 X126.19 Y136.07 Z8.5
G92 E0
G92 E0
G1  F5600 X81.86 Y140.72 Z8.5
G1  F5600 X82.85 Y140.6 Z8.5
G1 F54 E0.337442424242424
G92 E0
G92 E0
G1 F54 E0
G1  F5600 X81.86 Y140.72 Z8.5
G92 E0
G92 E0
G1  F5600 X55.67 Y104.65 Z8.5
G1  F5600 X56.27 Y105.45 Z8.5
G1 F54 E0.337442424242424
G92 E0
G92 E0
G1 F54 E0
G1  F5600 X55.67 Y104.65 Z8.5
G92 E0
G92 E0
G1  F5600 X73.81 Y63.93 Z8.5
G1  F5600 X73.42 Y64.85 Z8.5
G1 F54 E0.337442424242424
G92 E0
G92 E0
G1 F54 E0
G1  F5600 X73.81 Y63.93 Z8.5
G92 E0
G92 E0
G1  F5600 X118.14 Y59.28 Z8.5
G1  F5600 X117.15 Y59.4 Z8.5
G1 F54 E0.337442424242424
G92 E0
G92 E0
G1 F54 E0
G1  F5600 X118.14 Y59.28 Z8.5
G92 E0
G92 E0
G1  F5600 X144.33 Y95.35 Z8.5
G1  F5600 X143.73 Y94.55 Z8.5
G1 F54 E0.337442424242424
G92 E0
G92 E0
G1 F54 E0
G1  F5600 X144.33 Y95.35 Z8.5
G92 E0
G92 E0
G1  F5600 X126.6 Y136.1 Z9
G1  F5600 X126.98 Y135.18 Z9
G1 F54 E0.337442424242424
G92 E0
G92 E0
G1 F54 E0
G1  F5600 X126.6 Y136.1 Z9
G92 E0
G92 E0
G1  F5600 X82.03 Y141.09 Z9
