;START_OF_HEADER
;HEADER_VERSION:0.1
;FLAVOR:Griffin
;GENERATOR.NAME:Cura_SteamEngine
;GENERATOR.VERSION:4.7.1
;GENERATOR.BUILD_DATE:2020-09-02
;TARGET_MACHINE.NAME:Ultimaker 3
;EXTRUDER_TRAIN.0.INITIAL_TEMPERATURE:205
;EXTRUDER_TRAIN.0.MATERIAL.VOLUME_USED:81
;EXTRUDER_TRAIN.0.MATERIAL.GUID:506c9f0d-e3aa-4bd4-b2d2-23e2425b1aa9
;EXTRUDER_TRAIN.0.NOZZLE.DIAMETER:0.4
;EXTRUDER_TRAIN.0.NOZZLE.NAME:AA 0.4
;BUILD_PLATE.TYPE:glass
;BUILD_PLATE.INITIAL_TEMPERATURE:60
;PRINT.TIME:95
;PRINT.GROUPS:1
;PRINT.SIZE.MIN.X:9
;PRINT.SIZE.MIN.Y:6
;PRINT.SIZE.MIN.Z:0.27
;PRINT.SIZE.MAX.X:125.628
;PRINT.SIZE.MAX.Y:116.295
;PRINT.SIZE.MAX.Z:3.87
;END_OF_HEADER
;Generated with Cura_SteamEngine 4.7.1
T0
M82 ;absolute extrusion mode

G92 E0
M109 S200
G0 F15000 X9 Y6 Z2
G280
G1 F1500 E-6.5
;LAYER_COUNT:39
;LAYER:0
M107
M204 S625
M205 X6 Y6
G1 F600 Z2.27
G0 F4285.7 X109.682 Y101.958 Z2.27
M204 S500
M205 X5 Y5
;- END OF START GCODE - 
 G28 ; home all axes
M82 ; use absolute distances for extrusion
G90 ; use absolute coordinates
G21 ; set units to millimeters
G92 E0 ; reset extrusion distance
M104 S185 ; set temperature
M109 S185 ; wait for temperature to be reached
G1 Z0.0 F360 E1
G92 E0
G1  F6000 X139.24 Y100 Z0
G1 F1200 X119.62 Y66.02 Z0 E3.2
G1 F1200 X80.38 Y66.02 Z0 E6.41
G1 F1200 X60.76 Y100 Z0 E9.61
G1 F1200 X80.38 Y133.98 Z0 E12.81
G1 F1200 X119.62 Y133.98 Z0 E16.02
G1 F1200 X139.24 Y100 Z0 E19.22
G92 E0
G1  F6000 X140 Y100 Z0
G1 F1200 X120 Y65.36 Z0 E3.27
G1 F1200 X80 Y65.36 Z0 E6.53
G1 F1200 X60 Y100 Z0 E9.8
G1 F1200 X80 Y134.64 Z0 E13.06
G1 F1200 X120 Y134.64 Z0 E16.33
G1 F1200 X140 Y100 Z0 E19.59
G92 E0
G1  F6000 X140.76 Y100 Z0
G1 F1200 X120.38 Y64.7 Z0 E3.33
G1 F1200 X79.62 Y64.7 Z0 E6.66
G1 F1200 X59.24 Y100 Z0 E9.98
G1 F1200 X79.62 Y135.3 Z0 E13.31
G1 F1200 X120.38 Y135.3 Z0 E16.64
G1 F1200 X140.76 Y100 Z0 E19.97
G92 E0
G1  F6000 X139.56 Y100.75 Z0.5
G1 F1200 X120.42 Y66.12 Z0.5 E3.23
G1 F1200 X80.87 Y65.37 Z0.5 E6.46
G1 F1200 X60.44 Y99.25 Z0.5 E9.69
G1 F1200 X79.58 Y133.88 Z0.5 E12.92
G1 F1200 X119.13 Y134.63 Z0.5 E16.15
G1 F1200 X139.56 Y100.75 Z0.5 E19.38
G92 E0
G1  F6000 X140.32 Y100.76 Z0.5
G1 F1200 X120.82 Y65.46 Z0.5 E3.29
G1 F1200 X80.5 Y64.7 Z0.5 E6.58
G1 F1200 X59.68 Y99.24 Z0.5 E9.88
G1 F1200 X79.18 Y134.54 Z0.5 E13.17
G1 F1200 X119.5 Y135.3 Z0.5 E16.46
G1 F1200 X140.32 Y100.76 Z0.5 E19.75
G92 E0
G1  F6000 X141.08 Y100.77 Z0.5
G1 F1200 X121.21 Y64.81 Z0.5 E3.35
G1 F1200 X80.13 Y64.04 Z0.5 E6.71
G1 F1200 X58.92 Y99.23 Z0.5 E10.06
G1 F1200 X78.79 Y135.19 Z0.5 E13.42
G1 F1200 X119.87 Y135.96 Z0.5 E16.77
G1 F1200 X141.08 Y100.77 Z0.5 E20.12
G92 E0
G1  F6000 X139.87 Y101.49 Z1
G1 F1200 X121.23 Y66.22 Z1 E3.26
G1 F1200 X81.36 Y64.72 Z1 E6.51
G1 F1200 X60.13 Y98.51 Z1 E9.77
G1 F1200 X78.77 Y133.78 Z1 E13.03
G1 F1200 X118.64 Y135.28 Z1 E16.29
G1 F1200 X139.87 Y101.49 Z1 E19.54
G92 E0
G1  F6000 X140.63 Y101.52 Z1
G1 F1200 X121.63 Y65.57 Z1 E3.32
G1 F1200 X81 Y64.05 Z1 E6.64
G1 F1200 X59.37 Y98.48 Z1 E9.96
G1 F1200 X78.37 Y134.43 Z1 E13.28
G1 F1200 X119 Y135.95 Z1 E16.6
G1 F1200 X140.63 Y101.52 Z1 E19.92
G92 E0
G1  F6000 X141.4 Y101.55 Z1
G1 F1200 X122.04 Y64.92 Z1 E3.38
G1 F1200 X80.64 Y63.38 Z1 E6.76
G1 F1200 X58.6 Y98.45 Z1 E10.14
G1 F1200 X77.96 Y135.08 Z1 E13.53
G1 F1200 X119.36 Y136.62 Z1 E16.91
G1 F1200 X141.4 Y101.55 Z1 E20.29
G92 E0
G1  F6000 X140.19 Y102.24 Z1.5
G1 F1200 X122.03 Y66.31 Z1.5 E3.29
G1 F1200 X81.84 Y64.07 Z1.5 E6.57
G1 F1200 X59.81 Y97.76 Z1.5 E9.86
G1 F1200 X77.97 Y133.69 Z1.5 E13.14
G1 F1200 X118.16 Y135.93 Z1.5 E16.43
G1 F1200 X140.19 Y102.24 Z1.5 E19.72
G92 E0
G1  F6000 X140.95 Y102.28 Z1.5
G1 F1200 X122.45 Y65.68 Z1.5 E3.35
G1 F1200 X81.5 Y63.39 Z1.5 E6.7
G1 F1200 X59.05 Y97.72 Z1.5 E10.04
G1 F1200 X77.55 Y134.32 Z1.5 E13.39
G1 F1200 X118.5 Y136.61 Z1.5 E16.74
G1 F1200 X140.95 Y102.28 Z1.5 E20.09
G92 E0
G1  F6000 X141.71 Y102.32 Z1.5
G1 F1200 X122.87 Y65.04 Z1.5 E3.41
G1 F1200 X81.16 Y62.71 Z1.5 E6.82
G1 F1200 X58.29 Y97.68 Z1.5 E10.23
G1 F1200 X77.13 Y134.96 Z1.5 E13.64
G1 F1200 X118.84 Y137.29 Z1.5 E17.05
G1 F1200 X141.71 Y102.32 Z1.5 E20.46
G92 E0
G1  F5600 X122.84 Y64.88 Z2
G1  F5600 X123.27 Y65.78 Z2
G1 F54 E0.697063636363636
G92 E0
G92 E0
G1 F54 E0
G1  F5600 X122.84 Y64.88 Z2
G92 E0
G92 E0
G1  F5600 X81 Y62.67 Z2
G1  F5600 X82 Y62.74 Z2
G1 F54 E0.697063636363636
G92 E0
G92 E0
G1 F54 E0
G1  F5600 X81 Y62.67 Z2
G92 E0
G92 E0
G1  F5600 X58.17 Y97.79 Z2
G1  F5600 X58.73 Y96.96 Z2
G1 F54 E0.697063636363636
G92 E0
G92 E0
G1 F54 E0
G1  F5600 X58.17 Y97.79 Z2
G92 E0
G92 E0
G1  F5600 X77.16 Y135.12 Z2
G1  F5600 X76.73 Y134.22 Z2
G1 F54 E0.697063636363636
G92 E0
G92 E0
G1 F54 E0
G1  F5600 X77.16 Y135.12 Z2
G92 E0
G92 E0
G1  F5600 X119 Y137.33 Z2
G1  F5600 X118 Y137.26 Z2
G1 F54 E0.697063636363636
G92 E0
G92 E0
G1 F54 E0
G1  F5600 X119 Y137.33 Z2
G92 E0
G92 E0
G1  F5600 X141.83 Y102.21 Z2
G1  F5600 X141.27 Y103.04 Z2
G1 F54 E0.697063636363636
G92 E0
G92 E0
G1 F54 E0
G1  F5600 X141.83 Y102.21 Z2
G92 E0
G92 E0
G1  F5600 X123.67 Y64.98 Z2.5
G1  F5600 X124.09 Y65.89 Z2.5
G1 F54 E0.697063636363636
G92 E0
G92 E0
G1 F54 E0
G1  F5600 X123.67 Y64.98 Z2.5
G92 E0
G92 E0
G1  F5600 X81.5 Y61.99 Z2.5
G1  F5600 X82.5 Y62.08 Z2.5
G1 F54 E0.697063636363636
G92 E0
G92 E0
G1 F54 E0
G1  F5600 X81.5 Y61.99 Z2.5
G92 E0
G92 E0
G1  F5600 X57.83 Y97.02 Z2.5
G1  F5600 X58.41 Y96.2 Z2.5
G1 F54 E0.697063636363636
G92 E0
G92 E0
G1 F54 E0
G1  F5600 X57.83 Y97.02 Z2.5
G92 E0
G92 E0
G1  F5600 X76.33 Y135.02 Z2.5
G1  F5600 X75.91 Y134.11 Z2.5
G1 F54 E0.697063636363636
G92 E0
G92 E0
G1 F54 E0
G1  F5600 X76.33 Y135.02 Z2.5
G92 E0
G92 E0
G1  F5600 X118.5 Y138.01 Z2.5
G1  F5600 X117.5 Y137.92 Z2.5
G1 F54 E0.697063636363636
G92 E0
G92 E0
G1 F54 E0
G1  F5600 X118.5 Y138.01 Z2.5
G92 E0
G92 E0
G1  F5600 X142.17 Y102.98 Z2.5
G1  F5600 X141.59 Y103.8 Z2.5
G1 F54 E0.697063636363636
G92 E0
G92 E0
G1 F54 E0
G1  F5600 X142.17 Y102.98 Z2.5
G92 E0
G92 E0
G1  F5600 X124.5 Y65.07 Z3
G1  F5600 X124.9 Y65.99 Z3
G1 F54 E0.697063636363636
G92 E0
G92 E0
G1 F54 E0
G1  F5600 X124.5 Y65.07 Z3
G92 E0
G92 E0
G1  F5600 X82.01 Y61.32 Z3
G1  F5600 X83 Y61.43 Z3
G1 F54 E0.697063636363636
G92 E0
G92 E0
G1 F54 E0
G1  F5600 X82.01 Y61.32 Z3
G92 E0
G92 E0
G1  F5600 X57.51 Y96.25 Z3
G1  F5600 X58.1 Y95.44 Z3
G1 F54 E0.697063636363636
G92 E0
G92 E0
G1 F54 E0
G1  F5600 X57.51 Y96.25 Z3
G92 E0
G92 E0
G1  F5600 X75.5 Y134.93 Z3
G1  F5600 X75.1 Y134.01 Z3
G1 F54 E0.697063636363636
G92 E0
G92 E0
G1 F54 E0
G1  F5600 X75.5 Y134.93 Z3
G92 E0
G92 E0
G1  F5600 X117.99 Y138.68 Z3
G1  F5600 X117 Y138.57 Z3
G1 F54 E0.697063636363636
G92 E0
G92 E0
G1 F54 E0
G1  F5600 X117.99 Y138.68 Z3
G92 E0
G92 E0
G1  F5600 X142.49 Y103.75 Z3
G1  F5600 X141.9 Y104.56 Z3
G1 F54 E0.697063636363636
G92 E0
G92 E0
G1 F54 E0
G1  F5600 X142.49 Y103.75 Z3
G92 E0
G92 E0
G1  F5600 X125.33 Y65.18 Z3.5
G1  F5600 X125.72 Y66.1 Z3.5
G1 F54 E0.697063636363636
G92 E0
G92 E0
G1 F54 E0
G1  F5600 X125.33 Y65.18 Z3.5
G92 E0
G92 E0
G1  F5600 X82.51 Y60.65 Z3.5
G1  F5600 X83.5 Y60.78 Z3.5
G1 F54 E0.697063636363636
G92 E0
G92 E0
G1 F54 E0
G1  F5600 X82.51 Y60.65 Z3.5
G92 E0
G92 E0
G1  F5600 X57.18 Y95.48 Z3.5
G1  F5600 X57.78 Y94.68 Z3.5
G1 F54 E0.697063636363636
G92 E0
G92 E0
G1 F54 E0
G1  F5600 X57.18 Y95.48 Z3.5
G92 E0
G92 E0
G1  F5600 X74.67 Y134.82 Z3.5
G1  F5600 X74.28 Y133.9 Z3.5
G1 F54 E0.697063636363636
G92 E0
G92 E0
G1 F54 E0
G1  F5600 X74.67 Y134.82 Z3.5
G92 E0
G92 E0
G1  F5600 X117.49 Y139.35 Z3.5
G1  F5600 X116.5 Y139.22 Z3.5
G1 F54 E0.697063636363636
G92 E0
G92 E0
G1 F54 E0
G1  F5600 X117.49 Y139.35 Z3.5
G92 E0
G92 E0
G1  F5600 X142.82 Y104.52 Z3.5
G1  F5600 X142.22 Y105.32 Z3.5
G1 F54 E0.697063636363636
G92 E0
G92 E0
G1 F54 E0
G1  F5600 X142.82 Y104.52 Z3.5
G92 E0
G92 E0
G1  F5600 X126.17 Y65.27 Z4
G1  F5600 X126.54 Y66.2 Z4
G1 F54 E0.697063636363636
G92 E0
G92 E0
G1 F54 E0
G1  F5600 X126.17 Y65.27 Z4
G92 E0
G92 E0
G1  F5600 X83.01 Y59.98 Z4
G1  F5600 X84 Y60.12 Z4
G1 F54 E0.697063636363636
G92 E0
G92 E0
G1 F54 E0
G1  F5600 X83.01 Y59.98 Z4
G92 E0
G92 E0
G1  F5600 X56.84 Y94.71 Z4
G1  F5600 X57.46 Y93.92 Z4
G1 F54 E0.697063636363636
G92 E0
G92 E0
G1 F54 E0
G1  F5600 X56.84 Y94.71 Z4
G92 E0
G92 E0
G1  F5600 X73.83 Y134.73 Z4
G1  F5600 X73.46 Y133.8 Z4
G1 F54 E0.697063636363636
G92 E0
G92 E0
G1 F54 E0
G1  F5600 X73.83 Y134.73 Z4
G92 E0
G92 E0
G1  F5600 X116.99 Y140.02 Z4
G1  F5600 X116 Y139.88 Z4
G1 F54 E0.697063636363636
G92 E0
G92 E0
G1 F54 E0
G1  F5600 X116.99 Y140.02 Z4
G92 E0
G92 E0
G1  F5600 X143.16 Y105.29 Z4
G1  F5600 X142.54 Y106.08 Z4
G1 F54 E0.697063636363636
G92 E0
G92 E0
G1 F54 E0
G1  F5600 X143.16 Y105.29 Z4
G92 E0
G92 E0
G1  F5600 X126.99 Y65.38 Z4.5
G1  F5600 X127.35 Y66.31 Z4.5
G1 F54 E0.697063636363636
G92 E0
G92 E0
G1 F54 E0
G1  F5600 X126.99 Y65.38 Z4.5
G92 E0
G92 E0
G1  F5600 X83.51 Y59.31 Z4.5
G1  F5600 X84.5 Y59.47 Z4.5
G1 F54 E0.697063636363636
G92 E0
G92 E0
G1 F54 E0
G1  F5600 X83.51 Y59.31 Z4.5
G92 E0
G92 E0
G1  F5600 X56.52 Y93.94 Z4.5
G1  F5600 X57.15 Y93.16 Z4.5
G1 F54 E0.697063636363636
G92 E0
G92 E0
G1 F54 E0
G1  F5600 X56.52 Y93.94 Z4.5
G92 E0
G92 E0
G1  F5600 X73.01 Y134.62 Z4.5
G1  F5600 X72.65 Y133.69 Z4.5
G1 F54 E0.697063636363636
G92 E0
G92 E0
G1 F54 E0
G1  F5600 X73.01 Y134.62 Z4.5
G92 E0
G92 E0
G1  F5600 X116.49 Y140.69 Z4.5
G1  F5600 X115.5 Y140.53 Z4.5
G1 F54 E0.697063636363636
G92 E0
G92 E0
G1 F54 E0
G1  F5600 X116.49 Y140.69 Z4.5
G92 E0
G92 E0
G1  F5600 X143.48 Y106.06 Z4.5
G1  F5600 X142.85 Y106.84 Z4.5
G1 F54 E0.697063636363636
G92 E0
G92 E0
G1 F54 E0
G1  F5600 X143.48 Y106.06 Z4.5
G92 E0
G92 E0
G1  F5600 X127.83 Y65.48 Z5
G1  F5600 X128.17 Y66.42 Z5
G1 F54 E0.697063636363636
G92 E0
G92 E0
G1 F54 E0
G1  F5600 X127.83 Y65.48 Z5
G92 E0
G92 E0
G1  F5600 X84.02 Y58.64 Z5
G1  F5600 X85 Y58.81 Z5
G1 F54 E0.697063636363636
G92 E0
G92 E0
G1 F54 E0
G1  F5600 X84.02 Y58.64 Z5
G92 E0
G92 E0
G1  F5600 X56.19 Y93.17 Z5
G1  F5600 X56.83 Y92.4 Z5
G1 F54 E0.697063636363636
G92 E0
G92 E0
G1 F54 E0
G1  F5600 X56.19 Y93.17 Z5
G92 E0
G92 E0
G1  F5600 X72.17 Y134.52 Z5
G1  F5600 X71.83 Y133.58 Z5
G1 F54 E0.697063636363636
G92 E0
G92 E0
G1 F54 E0
G1  F5600 X72.17 Y134.52 Z5
G92 E0
G92 E0
G1  F5600 X115.98 Y141.36 Z5
G1  F5600 X115 Y141.19 Z5
G1 F54 E0.697063636363636
G92 E0
G92 E0
G1 F54 E0
G1  F5600 X115.98 Y141.36 Z5
G92 E0
G92 E0
G1  F5600 X143.81 Y106.83 Z5
G1  F5600 X143.17 Y107.6 Z5
G1 F54 E0.697063636363636
G92 E0
G92 E0
G1 F54 E0
G1  F5600 X143.81 Y106.83 Z5
G92 E0
G92 E0
G1  F5600 X128.66 Y65.58 Z5.5
G1  F5600 X128.99 Y66.52 Z5.5
G1 F54 E0.697063636363636
G92 E0
G92 E0
G1 F54 E0
G1  F5600 X128.66 Y65.58 Z5.5
G92 E0
G92 E0
G1  F5600 X84.52 Y57.97 Z5.5
G1  F5600 X85.5 Y58.16 Z5.5
G1 F54 E0.697063636363636
G92 E0
G92 E0
G1 F54 E0
G1  F5600 X84.52 Y57.97 Z5.5
G92 E0
G92 E0
G1  F5600 X55.86 Y92.4 Z5.5
G1  F5600 X56.51 Y91.64 Z5.5
G1 F54 E0.697063636363636
G92 E0
G92 E0
G1 F54 E0
G1  F5600 X55.86 Y92.4 Z5.5
G92 E0
G92 E0
G1  F5600 X71.34 Y134.42 Z5.5
G1  F5600 X71.01 Y133.48 Z5.5
G1 F54 E0.697063636363636
G92 E0
G92 E0
G1 F54 E0
G1  F5600 X71.34 Y134.42 Z5.5
G92 E0
G92 E0
G1  F5600 X115.48 Y142.03 Z5.5
G1  F5600 X114.5 Y141.84 Z5.5
G1 F54 E0.697063636363636
G92 E0
G92 E0
G1 F54 E0
G1  F5600 X115.48 Y142.03 Z5.5
G92 E0
G92 E0
G1  F5600 X144.14 Y107.6 Z5.5
G1  F5600 X143.49 Y108.36 Z5.5
G1 F54 E0.697063636363636
G92 E0
G92 E0
G1 F54 E0
G1  F5600 X144.14 Y107.6 Z5.5
G92 E0
G92 E0
G1  F5600 X129.49 Y65.68 Z6
G1  F5600 X129.8 Y66.63 Z6
G1 F54 E0.697063636363636
G92 E0
G92 E0
G1 F54 E0
G1  F5600 X129.49 Y65.68 Z6
G92 E0
G92 E0
G1  F5600 X85.02 Y57.3 Z6
G1  F5600 X86 Y57.5 Z6
G1 F54 E0.697063636363636
G92 E0
G92 E0
G1 F54 E0
G1  F5600 X85.02 Y57.3 Z6
G92 E0
G92 E0
G1  F5600 X55.53 Y91.63 Z6
G1  F5600 X56.2 Y90.88 Z6
G1 F54 E0.697063636363636
G92 E0
G92 E0
G1 F54 E0
G1  F5600 X55.53 Y91.63 Z6
G92 E0
G92 E0
G1  F5600 X70.51 Y134.32 Z6
G1  F5600 X70.2 Y133.37 Z6
G1 F54 E0.697063636363636
G92 E0
G92 E0
G1 F54 E0
G1  F5600 X70.51 Y134.32 Z6
G92 E0
G92 E0
G1  F5600 X114.98 Y142.7 Z6
G1  F5600 X114 Y142.5 Z6
G1 F54 E0.697063636363636
G92 E0
G92 E0
G1 F54 E0
G1  F5600 X114.98 Y142.7 Z6
G92 E0
G92 E0
G1  F5600 X144.47 Y108.37 Z6
G1  F5600 X143.8 Y109.12 Z6
G1 F54 E0.697063636363636
G92 E0
G92 E0
G1 F54 E0
G1  F5600 X144.47 Y108.37 Z6
G92 E0
G92 E0
G1  F5600 X130.32 Y65.78 Z6.5
G1  F5600 X130.62 Y66.73 Z6.5
G1 F54 E0.697063636363636
G92 E0
G92 E0
G1 F54 E0
G1  F5600 X130.32 Y65.78 Z6.5
G92 E0
G92 E0
G1  F5600 X85.52 Y56.63 Z6.5
G1  F5600 X86.5 Y56.85 Z6.5
G1 F54 E0.697063636363636
G92 E0
G92 E0
G1 F54 E0
G1  F5600 X85.52 Y56.63 Z6.5
G92 E0
G92 E0
G1  F5600 X55.2 Y90.85 Z6.5
G1  F5600 X55.88 Y90.11 Z6.5
G1 F54 E0.697063636363636
G92 E0
G92 E0
G1 F54 E0
G1  F5600 X55.2 Y90.85 Z6.5
G92 E0
G92 E0
G1  F5600 X69.68 Y134.22 Z6.5
G1  F5600 X69.38 Y133.27 Z6.5
G1 F54 E0.697063636363636
G92 E0
G92 E0
G1 F54 E0
G1  F5600 X69.68 Y134.22 Z6.5
G92 E0
G92 E0
G1  F5600 X114.48 Y143.37 Z6.5
G1  F5600 X113.5 Y143.15 Z6.5
G1 F54 E0.697063636363636
G92 E0
G92 E0
G1 F54 E0
G1  F5600 X114.48 Y143.37 Z6.5
G92 E0
G92 E0
G1  F5600 X144.8 Y109.15 Z6.5
G1  F5600 X144.12 Y109.89 Z6.5
G1 F54 E0.697063636363636
G92 E0
G92 E0
G1 F54 E0
G1  F5600 X144.8 Y109.15 Z6.5
G92 E0
G92 E0
G1  F5600 X131.16 Y65.88 Z7
G1  F5600 X131.44 Y66.84 Z7
G1 F54 E0.697063636363636
G92 E0
G92 E0
G1 F54 E0
G1  F5600 X131.16 Y65.88 Z7
G92 E0
G92 E0
G1  F5600 X86.03 Y55.96 Z7
G1  F5600 X87 Y56.19 Z7
G1 F54 E0.697063636363636
G92 E0
G92 E0
G1 F54 E0
G1  F5600 X86.03 Y55.96 Z7
G92 E0
G92 E0
G1  F5600 X54.87 Y90.08 Z7
G1  F5600 X55.56 Y89.35 Z7
G1 F54 E0.697063636363636
G92 E0
G92 E0
G1 F54 E0
G1  F5600 X54.87 Y90.08 Z7
G92 E0
G92 E0
G1  F5600 X68.84 Y134.12 Z7
G1  F5600 X68.56 Y133.16 Z7
G1 F54 E0.697063636363636
G92 E0
G92 E0
G1 F54 E0
G1  F5600 X68.84 Y134.12 Z7
G92 E0
G92 E0
G1  F5600 X113.97 Y144.04 Z7
G1  F5600 X113 Y143.81 Z7
G1 F54 E0.697063636363636
G92 E0
G92 E0
G1 F54 E0
G1  F5600 X113.97 Y144.04 Z7
G92 E0
G92 E0
G1  F5600 X145.13 Y109.92 Z7
G1  F5600 X144.44 Y110.65 Z7
G1 F54 E0.697063636363636
G92 E0
G92 E0
G1 F54 E0
G1  F5600 X145.13 Y109.92 Z7
G92 E0
G92 E0
G1  F5600 X131.99 Y65.98 Z7.5
G1  F5600 X132.26 Y66.94 Z7.5
G1 F54 E0.697063636363636
G92 E0
G92 E0
G1 F54 E0
G1  F5600 X131.99 Y65.98 Z7.5
G92 E0
G92 E0
G1  F5600 X86.53 Y55.29 Z7.5
G1  F5600 X87.5 Y55.54 Z7.5
G1 F54 E0.697063636363636
G92 E0
G92 E0
G1 F54 E0
G1  F5600 X86.53 Y55.29 Z7.5
G92 E0
G92 E0
G1  F5600 X54.54 Y89.31 Z7.5
G1  F5600 X55.24 Y88.59 Z7.5
G1 F54 E0.697063636363636
G92 E0
G92 E0
G1 F54 E0
G1  F5600 X54.54 Y89.31 Z7.5
G92 E0
G92 E0
G1  F5600 X68.01 Y134.02 Z7.5
G1  F5600 X67.74 Y133.06 Z7.5
G1 F54 E0.697063636363636
G92 E0
G92 E0
G1 F54 E0
G1  F5600 X68.01 Y134.02 Z7.5
G92 E0
G92 E0
G1  F5600 X113.47 Y144.71 Z7.5
G1  F5600 X112.5 Y144.46 Z7.5
G1 F54 E0.697063636363636
G92 E0
G92 E0
G1 F54 E0
G1  F5600 X113.47 Y144.71 Z7.5
G92 E0
G92 E0
G1  F5600 X145.46 Y110.69 Z7.5
G1  F5600 X144.76 Y111.41 Z7.5
G1 F54 E0.697063636363636
G92 E0
G92 E0
G1 F54 E0
G1  F5600 X145.46 Y110.69 Z7.5
G92 E0
G92 E0
G1  F5600 X132.81 Y66.08 Z8
G1  F5600 X133.07 Y67.05 Z8
G1 F54 E0.697063636363636
G92 E0
G92 E0
G1 F54 E0
G1  F5600 X132.81 Y66.08 Z8
G92 E0
G92 E0
G1  F5600 X87.03 Y54.62 Z8
G1  F5600 X88 Y54.88 Z8
G1 F54 E0.697063636363636
G92 E0
G92 E0
G1 F54 E0
G1  F5600 X87.03 Y54.62 Z8
G92 E0
G92 E0
G1  F5600 X54.22 Y88.54 Z8
G1  F5600 X54.93 Y87.83 Z8
G1 F54 E0.697063636363636
G92 E0
G92 E0
G1 F54 E0
G1  F5600 X54.22 Y88.54 Z8
G92 E0
G92 E0
G1  F5600 X67.19 Y133.92 Z8
G1  F5600 X66.93 Y132.95 Z8
G1 F54 E0.697063636363636
G92 E0
G92 E0
G1 F54 E0
G1  F5600 X67.19 Y133.92 Z8
G92 E0
G92 E0
G1  F5600 X112.97 Y145.38 Z8
G1  F5600 X112 Y145.12 Z8
G1 F54 E0.697063636363636
G92 E0
G92 E0
G1 F54 E0
G1  F5600 X112.97 Y145.38 Z8
G92 E0
G92 E0
G1  F5600 X145.78 Y111.46 Z8
G1  F5600 X145.07 Y112.17 Z8
G1 F54 E0.697063636363636
G92 E0
G92 E0
G1 F54 E0
G1  F5600 X145.78 Y111.46 Z8
G92 E0
G92 E0
G1  F5600 X133.65 Y66.18 Z8.5
G1  F5600 X133.89 Y67.15 Z8.5
G1 F54 E0.697063636363636
G92 E0
G92 E0
G1 F54 E0
G1  F5600 X133.65 Y66.18 Z8.5
G92 E0
G92 E0
G1  F5600 X87.54 Y53.96 Z8.5
G1  F5600 X88.5 Y54.23 Z8.5
G1 F54 E0.697063636363636
G92 E0
G92 E0
G1 F54 E0
G1  F5600 X87.54 Y53.96 Z8.5
G92 E0
